;FLAVOR:Marlin
;TIME:3042
;Filament used: 1.75211m
;Layer height: 0.2
;MINX:104.926
;MINY:85.586
;MINZ:0.2
;MAXX:155.073
;MAXY:134.413
;MAXZ:16.2
;POSTPROCESSED
;Generated with Cura_SteamEngine 5.3.1
;
;

M82 ;absolute extrusion mode
START_PRINT EXTRUDER_TEMP=250.0 BED_TEMP=100 RELATIVE_E_MODE=False PROBE=false PROBE_AREA_START=%MINX%,%MINY% PROBE_AREA_END=%MAXX%,%MAXY%
G92 E0
G92 E0
G1 F1500 E-6.5
;LAYER_COUNT:81
;LAYER:0
M107
G0 F6000 X126.574 Y89.303 Z0.2
;TYPE:SKIRT
G1 F1500 E0
G1 F900 X127.074 Y88.651 E0.02733
G1 X127.508 Y88.114 E0.05029
G1 X127.801 Y87.815 E0.06422
G1 X128.146 Y87.576 E0.07818
G1 X128.606 Y87.384 E0.09475
G1 X128.972 Y87.279 E0.10742
G1 X129.655 Y87.106 E0.13085
G1 X130.443 Y86.924 E0.15775
G1 X130.978 Y86.811 E0.17594
G1 X131.68 Y86.676 E0.19971
G1 X132.536 Y86.535 E0.22857
G1 X133.21 Y86.443 E0.25119
G1 X133.913 Y86.384 E0.27466
G1 X134.332 Y86.391 E0.2886
G1 X134.742 Y86.477 E0.30253
G1 X135.129 Y86.639 E0.31648
G1 X135.544 Y86.929 E0.33332
G1 X135.863 Y87.211 E0.34748
G1 X136.149 Y87.517 E0.36142
G1 X136.446 Y88.035 E0.38127
G1 X136.757 Y88.805 E0.4089
G1 X137.177 Y89.891 E0.44762
G1 X138.249 Y92.446 E0.53978
G1 X139.396 Y94.978 E0.63223
G1 X140.586 Y97.418 E0.72252
G1 X141.885 Y99.902 E0.81576
G1 X143.244 Y102.33 E0.9083
G1 X144.65 Y104.682 E0.99944
G1 X146.14 Y107.023 E1.09174
G1 X147.755 Y109.406 E1.18748
G1 X148.276 Y110.15 E1.21769
G1 X148.483 Y110.515 E1.23165
G1 X148.596 Y110.832 E1.24284
G1 X148.982 Y112.245 E1.29156
G1 X149.756 Y114.9 E1.38354
G1 X150.619 Y117.575 E1.47703
G1 X151.533 Y120.156 E1.5681
G1 X152.535 Y122.749 E1.66056
G1 X153.405 Y124.83 E1.73558
G1 X153.77 Y125.68 E1.76634
G1 X153.966 Y126.182 E1.78427
G1 X154.088 Y126.586 E1.7983
G1 X154.189 Y127.023 E1.81322
G1 X154.25 Y127.461 E1.82793
G1 X154.271 Y127.746 E1.83743
G1 X154.275 Y128.227 E1.85343
G1 X154.235 Y128.692 E1.86896
G1 X154.154 Y129.218 E1.88666
G1 X154.025 Y129.684 E1.90274
G1 X153.873 Y130.111 E1.91781
G1 X153.702 Y130.493 E1.93173
G1 X153.437 Y130.987 E1.95038
G1 X153.115 Y131.438 E1.96881
G1 X152.825 Y131.785 E1.98385
G1 X152.55 Y132.068 E1.99698
G1 X152.168 Y132.404 E2.0139
G1 X151.909 Y132.597 E2.02464
G1 X151.475 Y132.872 E2.04173
G1 X151.069 Y133.084 E2.05696
G1 X150.812 Y133.198 E2.06631
G1 X150.351 Y133.36 E2.08257
G1 X149.934 Y133.475 E2.09695
G1 X149.631 Y133.536 E2.10723
G1 X149.298 Y133.579 E2.1184
G1 X148.98 Y133.606 E2.12902
G1 X148.512 Y133.615 E2.14458
G1 X145.395 Y133.371 E2.24857
G1 X142.623 Y133.232 E2.34089
G1 X139.883 Y133.172 E2.43204
G1 X137.085 Y133.19 E2.52511
G1 X133.782 Y133.313 E2.63504
G1 X133.364 Y133.289 E2.64897
G1 X132.957 Y133.186 E2.66293
G1 X132.51 Y132.965 E2.67951
G1 X132.027 Y132.654 E2.69862
G1 X130.569 Y131.687 E2.75681
G1 X128.18 Y130.2 E2.8504
G1 X125.808 Y128.815 E2.94176
G1 X123.39 Y127.492 E3.03343
G1 X120.911 Y126.227 E3.126
G1 X118.402 Y125.033 E3.21842
G1 X115.894 Y123.929 E3.30956
G1 X113.333 Y122.883 E3.40157
G1 X110.754 Y121.915 E3.49319
G1 X108.638 Y121.201 E3.56747
G1 X107.492 Y120.802 E3.60783
G1 X107.111 Y120.627 E3.62177
G1 X106.77 Y120.383 E3.63572
G1 X106.545 Y120.156 E3.64635
G1 X106.304 Y119.875 E3.65866
G1 X106.063 Y119.533 E3.67258
G1 X105.891 Y119.15 E3.68654
G1 X105.816 Y118.873 E3.69609
G1 X105.766 Y118.622 E3.7046
G1 X105.724 Y118.205 E3.71854
G1 X105.74 Y117.926 E3.72783
G1 X105.825 Y117.236 E3.75096
G1 X105.928 Y116.552 E3.77396
G1 X106.065 Y115.725 E3.80184
G1 X106.222 Y114.879 E3.83046
G1 X106.373 Y114.15 E3.85522
G1 X106.518 Y113.526 E3.87653
G1 X106.651 Y113.129 E3.89046
G1 X106.858 Y112.764 E3.90441
G1 X107.172 Y112.404 E3.9203
G1 X107.54 Y112.067 E3.9369
G1 X108.641 Y111.094 E3.98577
G1 X110.688 Y109.18 E4.07898
G1 X112.637 Y107.252 E4.17016
G1 X114.547 Y105.253 E4.26212
G1 X116.412 Y103.185 E4.35474
G1 X118.195 Y101.092 E4.44619
G1 X119.922 Y98.947 E4.53778
G1 X121.624 Y96.703 E4.63145
G1 X123.205 Y94.493 E4.72183
G1 X124.766 Y92.174 E4.81481
G1 X126.574 Y89.303 E4.92766
G0 F6000 X126.236 Y89.09
G1 F900 X126.763 Y88.4 E4.95653
G1 X127.222 Y87.834 E4.98077
G1 X127.542 Y87.508 E4.99596
G1 X127.951 Y87.224 E5.01252
G1 X128.452 Y87.015 E5.03058
G1 X128.874 Y86.891 E5.04521
G1 X129.565 Y86.716 E5.06892
G1 X130.36 Y86.533 E5.09605
G1 X130.902 Y86.418 E5.11448
G1 X131.615 Y86.281 E5.13863
G1 X132.482 Y86.139 E5.16785
G1 X133.177 Y86.044 E5.19118
G1 X133.88 Y85.985 E5.21464
G1 X134.373 Y85.991 E5.23104
G1 X134.863 Y86.094 E5.2477
G1 X135.325 Y86.287 E5.26435
G1 X135.809 Y86.629 E5.28406
G1 X136.128 Y86.911 E5.29822
G1 X136.474 Y87.279 E5.31502
G1 X136.817 Y87.885 E5.33818
G1 X137.13 Y88.661 E5.36601
G1 X137.546 Y89.736 E5.40435
G1 X138.618 Y92.291 E5.49651
G1 X139.756 Y94.803 E5.58823
G1 X140.945 Y97.243 E5.67851
G1 X142.234 Y99.707 E5.771
G1 X143.587 Y102.125 E5.86315
G1 X144.987 Y104.467 E5.95391
G1 X146.471 Y106.799 E6.04584
G1 X148.083 Y109.177 E6.14139
G1 X148.604 Y109.921 E6.1716
G1 X148.849 Y110.349 E6.18801
G1 X148.982 Y110.727 E6.20133
G1 X149.366 Y112.133 E6.24981
G1 X150.137 Y114.777 E6.34141
G1 X150.996 Y117.441 E6.43451
G1 X151.906 Y120.012 E6.52522
G1 X152.904 Y122.595 E6.61732
G1 X153.773 Y124.672 E6.6922
G1 X154.143 Y125.535 E6.72343
G1 X154.349 Y126.066 E6.74238
G1 X154.478 Y126.496 E6.75731
G1 X154.579 Y126.933 E6.77223
G1 X154.649 Y127.432 E6.78899
G1 X154.671 Y127.743 E6.79936
G1 X154.674 Y128.261 E6.81659
G1 X154.634 Y128.726 E6.83211
G1 X154.54 Y129.325 E6.85228
G1 X154.411 Y129.791 E6.86836
G1 X154.25 Y130.245 E6.88438
G1 X154.067 Y130.656 E6.89934
G1 X153.763 Y131.219 E6.92062
G1 X153.422 Y131.695 E6.9401
G1 X153.132 Y132.042 E6.95514
G1 X152.837 Y132.347 E6.96925
G1 X152.407 Y132.725 E6.9883
G1 X152.148 Y132.918 E6.99904
G1 X151.66 Y133.227 E7.01825
G1 X151.231 Y133.45 E7.03433
G1 X150.974 Y133.564 E7.04368
G1 X150.457 Y133.746 E7.06191
G1 X150.04 Y133.861 E7.0763
G1 X149.682 Y133.933 E7.08844
G1 X149.332 Y133.978 E7.10018
G1 X149.014 Y134.005 E7.1108
G1 X148.481 Y134.014 E7.12853
G1 X145.364 Y133.769 E7.23252
G1 X142.614 Y133.632 E7.3241
G1 X139.877 Y133.572 E7.41515
G1 X137.1 Y133.59 E7.50752
G1 X133.797 Y133.713 E7.61745
G1 X133.301 Y133.686 E7.63397
G1 X132.817 Y133.563 E7.65058
G1 X132.333 Y133.324 E7.66854
G1 X131.806 Y132.987 E7.68934
G1 X130.358 Y132.027 E7.74713
G1 X127.969 Y130.54 E7.84072
G1 X125.616 Y129.166 E7.93135
G1 X123.198 Y127.843 E8.02302
G1 X120.739 Y126.588 E8.11484
G1 X118.23 Y125.394 E8.20726
G1 X115.733 Y124.295 E8.298
G1 X113.192 Y123.257 E8.38929
G1 X110.626 Y122.294 E8.48045
G1 X108.506 Y121.579 E8.55486
G1 X107.36 Y121.18 E8.59522
G1 X106.907 Y120.973 E8.61179
G1 X106.486 Y120.665 E8.62914
G1 X106.261 Y120.438 E8.63977
G1 X106 Y120.135 E8.65307
G1 X105.713 Y119.731 E8.66955
G1 X105.526 Y119.314 E8.68475
G1 X105.43 Y118.978 E8.69638
G1 X105.368 Y118.662 E8.70709
G1 X105.326 Y118.245 E8.72103
G1 X105.343 Y117.877 E8.73328
G1 X105.429 Y117.176 E8.75677
G1 X105.533 Y116.487 E8.77994
G1 X105.672 Y115.652 E8.8081
G1 X105.83 Y114.798 E8.83699
G1 X105.983 Y114.059 E8.86209
G1 X106.128 Y113.435 E8.88339
G1 X106.284 Y112.965 E8.89986
G1 X106.53 Y112.531 E8.91646
G1 X106.902 Y112.109 E8.93517
G1 X107.275 Y111.767 E8.952
G1 X108.376 Y110.794 E9.00087
G1 X110.415 Y108.888 E9.0937
G1 X112.356 Y106.968 E9.18451
G1 X114.25 Y104.985 E9.27571
G1 X116.115 Y102.917 E9.36833
G1 X117.883 Y100.841 E9.45903
G1 X119.61 Y98.696 E9.55062
G1 X121.305 Y96.461 E9.64392
G1 X122.88 Y94.26 E9.73394
G1 X124.434 Y91.951 E9.82651
G1 X126.236 Y89.09 E9.93897
G0 F6000 X125.918 Y88.847
G1 F900 X126.452 Y88.148 E9.96822
G1 X126.911 Y87.582 E9.99246
G1 X127.286 Y87.199 E10.01029
G1 X127.756 Y86.872 E10.02933
G1 X128.339 Y86.631 E10.05031
G1 X128.776 Y86.503 E10.06546
G1 X129.475 Y86.326 E10.08944
G1 X130.277 Y86.142 E10.11681
G1 X130.827 Y86.025 E10.13551
G1 X131.55 Y85.886 E10.16
G1 X132.428 Y85.743 E10.18959
G1 X133.144 Y85.645 E10.21362
G1 X133.847 Y85.586 E10.23709
G1 X134.414 Y85.591 E10.25595
G1 X134.984 Y85.711 E10.27532
G1 X135.522 Y85.936 E10.29472
G1 X136.04 Y86.302 E10.31581
G1 X136.393 Y86.611 E10.33141
G1 X136.799 Y87.041 E10.35108
G1 X137.188 Y87.735 E10.37755
G1 X137.503 Y88.517 E10.40559
G1 X137.915 Y89.581 E10.44353
G1 X138.987 Y92.136 E10.53569
G1 X140.116 Y94.628 E10.62668
G1 X141.304 Y97.068 E10.71695
G1 X142.583 Y99.512 E10.80869
G1 X143.93 Y101.92 E10.90046
G1 X145.324 Y104.252 E10.99083
G1 X146.802 Y106.575 E11.0824
G1 X148.411 Y108.948 E11.17776
G1 X148.951 Y109.722 E11.20915
G1 X149.214 Y110.181 E11.22675
G1 X149.368 Y110.622 E11.24228
G1 X149.75 Y112.021 E11.29052
G1 X150.518 Y114.654 E11.38174
G1 X151.377 Y117.318 E11.47484
G1 X152.279 Y119.868 E11.5648
G1 X153.273 Y122.441 E11.65654
G1 X154.141 Y124.514 E11.73129
G1 X154.516 Y125.39 E11.76298
G1 X154.722 Y125.921 E11.78193
G1 X154.868 Y126.406 E11.79877
G1 X154.969 Y126.843 E11.81369
G1 X155.048 Y127.404 E11.83254
G1 X155.071 Y127.741 E11.84377
G1 X155.073 Y128.295 E11.8622
G1 X155.033 Y128.76 E11.87772
G1 X154.926 Y129.432 E11.90035
G1 X154.797 Y129.898 E11.91643
G1 X154.627 Y130.379 E11.9334
G1 X154.419 Y130.846 E11.9504
G1 X154.115 Y131.409 E11.97169
G1 X153.729 Y131.952 E11.99384
G1 X153.439 Y132.299 E12.00889
G1 X153.125 Y132.625 E12.02394
G1 X152.646 Y133.046 E12.04515
G1 X152.387 Y133.239 E12.05589
G1 X151.874 Y133.565 E12.07611
G1 X151.393 Y133.816 E12.09416
G1 X151.136 Y133.93 E12.10351
G1 X150.563 Y134.132 E12.12371
G1 X150.146 Y134.247 E12.1381
G1 X149.733 Y134.33 E12.15211
G1 X149.366 Y134.377 E12.16442
G1 X149.048 Y134.404 E12.17503
G1 X148.45 Y134.413 E12.19492
G1 X145.344 Y134.169 E12.29855
G1 X142.594 Y134.032 E12.39013
G1 X139.871 Y133.972 E12.48072
G1 X137.115 Y133.99 E12.57238
G1 X133.812 Y134.113 E12.68232
G1 X133.236 Y134.083 E12.7015
G1 X132.678 Y133.941 E12.72065
G1 X132.156 Y133.683 E12.74002
G1 X131.585 Y133.32 E12.76252
G1 X130.147 Y132.367 E12.8199
G1 X127.758 Y130.88 E12.9135
G1 X125.424 Y129.517 E13.00339
G1 X123.006 Y128.194 E13.09507
G1 X120.567 Y126.949 E13.18614
G1 X118.058 Y125.755 E13.27856
G1 X115.572 Y124.661 E13.3689
G1 X113.051 Y123.631 E13.45948
G1 X110.498 Y122.673 E13.55017
G1 X108.374 Y121.957 E13.62472
G1 X107.228 Y121.558 E13.66508
G1 X106.703 Y121.32 E13.68425
G1 X106.202 Y120.947 E13.70503
G1 X105.977 Y120.72 E13.71566
G1 X105.674 Y120.367 E13.73113
G1 X105.363 Y119.929 E13.749
G1 X105.141 Y119.424 E13.76735
G1 X105.037 Y119.055 E13.7801
G1 X104.975 Y118.739 E13.79081
G1 X104.926 Y118.227 E13.80791
G1 X104.943 Y117.859 E13.82017
G1 X105.033 Y117.116 E13.84506
G1 X105.138 Y116.421 E13.86844
G1 X105.279 Y115.579 E13.89683
G1 X105.438 Y114.717 E13.92599
G1 X105.593 Y113.968 E13.95143
G1 X105.748 Y113.309 E13.97394
G1 X105.916 Y112.804 E13.99164
G1 X106.203 Y112.296 E14.01105
G1 X106.602 Y111.844 E14.0311
G1 X107.01 Y111.467 E14.04958
G1 X108.111 Y110.494 E14.09845
G1 X110.142 Y108.596 E14.19091
G1 X112.075 Y106.684 E14.28134
G1 X113.953 Y104.717 E14.37179
G1 X115.818 Y102.649 E14.46441
G1 X117.571 Y100.59 E14.55435
G1 X119.298 Y98.445 E14.64594
G1 X120.986 Y96.219 E14.73886
G1 X122.555 Y94.027 E14.82852
G1 X124.102 Y91.728 E14.92068
G1 X125.918 Y88.847 E15.03395
G1 F1500 E8.53395
;MESH:[a]_guidler_b-beta7.stl
G0 F6000 X127.929 Y90.048
G0 X128.779 Y90.716
G0 X132.61 Y89.922
G0 X133.187 Y89.844
G0 X133.018 Y93.617
G0 X132.795 Y94.253
;TYPE:WALL-INNER
G1 F1500 E15.03395
G1 F900 X132.973 Y93.883 E15.04761
G1 X133.178 Y93.678 E15.05725
G1 X133.373 Y89.639 E15.19175
G1 X132.581 Y89.764 E15.21842
G1 X131.872 Y89.89 E15.24237
G1 X130.687 Y90.145 E15.28268
G1 X129.795 Y90.368 E15.31326
G1 X129.35 Y90.934 E15.33721
G1 X129.099 Y96.192 E15.51229
G1 X129.119 Y96.612 E15.52628
G1 X129.174 Y96.955 E15.53783
G1 X129.169 Y96.96 E15.53807
G1 X129.278 Y97.356 E15.55173
G1 X129.461 Y97.825 E15.56847
G1 X132.776 Y103.095 E15.77555
G1 X133.097 Y103.621 E15.79604
G1 X133.371 Y104.094 E15.81422
G1 X133.625 Y104.563 E15.83196
G1 X133.874 Y105.048 E15.85009
G1 X134.109 Y105.535 E15.86808
G1 X134.322 Y106.012 E15.88545
G1 X134.565 Y105.38 E15.90798
G1 X134.864 Y104.845 E15.92836
G1 X135.213 Y104.382 E15.94764
G1 X135.632 Y103.961 E15.9674
G1 X136.236 Y103.496 E15.99275
G1 X136.868 Y103.19 E16.01611
G1 X137.24 Y103.055 E16.02927
G1 X137.7 Y102.935 E16.04508
G1 X138.284 Y102.862 E16.06466
G1 X138.691 Y102.863 E16.07819
G1 X138.21 Y102.308 E16.10262
G1 X137.779 Y101.828 E16.12408
G1 X137.287 Y101.308 E16.14789
G1 X136.882 Y100.894 E16.16715
G1 X133.52 Y97.628 E16.32305
G1 X133.162 Y97.091 E16.34451
G1 X132.887 Y96.48 E16.3668
G1 X132.729 Y95.655 E16.39474
G1 X132.795 Y94.253 E16.44142
G0 F6000 X133.018 Y93.617
G0 X133.187 Y89.844
G0 X130.725 Y90.302
G0 X129.89 Y90.511
G0 X129.548 Y90.944
G0 X129.075 Y96.957
G0 X128.779 Y97.018
G1 F900 X128.773 Y97.026 E16.44175
G1 X128.898 Y97.482 E16.45748
G1 X129.064 Y97.907 E16.47265
G1 X129.194 Y98.153 E16.48191
G1 X132.435 Y103.304 E16.68432
G1 X132.751 Y103.821 E16.70447
G1 X133.011 Y104.269 E16.7217
G1 X133.269 Y104.746 E16.73974
G1 X133.514 Y105.221 E16.75752
G1 X133.744 Y105.699 E16.77516
G1 X133.968 Y106.197 E16.79332
G1 X134.2 Y106.76 E16.81357
G1 X134.372 Y107.205 E16.82944
G1 F911.4 X134.604 Y107.874 E16.8527
G1 X134.548 Y107.341 E16.8703
G1 F900 X134.589 Y106.638 E16.89372
G1 X134.743 Y106.031 E16.91455
G1 X134.912 Y105.593 E16.93017
G1 X135.196 Y105.07 E16.94996
G1 X135.535 Y104.626 E16.96854
G1 X135.902 Y104.256 E16.98587
G1 X136.443 Y103.841 E17.00855
G1 X136.955 Y103.588 E17.02755
G1 X137.343 Y103.442 E17.04133
G1 X137.732 Y103.339 E17.05472
G1 X138.269 Y103.266 E17.07274
G1 X138.972 Y103.263 E17.09613
G1 X139.654 Y103.406 E17.1193
G1 X139.032 Y102.646 E17.15197
G1 X138.508 Y102.04 E17.17861
G1 X138.07 Y101.554 E17.20037
G1 X137.574 Y101.029 E17.22439
G1 X137.161 Y100.607 E17.24403
G1 X133.856 Y97.399 E17.39723
G1 X133.514 Y96.898 E17.4174
G1 X133.271 Y96.359 E17.43707
G1 X133.13 Y95.628 E17.46183
G1 X133.191 Y94.341 E17.50468
G1 X133.318 Y94.086 E17.51416
G1 X133.572 Y93.832 E17.5261
G1 X133.794 Y89.19 E17.68067
G1 X133.215 Y89.256 E17.70006
G1 X132.511 Y89.37 E17.72378
G1 X131.767 Y89.503 E17.74891
G1 X130.593 Y89.756 E17.78886
G1 X129.969 Y89.907 E17.81021
G1 X129.563 Y90.016 E17.82419
G1 X128.956 Y90.787 E17.85683
G1 X128.698 Y96.192 E18.03681
G1 X128.72 Y96.653 E18.05216
G1 X128.779 Y97.018 E18.06445
G0 F6000 X129.075 Y96.957
G0 X133.483 Y104.724
G0 X134.609 Y107.922
G1 F983.6 X134.774 Y108.475 E18.08202
G1 F1500 E11.58202
G0 F6000 X134.907 Y108.687
G0 X135.587 Y109.633
G0 X136.149 Y110.224
G0 X138.541 Y111.826
G0 X142.727 Y109.161
G0 X143.895 Y110.297
G0 X142.267 Y113.172
G0 X143.523 Y115.837
G1 F1500 E18.08202
G1 F900 X142.997 Y115.454 E18.10366
G1 X142.635 Y115.066 E18.12131
G1 X142.266 Y114.501 E18.14375
G1 X142.043 Y113.816 E18.16771
G1 X142.002 Y113.156 E18.18971
G1 X142.085 Y112.508 E18.21143
G1 X142.35 Y111.866 E18.23454
G1 X142.675 Y111.363 E18.25445
G1 X143.237 Y110.84 E18.27999
G1 X143.842 Y110.527 E18.30264
G1 X144.345 Y110.378 E18.32009
G1 X143.709 Y109.962 E18.34537
G1 X143.202 Y109.524 E18.36765
G1 X142.673 Y108.779 E18.39804
G1 X142.527 Y109.15 E18.4113
G1 X142.157 Y109.802 E18.43624
G1 X141.58 Y110.461 E18.46537
G1 X141.002 Y110.913 E18.48977
G1 X140.478 Y111.214 E18.50987
G1 X139.993 Y111.412 E18.5273
G1 X139.389 Y111.575 E18.54811
G1 X138.658 Y111.668 E18.57261
G1 X137.956 Y111.615 E18.59603
G1 X137.308 Y111.483 E18.61802
G1 X137.451 Y112.271 E18.64466
G1 X137.442 Y113.187 E18.67513
G1 X137.304 Y113.913 E18.69971
G1 X137.249 Y114.094 E18.706
G1 X137.213 Y114.797 E18.72941
G1 X137.528 Y115.799 E18.76435
G1 X137.72 Y116.003 E18.77367
G1 X137.84 Y116.074 E18.7783
G1 X139.662 Y116.584 E18.84123
G1 X140.124 Y116.759 E18.85766
G1 X140.814 Y117.104 E18.88332
G1 X141.066 Y117.269 E18.89334
G1 X141.628 Y117.69 E18.9167
G1 X141.858 Y117.72 E18.92441
G1 X142.117 Y117.672 E18.93317
G1 X143.353 Y116.948 E18.98081
G1 X144.149 Y116.087 E19.01981
G1 X143.523 Y115.837 E19.04223
G0 F6000 X144.308 Y115.719
G1 F900 X143.715 Y115.483 E19.06346
G1 X143.27 Y115.159 E19.08177
G1 X142.95 Y114.825 E19.09715
G1 X142.63 Y114.326 E19.11687
G1 X142.436 Y113.73 E19.13772
G1 X142.406 Y113.142 E19.1573
G1 X142.474 Y112.613 E19.17504
G1 X142.691 Y112.085 E19.19403
