;FLAVOR:Marlin
;TIME:3693
;Filament used: 8.22483m
;Layer height: 0.3
;MINX:86.015
;MINY:86.034
;MINZ:0.3
;MAXX:173.985
;MAXY:173.966
;MAXZ:50.1
;POSTPROCESSED
;Generated with Cura_SteamEngine 5.2.1
;
;

M82 ;absolute extrusion mode
START_PRINT EXTRUDER_TEMP=220.0 BED_TEMP=60 RELATIVE_E_MODE=False PROBE=false PROBE_AREA_START=%MINX%,%MINY% PROBE_AREA_END=%MAXX%,%MAXY%
G92 E0
G92 E0
G1 F1500 E-6.5
;LAYER_COUNT:167
;LAYER:0
M107
G0 F6000 X90.528 Y90.883 Z0.3
;TYPE:SKIRT
G1 F1500 E0
G1 F1200 X91.192 Y90.221 E0.04678
G1 X91.975 Y89.569 E0.09761
G1 X92.621 Y89.08 E0.13803
G1 X93.144 Y88.705 E0.17014
G1 X93.934 Y88.199 E0.21695
G1 X94.798 Y87.747 E0.26559
G1 X95.503 Y87.417 E0.30443
G1 X96.046 Y87.177 E0.33405
G1 X96.922 Y86.842 E0.38084
G1 X97.907 Y86.563 E0.43191
G1 X98.652 Y86.389 E0.47008
G1 X99.253 Y86.263 E0.50072
G1 X100.179 Y86.118 E0.54748
G1 X101.193 Y86.05 E0.59818
G1 X101.975 Y86.034 E0.6372
G1 X102.628 Y86.037 E0.66978
G1 X103.564 Y86.092 E0.71656
G1 X104.53 Y86.233 E0.76526
G1 X105.697 Y86.464 E0.82461
G1 X106.958 Y86.751 E0.88914
G1 X109.535 Y87.3 E1.02059
G1 X111.98 Y87.75 E1.14462
G1 X114.481 Y88.136 E1.27087
G1 X116.987 Y88.452 E1.39689
G1 X119.48 Y88.695 E1.52185
G1 X121.992 Y88.867 E1.64747
G1 X124.514 Y88.969 E1.77339
G1 X126.906 Y89 E1.89274
G1 X133.134 Y89 E2.20346
G1 X135.742 Y88.963 E2.33359
G1 X138.264 Y88.856 E2.45952
G1 X140.758 Y88.679 E2.58426
G1 X143.258 Y88.431 E2.7096
G1 X145.751 Y88.112 E2.83499
G1 X148.244 Y87.721 E2.96089
G1 X150.736 Y87.257 E3.08735
G1 X153.543 Y86.649 E3.23064
G1 X154.649 Y86.39 E3.28731
G1 X155.297 Y86.255 E3.32033
G1 X156.224 Y86.114 E3.36711
G1 X157.197 Y86.05 E3.41576
G1 X157.974 Y86.034 E3.45453
G1 X158.628 Y86.037 E3.48716
G1 X159.564 Y86.092 E3.53394
G1 X160.527 Y86.233 E3.5825
G1 X161.325 Y86.386 E3.62303
G1 X161.942 Y86.52 E3.65453
G1 X162.847 Y86.767 E3.70134
G1 X163.781 Y87.113 E3.75103
G1 X164.457 Y87.399 E3.78765
G1 X165.015 Y87.649 E3.81815
G1 X165.851 Y88.075 E3.86496
G1 X166.749 Y88.641 E3.91792
G1 X167.397 Y89.094 E3.95737
G1 X167.879 Y89.446 E3.98714
G1 X168.605 Y90.04 E4.03394
G1 X169.298 Y90.715 E4.08221
G1 X169.854 Y91.306 E4.12269
G1 X170.32 Y91.83 E4.15767
G1 X170.903 Y92.565 E4.20448
G1 X171.414 Y93.334 E4.25054
G1 X171.814 Y93.995 E4.28909
G1 X172.13 Y94.546 E4.32078
G1 X172.552 Y95.383 E4.36754
G1 X172.922 Y96.312 E4.41743
G1 X173.177 Y97.047 E4.45624
G1 X173.368 Y97.64 E4.48733
G1 X173.608 Y98.546 E4.53408
G1 X173.781 Y99.552 E4.58501
G1 X173.875 Y100.308 E4.62302
G1 X173.938 Y100.933 E4.65436
G1 X173.985 Y101.869 E4.70111
G1 X173.945 Y102.884 E4.75179
G1 X173.879 Y103.655 E4.7904
G1 X173.805 Y104.331 E4.82433
G1 X173.587 Y105.564 E4.88679
G1 X173.394 Y106.382 E4.92872
G1 X172.84 Y108.886 E5.05667
G1 X172.358 Y111.405 E5.18462
G1 X171.96 Y113.852 E5.30831
G1 X171.631 Y116.318 E5.43243
G1 X171.362 Y118.873 E5.5606
G1 X171.172 Y121.365 E5.68529
G1 X171.052 Y123.867 E5.81026
G1 X171 Y126.953 E5.96424
G1 X171 Y133.044 E6.26812
G1 X171.037 Y135.652 E6.39825
G1 X171.144 Y138.174 E6.52419
G1 X171.321 Y140.668 E6.64893
G1 X171.569 Y143.166 E6.77416
G1 X171.887 Y145.655 E6.89935
G1 X172.281 Y148.164 E7.02606
G1 X172.739 Y150.627 E7.15104
G1 X173.275 Y153.121 E7.27831
G1 X173.554 Y154.285 E7.33803
G1 X173.772 Y155.486 E7.39893
G1 X173.874 Y156.303 E7.44
G1 X173.938 Y156.929 E7.4714
G1 X173.985 Y157.866 E7.5182
G1 X173.946 Y158.875 E7.56858
G1 X173.882 Y159.63 E7.60638
G1 X173.812 Y160.269 E7.63845
G1 X173.663 Y161.194 E7.6852
G1 X173.416 Y162.167 E7.73528
G1 X173.186 Y162.927 E7.77489
G1 X172.987 Y163.532 E7.80667
G1 X172.646 Y164.405 E7.85343
G1 X172.216 Y165.275 E7.90184
G1 X171.849 Y165.942 E7.93982
G1 X171.512 Y166.521 E7.97325
G1 X170.998 Y167.305 E8.02002
G1 X170.384 Y168.084 E8.0695
G1 X169.879 Y168.668 E8.10802
G1 X169.482 Y169.107 E8.13755
G1 X168.818 Y169.769 E8.18433
G1 X168.025 Y170.431 E8.23587
G1 X167.379 Y170.92 E8.27629
G1 X166.878 Y171.28 E8.30707
G1 X166.089 Y171.788 E8.35388
G1 X165.203 Y172.253 E8.4038
G1 X164.5 Y172.582 E8.44253
G1 X163.96 Y172.821 E8.47199
G1 X163.084 Y173.156 E8.51878
G1 X162.091 Y173.437 E8.57027
G1 X161.345 Y173.611 E8.60848
G1 X160.747 Y173.737 E8.63897
G1 X159.821 Y173.882 E8.68573
G1 X158.807 Y173.95 E8.73644
G1 X158.025 Y173.966 E8.77546
G1 X157.372 Y173.963 E8.80804
G1 X156.436 Y173.908 E8.85481
G1 X155.47 Y173.767 E8.90352
G1 X154.303 Y173.536 E8.96287
G1 X153.042 Y173.249 E9.02739
G1 X150.465 Y172.7 E9.15884
G1 X148.02 Y172.25 E9.28287
G1 X145.519 Y171.864 E9.40913
G1 X143.013 Y171.548 E9.53514
G1 X140.52 Y171.305 E9.66011
G1 X138.008 Y171.133 E9.78572
G1 X135.486 Y171.031 E9.91165
G1 X133.094 Y171 E10.031
G1 X126.866 Y171 E10.34171
G1 X124.258 Y171.037 E10.47184
G1 X121.736 Y171.144 E10.59778
G1 X119.242 Y171.321 E10.72252
G1 X116.742 Y171.569 E10.84785
G1 X114.249 Y171.888 E10.97324
G1 X111.756 Y172.279 E11.09914
G1 X109.264 Y172.743 E11.2256
G1 X106.457 Y173.351 E11.36889
G1 X105.351 Y173.61 E11.42556
G1 X104.703 Y173.745 E11.45859
G1 X103.776 Y173.886 E11.50537
G1 X102.803 Y173.95 E11.55402
G1 X102.026 Y173.966 E11.59279
G1 X101.372 Y173.963 E11.62542
G1 X100.436 Y173.908 E11.6722
G1 X99.473 Y173.767 E11.72075
G1 X98.675 Y173.614 E11.76129
G1 X98.058 Y173.48 E11.79279
G1 X97.153 Y173.233 E11.83959
G1 X96.219 Y172.887 E11.88928
G1 X95.543 Y172.601 E11.9259
G1 X94.985 Y172.351 E11.95641
G1 X94.149 Y171.925 E12.00322
G1 X93.251 Y171.359 E12.05618
G1 X92.603 Y170.906 E12.09562
G1 X92.121 Y170.554 E12.1254
G1 X91.395 Y169.96 E12.1722
G1 X90.702 Y169.285 E12.22046
G1 X90.146 Y168.694 E12.26094
G1 X89.68 Y168.17 E12.29593
G1 X89.097 Y167.435 E12.34273
G1 X88.586 Y166.666 E12.3888
G1 X88.186 Y166.005 E12.42734
G1 X87.87 Y165.454 E12.45903
G1 X87.448 Y164.617 E12.5058
G1 X87.078 Y163.688 E12.55569
G1 X86.823 Y162.953 E12.5945
G1 X86.632 Y162.36 E12.62558
G1 X86.392 Y161.454 E12.67234
G1 X86.218 Y160.441 E12.72362
G1 X86.123 Y159.673 E12.76223
G1 X86.062 Y159.072 E12.79237
G1 X86.015 Y158.135 E12.83917
G1 X86.055 Y157.116 E12.89005
G1 X86.121 Y156.345 E12.92865
G1 X86.194 Y155.678 E12.96213
G1 X86.415 Y154.424 E13.02566
G1 X86.608 Y153.607 E13.06754
G1 X87.16 Y151.114 E13.19493
G1 X87.642 Y148.595 E13.32288
G1 X88.04 Y146.148 E13.44657
G1 X88.369 Y143.682 E13.57069
G1 X88.638 Y141.127 E13.69886
G1 X88.828 Y138.635 E13.82355
G1 X88.948 Y136.133 E13.94852
G1 X89 Y133.047 E14.1025
G1 X89 Y126.956 E14.40638
G1 X88.963 Y124.348 E14.53651
G1 X88.856 Y121.826 E14.66244
G1 X88.679 Y119.332 E14.78718
G1 X88.432 Y116.837 E14.91227
G1 X88.112 Y114.336 E15.03806
G1 X87.721 Y111.847 E15.16376
G1 X87.26 Y109.367 E15.28961
G1 X86.725 Y106.879 E15.41657
G1 X86.446 Y105.715 E15.47629
G1 X86.227 Y104.511 E15.53734
G1 X86.123 Y103.676 E15.57932
G1 X86.061 Y103.057 E15.61036
G1 X86.015 Y102.121 E15.65711
G1 X86.055 Y101.116 E15.70729
G1 X86.121 Y100.345 E15.7459
G1 X86.187 Y99.74 E15.77626
G1 X86.335 Y98.814 E15.82304
G1 X86.585 Y97.827 E15.87384
G1 X86.816 Y97.065 E15.91357
G1 X87.013 Y96.467 E15.94498
G1 X87.354 Y95.594 E15.99174
G1 X87.786 Y94.722 E16.04029
G1 X88.166 Y94.032 E16.07959
G1 X88.501 Y93.458 E16.11274
G1 X89.017 Y92.674 E16.15957
G1 X89.616 Y91.916 E16.20777
G1 X90.127 Y91.325 E16.24675
G1 X90.528 Y90.883 E16.27652
G0 F6000 X90.822 Y91.154
G1 F1200 X91.475 Y90.505 E16.32245
G1 X92.216 Y89.888 E16.37056
G1 X92.862 Y89.399 E16.41098
G1 X93.374 Y89.032 E16.44241
G1 X94.15 Y88.537 E16.48833
G1 X94.967 Y88.11 E16.53432
G1 X95.672 Y87.78 E16.57316
G1 X96.204 Y87.545 E16.60217
G1 X97.065 Y87.216 E16.64816
G1 X97.998 Y86.953 E16.69652
G1 X98.743 Y86.779 E16.73469
G1 X99.332 Y86.655 E16.76472
G1 X100.241 Y86.514 E16.81061
G1 X101.201 Y86.45 E16.85861
G1 X101.983 Y86.434 E16.89763
G1 X102.622 Y86.437 E16.92951
G1 X103.541 Y86.492 E16.97544
G1 X104.454 Y86.626 E17.02148
G1 X105.608 Y86.854 E17.08017
G1 X106.85 Y87.137 E17.14372
G1 X109.451 Y87.691 E17.27639
G1 X111.919 Y88.145 E17.40159
G1 X114.437 Y88.534 E17.5287
G1 X116.939 Y88.849 E17.65451
G1 X119.447 Y89.093 E17.78023
G1 X121.985 Y89.268 E17.90715
G1 X124.493 Y89.369 E18.03238
G1 X126.901 Y89.4 E18.15252
G1 X133.14 Y89.4 E18.46379
G1 X135.764 Y89.363 E18.59471
G1 X138.273 Y89.256 E18.72
G1 X140.793 Y89.078 E18.84604
G1 X143.308 Y88.829 E18.97212
G1 X145.797 Y88.51 E19.09732
G1 X148.349 Y88.109 E19.2262
G1 X150.79 Y87.655 E19.35007
G1 X153.652 Y87.034 E19.49618
G1 X154.74 Y86.78 E19.55192
G1 X155.374 Y86.648 E19.58423
G1 X156.284 Y86.509 E19.63015
G1 X157.205 Y86.45 E19.6762
G1 X157.982 Y86.434 E19.71497
G1 X158.622 Y86.437 E19.7469
G1 X159.541 Y86.492 E19.79283
G1 X160.452 Y86.626 E19.83877
G1 X161.25 Y86.779 E19.87931
G1 X161.853 Y86.91 E19.91009
G1 X162.741 Y87.153 E19.95602
G1 X163.625 Y87.482 E20.00308
G1 X164.301 Y87.768 E20.0397
G1 X164.849 Y88.013 E20.06965
G1 X165.669 Y88.432 E20.11559
G1 X166.52 Y88.968 E20.16577
G1 X167.168 Y89.421 E20.20521
G1 X167.639 Y89.767 E20.23437
G1 X168.351 Y90.35 E20.28028
G1 X169.006 Y90.989 E20.32593
G1 X169.562 Y91.58 E20.36641
G1 X170.018 Y92.092 E20.40062
G1 X170.589 Y92.813 E20.44651
G1 X171.072 Y93.541 E20.49009
G1 X171.472 Y94.202 E20.52864
G1 X171.781 Y94.742 E20.55968
G1 X172.195 Y95.564 E20.6056
G1 X172.544 Y96.443 E20.65278
G1 X172.799 Y97.178 E20.69159
G1 X172.986 Y97.758 E20.722
G1 X173.221 Y98.649 E20.76797
G1 X173.384 Y99.601 E20.81615
G1 X173.478 Y100.357 E20.85416
G1 X173.54 Y100.969 E20.88485
G1 X173.585 Y101.889 E20.9308
G1 X173.546 Y102.85 E20.97879
G1 X173.48 Y103.621 E21.01739
G1 X173.407 Y104.284 E21.05067
G1 X173.198 Y105.472 E21.11085
G1 X173.01 Y106.267 E21.15161
G1 X172.443 Y108.83 E21.28257
G1 X171.97 Y111.303 E21.40818
G1 X171.563 Y113.806 E21.5347
G1 X171.231 Y116.295 E21.65998
G1 X170.964 Y118.833 E21.7873
G1 X170.775 Y121.316 E21.91153
G1 X170.652 Y123.873 E22.03925
G1 X170.6 Y126.947 E22.19263
G1 X170.6 Y133.05 E22.49711
G1 X170.637 Y135.674 E22.62804
G1 X170.744 Y138.183 E22.75333
G1 X170.922 Y140.699 E22.87916
G1 X171.172 Y143.223 E23.0057
G1 X171.493 Y145.731 E23.13185
G1 X171.88 Y148.193 E23.25618
G1 X172.355 Y150.747 E23.38579
G1 X172.876 Y153.172 E23.50953
G1 X173.165 Y154.378 E23.5714
G1 X173.375 Y155.536 E23.63012
G1 X173.477 Y156.353 E23.6712
G1 X173.54 Y156.966 E23.70194
G1 X173.585 Y157.885 E23.74784
G1 X173.547 Y158.841 E23.79558
G1 X173.483 Y159.596 E23.83338
G1 X173.415 Y160.222 E23.86479
G1 X173.268 Y161.13 E23.91068
G1 X173.034 Y162.051 E23.95809
G1 X172.804 Y162.811 E23.99771
G1 X172.609 Y163.402 E24.02876
G1 X172.273 Y164.259 E24.07468
G1 X171.866 Y165.082 E24.12049
G1 X171.499 Y165.749 E24.15847
G1 X171.168 Y166.316 E24.19122
G1 X170.663 Y167.085 E24.23712
G1 X170.081 Y167.822 E24.28397
G1 X169.576 Y168.406 E24.32249
G1 X169.188 Y168.836 E24.35139
G1 X168.536 Y169.486 E24.39732
G1 X167.784 Y170.112 E24.44613
G1 X167.138 Y170.601 E24.48656
G1 X166.648 Y170.953 E24.51666
G1 X165.873 Y171.451 E24.56262
G1 X165.033 Y171.891 E24.60992
G1 X164.33 Y172.22 E24.64865
G1 X163.801 Y172.454 E24.67751
G1 X162.941 Y172.782 E24.72343
G1 X162 Y173.048 E24.77221
G1 X161.254 Y173.222 E24.81043
G1 X160.668 Y173.345 E24.8403
G1 X159.759 Y173.486 E24.8862
G1 X158.799 Y173.55 E24.9342
G1 X158.017 Y173.566 E24.97322
G1 X157.378 Y173.563 E25.0051
G1 X156.459 Y173.508 E25.05103
G1 X155.546 Y173.374 E25.09707
G1 X154.392 Y173.146 E25.15575
G1 X153.15 Y172.863 E25.21931
G1 X150.549 Y172.309 E25.35198
G1 X148.081 Y171.855 E25.47718
G1 X145.563 Y171.466 E25.60429
G1 X143.061 Y171.151 E25.7301
G1 X140.553 Y170.907 E25.85582
G1 X138.015 Y170.732 E25.98274
G1 X135.507 Y170.631 E26.10796
G1 X133.099 Y170.6 E26.22811
G1 X126.86 Y170.6 E26.53937
G1 X124.236 Y170.637 E26.6703
G1 X121.727 Y170.744 E26.79559
G1 X119.207 Y170.922 E26.92162
G1 X116.692 Y171.171 E27.04771
G1 X114.203 Y171.49 E27.1729
G1 X111.651 Y171.891 E27.30179
G1 X109.21 Y172.345 E27.42566
G1 X106.348 Y172.966 E27.57177
G1 X105.26 Y173.22 E27.62751
G1 X104.626 Y173.352 E27.65981
G1 X103.716 Y173.491 E27.70574
G1 X102.795 Y173.55 E27.75178
G1 X102.018 Y173.566 E27.79056
G1 X101.378 Y173.563 E27.82249
G1 X100.459 Y173.508 E27.86842
G1 X99.548 Y173.374 E27.91436
G1 X98.75 Y173.221 E27.95489
G1 X98.147 Y173.09 E27.98568
G1 X97.259 Y172.847 E28.03161
G1 X96.375 Y172.518 E28.07867
G1 X95.699 Y172.232 E28.11529
G1 X95.151 Y171.987 E28.14524
G1 X94.331 Y171.568 E28.19118
G1 X93.48 Y171.032 E28.24135
G1 X92.832 Y170.579 E28.2808
G1 X92.361 Y170.233 E28.30996
G1 X91.649 Y169.65 E28.35587
G1 X90.994 Y169.011 E28.40152
G1 X90.438 Y168.42 E28.442
G1 X89.982 Y167.908 E28.47621
G1 X89.411 Y167.187 E28.52209
G1 X88.928 Y166.459 E28.56568
G1 X88.528 Y165.798 E28.60423
G1 X88.219 Y165.258 E28.63527
G1 X87.805 Y164.436 E28.68118
G1 X87.456 Y163.557 E28.72837
G1 X87.201 Y162.822 E28.76718
G1 X87.014 Y162.242 E28.79758
G1 X86.779 Y161.351 E28.84356
G1 X86.615 Y160.392 E28.8921
G1 X86.52 Y159.624 E28.9307
G1 X86.46 Y159.035 E28.96024
G1 X86.415 Y158.115 E29.00619
G1 X86.454 Y157.15 E29.05438
G1 X86.52 Y156.379 E29.09298
G1 X86.591 Y155.724 E29.12585
G1 X86.804 Y154.517 E29.187
G1 X86.989 Y153.735 E29.22709
G1 X87.557 Y151.17 E29.35816
G1 X88.03 Y148.697 E29.48378
G1 X88.437 Y146.194 E29.61029
G1 X88.769 Y143.705 E29.73557
G1 X89.036 Y141.167 E29.86289
G1 X89.225 Y138.684 E29.98712
G1 X89.348 Y136.127 E30.11484
G1 X89.4 Y133.053 E30.26822
G1 X89.4 Y126.95 E30.5727
G1 X89.363 Y124.326 E30.70363
G1 X89.256 Y121.817 E30.82892
G1 X89.078 Y119.297 E30.95495
G1 X88.829 Y116.783 E31.08099
G1 X88.51 Y114.294 E31.20618
G1 X88.109 Y111.742 E31.33507
G1 X87.653 Y109.288 E31.45959
G1 X87.124 Y106.828 E31.58513
G1 X86.835 Y105.622 E31.647
G1 X86.624 Y104.461 E31.70587
G1 X86.52 Y103.626 E31.74785
G1 X86.459 Y103.021 E31.77819
G1 X86.415 Y102.101 E31.82414
G1 X86.454 Y101.15 E31.87162
G1 X86.52 Y100.379 E31.91023
G1 X86.584 Y99.786 E31.93999
G1 X86.73 Y98.877 E31.98592
G1 X86.968 Y97.943 E32.034
G1 X87.199 Y97.181 E32.07373
G1 X87.392 Y96.597 E32.10441
G1 X87.727 Y95.74 E32.15032
G1 X88.136 Y94.914 E32.19631
G1 X88.516 Y94.224 E32.23561
G1 X88.844 Y93.663 E32.26803
G1 X89.351 Y92.895 E32.31394
G1 X89.919 Y92.178 E32.35957
G1 X90.43 Y91.587 E32.39855
G1 X90.822 Y91.154 E32.42769
G0 F6000 X91.116 Y91.425
G1 F1200 X91.757 Y90.789 E32.47274
G1 X92.458 Y90.207 E32.5182
G1 X93.104 Y89.718 E32.55862
G1 X93.603 Y89.36 E32.58926
G1 X94.365 Y88.874 E32.63435
G1 X95.137 Y88.472 E32.67777
G1 X95.842 Y88.142 E32.71661
G1 X96.363 Y87.912 E32.74502
G1 X97.207 Y87.591 E32.79007
G1 X98.089 Y87.342 E32.83579
G1 X98.834 Y87.168 E32.87396
G1 X99.41 Y87.048 E32.90332
G1 X100.303 Y86.909 E32.9484
G1 X101.209 Y86.85 E32.9937
G1 X101.991 Y86.834 E33.03272
G1 X102.615 Y86.837 E33.06386
G1 X103.517 Y86.891 E33.10894
G1 X104.379 Y87.019 E33.15241
G1 X105.519 Y87.244 E33.21039
G1 X106.824 Y87.541 E33.27716
G1 X109.332 Y88.075 E33.40509
G1 X111.89 Y88.546 E33.53485
G1 X114.357 Y88.927 E33.65939
G1 X116.886 Y89.246 E33.78656
G1 X119.414 Y89.492 E33.91328
G1 X121.942 Y89.665 E34.0397
G1 X124.509 Y89.769 E34.16787
G1 X126.895 Y89.8 E34.28692
G1 X133.146 Y89.8 E34.59878
G1 X135.751 Y89.763 E34.72876
G1 X138.317 Y89.654 E34.85689
G1 X140.824 Y89.476 E34.98228
G1 X143.365 Y89.225 E35.10967
G1 X145.873 Y88.904 E35.23582
G1 X148.378 Y88.51 E35.36233
G1 X150.876 Y88.046 E35.48908
G1 X153.715 Y87.43 E35.63402
G1 X154.831 Y87.169 E35.6912
G1 X155.451 Y87.04 E35.72279
G1 X156.344 Y86.905 E35.76785
G1 X157.213 Y86.85 E35.81129
G1 X157.99 Y86.834 E35.85007
G1 X158.615 Y86.837 E35.88125
G1 X159.517 Y86.891 E35.92633
G1 X160.377 Y87.018 E35.9697
G1 X161.175 Y87.171 E36.01024
G1 X161.764 Y87.3 E36.04032
G1 X162.635 Y87.539 E36.08538
G1 X163.469 Y87.85 E36.12979
G1 X164.145 Y88.136 E36.16641
G1 X164.683 Y88.377 E36.19582
G1 X165.487 Y88.788 E36.24087
G1 X166.291 Y89.296 E36.28831
G1 X166.939 Y89.749 E36.32776
G1 X167.399 Y90.087 E36.35624
G1 X168.097 Y90.66 E36.40129
G1 X168.715 Y91.263 E36.44437
G1 X169.271 Y91.854 E36.48485
G1 X169.715 Y92.353 E36.51818
G1 X170.275 Y93.062 E36.56325
G1 X170.73 Y93.748 E36.60432
G1 X171.13 Y94.409 E36.64286
G1 X171.432 Y94.937 E36.67321
G1 X171.837 Y95.744 E36.71826
G1 X172.167 Y96.574 E36.76282
G1 X172.422 Y97.309 E36.80163
G1 X172.604 Y97.877 E36.83139
