;FLAVOR:Marlin
;TIME:1516
;Filament used: 1.11179m
;Layer height: 0.2
;MINX:94.905
;MINY:89.258
;MINZ:0.32
;MAXX:165.094
;MAXY:130.778
;MAXZ:3.52
;POSTPROCESSED
;Generated with Cura_SteamEngine 5.3.1
;
;

M82 ;absolute extrusion mode
START_PRINT EXTRUDER_TEMP=250.0 BED_TEMP=90 RELATIVE_E_MODE=False PROBE=false PROBE_AREA_START=%MINX%,%MINY% PROBE_AREA_END=%MAXX%,%MAXY%
G92 E0
G92 E0
G1 F1500 E-6.5
;LAYER_COUNT:17
;LAYER:0
M107
G0 F6000 X101.109 Y96.172 Z0.32
;TYPE:SKIRT
G1 F1500 E0
G1 F900 X100.876 Y96.424 E0.0274
G1 X100.381 Y96.99 E0.08742
G1 X100.144 Y97.277 E0.11713
G1 X99.684 Y97.874 E0.17729
G1 X99.449 Y98.199 E0.2093
G1 X99.102 Y98.709 E0.25854
G1 X98.869 Y99.075 E0.29318
G1 X98.487 Y99.716 E0.35274
G1 X98.314 Y100.027 E0.38115
G1 X97.992 Y100.649 E0.43706
G1 X97.841 Y100.962 E0.4648
G1 X97.55 Y101.613 E0.52172
G1 X97.368 Y102.058 E0.5601
G1 X97.167 Y102.596 E0.60594
G1 X97.023 Y103.015 E0.64131
G1 X96.807 Y103.717 E0.69994
G1 X96.71 Y104.065 E0.72878
G1 X96.548 Y104.726 E0.7831
G1 X96.458 Y105.149 E0.81762
G1 X96.332 Y105.847 E0.87424
G1 X96.274 Y106.237 E0.90572
G1 X96.197 Y106.886 E0.95789
G1 X96.157 Y107.321 E0.99276
G1 X96.118 Y107.955 E1.04346
G1 X96.105 Y108.382 E1.07756
G1 X96.105 Y109.142 E1.13823
G1 X96.119 Y109.563 E1.17185
G1 X96.161 Y110.237 E1.22576
G1 X96.194 Y110.599 E1.25477
G1 X96.27 Y111.226 E1.30519
G1 X96.341 Y111.698 E1.34329
G1 X96.46 Y112.351 E1.39627
G1 X96.536 Y112.717 E1.42611
G1 X96.709 Y113.422 E1.48406
G1 X96.807 Y113.78 E1.51369
G1 X97.031 Y114.504 E1.57418
G1 X97.168 Y114.903 E1.60786
G1 X97.384 Y115.479 E1.65696
G1 X97.566 Y115.921 E1.69512
G1 X97.814 Y116.477 E1.74372
G1 X97.989 Y116.841 E1.77596
G1 X98.346 Y117.528 E1.83776
G1 X98.505 Y117.812 E1.86374
G1 X98.884 Y118.445 E1.92263
G1 X99.105 Y118.79 E1.95534
G1 X99.473 Y119.329 E2.00744
G1 X99.705 Y119.649 E2.03899
G1 X100.118 Y120.183 E2.09287
G1 X100.43 Y120.563 E2.13212
G1 X100.825 Y121.016 E2.1801
G1 X101.112 Y121.325 E2.21376
G1 X101.647 Y121.866 E2.2745
G1 X101.893 Y122.101 E2.30165
G1 X102.383 Y122.543 E2.35433
G1 X102.751 Y122.855 E2.39284
G1 X103.239 Y123.244 E2.44266
G1 X103.553 Y123.48 E2.47401
G1 X104.145 Y123.898 E2.53186
G1 X104.442 Y124.094 E2.56027
G1 X105.122 Y124.513 E2.62402
G1 X105.462 Y124.708 E2.65531
G1 X106.071 Y125.035 E2.71049
G1 X106.382 Y125.19 E2.73823
G1 X107.007 Y125.479 E2.79319
G1 X107.37 Y125.636 E2.82476
G1 X108.066 Y125.908 E2.88441
G1 X108.479 Y126.055 E2.91941
G1 X109.031 Y126.233 E2.9657
G1 X109.498 Y126.37 E3.00455
G1 X110.081 Y126.522 E3.05264
G1 X110.545 Y126.627 E3.09062
G1 X111.205 Y126.756 E3.1443
G1 X111.572 Y126.818 E3.17401
G1 X112.331 Y126.92 E3.23514
G1 X112.738 Y126.961 E3.2678
G1 X113.321 Y127.004 E3.31446
G1 X113.757 Y127.024 E3.3493
G1 X114.453 Y127.035 E3.40486
G1 X114.862 Y127.03 E3.43751
G1 X117.058 Y126.927 E3.613
G1 X119.857 Y126.839 E3.83654
G1 X122.626 Y126.83 E4.05757
G1 X125.359 Y126.899 E4.2758
G1 X128.159 Y127.048 E4.49963
G1 X130.887 Y127.272 E4.71812
G1 X133.634 Y127.575 E4.93873
G1 X136.382 Y127.957 E5.1602
G1 X139.105 Y128.414 E5.3806
G1 X141.811 Y128.949 E5.60078
G1 X143.125 Y129.228 E5.70801
G1 X143.852 Y129.359 E5.76698
G1 X144.276 Y129.423 E5.80121
G1 X144.929 Y129.5 E5.85369
G1 X145.216 Y129.526 E5.8767
G1 X145.864 Y129.565 E5.92852
G1 X146.251 Y129.578 E5.95943
G1 X146.903 Y129.578 E6.01147
G1 X147.352 Y129.565 E6.04733
G1 X147.99 Y129.526 E6.09835
G1 X148.3 Y129.499 E6.12319
G1 X149.056 Y129.407 E6.18398
G1 X149.355 Y129.361 E6.20813
G1 X149.995 Y129.246 E6.26004
G1 X150.417 Y129.156 E6.29448
G1 X151.025 Y129.007 E6.34445
G1 X151.36 Y128.915 E6.37218
G1 X152.034 Y128.707 E6.42849
G1 X152.356 Y128.597 E6.45565
G1 X152.993 Y128.358 E6.50996
G1 X153.286 Y128.239 E6.5352
G1 X153.945 Y127.945 E6.5928
G1 X154.299 Y127.775 E6.62415
G1 X154.865 Y127.481 E6.67506
G1 X155.143 Y127.326 E6.70047
G1 X155.762 Y126.957 E6.75799
G1 X156.128 Y126.723 E6.79267
G1 X156.591 Y126.407 E6.83742
G1 X156.88 Y126.197 E6.86593
G1 X157.485 Y125.729 E6.92699
G1 X157.725 Y125.531 E6.95183
G1 X158.259 Y125.064 E7.00845
G1 X158.518 Y124.822 E7.03675
G1 X158.982 Y124.364 E7.08879
G1 X159.207 Y124.129 E7.11476
G1 X159.681 Y123.603 E7.17128
G1 X159.901 Y123.344 E7.19841
G1 X160.299 Y122.846 E7.2493
G1 X160.582 Y122.468 E7.28699
G1 X160.922 Y121.985 E7.33414
G1 X161.153 Y121.634 E7.36768
G1 X161.471 Y121.118 E7.41606
G1 X161.702 Y120.717 E7.453
G1 X162.005 Y120.152 E7.50418
G1 X162.143 Y119.875 E7.52888
G1 X162.443 Y119.224 E7.5861
G1 X162.561 Y118.949 E7.60999
G1 X162.814 Y118.305 E7.66522
G1 X162.964 Y117.888 E7.7006
G1 X163.162 Y117.274 E7.75209
G1 X163.244 Y116.99 E7.77569
G1 X163.423 Y116.304 E7.83228
G1 X163.502 Y115.956 E7.86077
G1 X163.636 Y115.271 E7.91648
G1 X163.697 Y114.897 E7.94673
G1 X163.774 Y114.319 E7.99328
G1 X163.826 Y113.824 E8.03301
G1 X163.866 Y113.289 E8.07583
G1 X163.883 Y112.912 E8.10596
G1 X163.894 Y112.228 E8.16057
G1 X163.888 Y111.811 E8.19386
G1 X163.86 Y111.204 E8.24236
G1 X163.833 Y110.832 E8.27213
G1 X163.761 Y110.152 E8.32672
G1 X163.706 Y109.747 E8.35934
G1 X163.595 Y109.086 E8.41285
G1 X163.526 Y108.744 E8.4407
G1 X163.385 Y108.13 E8.49098
G1 X163.287 Y107.751 E8.52223
G1 X163.097 Y107.1 E8.57637
G1 X162.999 Y106.801 E8.60148
G1 X162.766 Y106.149 E8.65675
G1 X162.634 Y105.812 E8.68564
G1 X162.373 Y105.201 E8.73868
G1 X162.231 Y104.892 E8.76582
G1 X161.907 Y104.244 E8.82366
G1 X161.711 Y103.883 E8.85645
G1 X161.413 Y103.369 E8.90387
G1 X161.215 Y103.048 E8.93398
G1 X160.857 Y102.507 E8.98576
G1 X160.597 Y102.138 E9.0218
G1 X160.27 Y101.702 E9.0653
G1 X159.964 Y101.319 E9.10443
G1 X159.584 Y100.872 E9.15126
G1 X159.293 Y100.549 E9.18597
G1 X158.848 Y100.085 E9.23729
G1 X158.625 Y99.866 E9.26224
G1 X158.139 Y99.415 E9.31516
G1 X157.798 Y99.116 E9.35136
G1 X157.32 Y98.723 E9.40076
G1 X156.484 Y98.104 E9.48379
G1 X156.228 Y97.929 E9.50855
G1 X155.561 Y97.505 E9.57164
G1 X155.224 Y97.304 E9.60296
G1 X154.808 Y97.073 E9.64094
G1 X154.366 Y96.845 E9.68064
G1 X153.744 Y96.547 E9.7357
G1 X153.414 Y96.401 E9.7645
G1 X152.813 Y96.156 E9.81631
G1 X152.501 Y96.039 E9.84291
G1 X151.856 Y95.82 E9.89728
G1 X151.52 Y95.717 E9.92534
G1 X150.924 Y95.551 E9.97472
G1 X150.557 Y95.461 E10.00489
G1 X149.897 Y95.32 E10.05876
G1 X149.529 Y95.253 E10.08862
G1 X148.665 Y95.122 E10.15837
G1 X147.848 Y95.049 E10.22385
G1 X147.443 Y95.024 E10.25624
G1 X146.804 Y95.005 E10.30727
G1 X143.742 Y94.963 E10.55172
G1 X140.978 Y94.846 E10.77255
G1 X138.248 Y94.651 E10.99102
G1 X135.461 Y94.374 E11.21459
G1 X132.74 Y94.025 E11.43357
G1 X130.021 Y93.599 E11.65326
G1 X127.334 Y93.098 E11.87145
G1 X124.583 Y92.506 E12.09607
G1 X121.902 Y91.848 E12.31643
G1 X118.848 Y91.01 E12.56922
G1 X118.069 Y90.832 E12.63301
G1 X117.729 Y90.765 E12.66067
G1 X117.049 Y90.653 E12.71568
G1 X116.602 Y90.593 E12.75169
G1 X115.93 Y90.523 E12.80562
G1 X115.509 Y90.492 E12.83931
G1 X114.83 Y90.463 E12.89356
G1 X114.413 Y90.458 E12.92685
G1 X113.8 Y90.468 E12.97579
G1 X113.404 Y90.485 E13.00743
G1 X112.602 Y90.546 E13.07164
G1 X112.277 Y90.58 E13.09772
G1 X111.642 Y90.666 E13.14887
G1 X111.216 Y90.736 E13.18333
G1 X110.454 Y90.886 E13.24533
G1 X110.135 Y90.96 E13.27147
G1 X109.41 Y91.149 E13.33127
G1 X109.09 Y91.243 E13.3579
G1 X108.427 Y91.459 E13.41356
G1 X107.984 Y91.617 E13.4511
G1 X107.38 Y91.855 E13.50292
G1 X106.961 Y92.034 E13.53929
G1 X106.429 Y92.282 E13.58615
G1 X106.065 Y92.464 E13.61863
G1 X105.374 Y92.836 E13.68128
G1 X105.086 Y93.002 E13.70781
G1 X104.493 Y93.368 E13.76344
G1 X104.152 Y93.592 E13.79601
G1 X103.563 Y94.008 E13.85357
G1 X103.267 Y94.23 E13.8831
G1 X102.73 Y94.658 E13.93792
G1 X102.447 Y94.896 E13.96743
G1 X101.857 Y95.428 E14.03085
G1 X101.609 Y95.664 E14.05818
G1 X101.109 Y96.172 E14.11507
G0 F6000 X100.681 Y95.751
G1 F900 X100.435 Y96.017 E14.144
G1 X99.929 Y96.595 E14.20532
G1 X99.681 Y96.895 E14.23639
G1 X99.209 Y97.508 E14.29814
G1 X98.963 Y97.847 E14.33158
G1 X98.606 Y98.371 E14.38219
G1 X98.363 Y98.753 E14.41833
G1 X97.972 Y99.409 E14.47929
G1 X97.79 Y99.735 E14.5091
G1 X97.459 Y100.373 E14.56647
G1 X97.301 Y100.701 E14.59553
G1 X97.002 Y101.368 E14.65388
G1 X96.813 Y101.831 E14.6938
G1 X96.605 Y102.386 E14.74111
G1 X96.456 Y102.82 E14.77774
G1 X96.234 Y103.541 E14.83796
G1 X96.132 Y103.904 E14.86806
G1 X95.965 Y104.583 E14.92387
G1 X95.871 Y105.024 E14.95987
G1 X95.742 Y105.74 E15.01794
G1 X95.681 Y106.149 E15.05095
G1 X95.601 Y106.815 E15.10449
G1 X95.56 Y107.266 E15.14064
G1 X95.519 Y107.918 E15.19279
G1 X95.505 Y108.364 E15.22841
G1 X95.505 Y109.162 E15.29211
G1 X95.519 Y109.583 E15.32574
G1 X95.562 Y110.274 E15.381
G1 X95.596 Y110.653 E15.41138
G1 X95.674 Y111.298 E15.46324
G1 X95.748 Y111.787 E15.50272
G1 X95.87 Y112.459 E15.55723
G1 X95.953 Y112.86 E15.58992
G1 X96.126 Y113.565 E15.64787
G1 X96.228 Y113.938 E15.67874
G1 X96.458 Y114.681 E15.74082
G1 X96.601 Y115.098 E15.77601
G1 X96.822 Y115.69 E15.82645
G1 X97.011 Y116.149 E15.86608
G1 X97.266 Y116.721 E15.91607
G1 X97.448 Y117.101 E15.9497
G1 X97.814 Y117.805 E16.01304
G1 X97.981 Y118.105 E16.04045
G1 X98.369 Y118.753 E16.10074
G1 X98.6 Y119.114 E16.13495
G1 X98.977 Y119.667 E16.18837
G1 X99.219 Y120.001 E16.2213
G1 X99.643 Y120.55 E16.27667
G1 X99.966 Y120.944 E16.31734
G1 X100.373 Y121.41 E16.36672
G1 X100.672 Y121.733 E16.40186
G1 X101.22 Y122.288 E16.46412
G1 X101.479 Y122.535 E16.49269
G1 X101.981 Y122.989 E16.54672
G1 X102.363 Y123.313 E16.5867
G1 X102.865 Y123.713 E16.63794
G1 X103.193 Y123.96 E16.67071
G1 X103.799 Y124.388 E16.72994
G1 X104.112 Y124.595 E16.75989
G1 X104.807 Y125.024 E16.82509
G1 X105.163 Y125.228 E16.85784
G1 X105.787 Y125.564 E16.91441
G1 X106.114 Y125.727 E16.94358
G1 X106.755 Y126.024 E16.99997
G1 X107.132 Y126.187 E17.03276
G1 X107.848 Y126.467 E17.09412
G1 X108.278 Y126.62 E17.13056
G1 X108.847 Y126.804 E17.17829
G1 X109.329 Y126.946 E17.2184
G1 X109.93 Y127.103 E17.26799
G1 X110.413 Y127.212 E17.30751
G1 X111.09 Y127.345 E17.36259
G1 X111.472 Y127.41 E17.39352
G1 X112.251 Y127.515 E17.45626
G1 X112.678 Y127.558 E17.49052
G1 X113.277 Y127.602 E17.53846
G1 X113.73 Y127.623 E17.57466
G1 X114.444 Y127.635 E17.63167
G1 X114.869 Y127.63 E17.66559
G1 X117.077 Y127.526 E17.84204
G1 X119.876 Y127.439 E18.06558
G1 X122.613 Y127.43 E18.28406
G1 X125.344 Y127.499 E18.50213
G1 X128.113 Y127.646 E18.72347
G1 X130.838 Y127.87 E18.94173
G1 X133.555 Y128.17 E19.15993
G1 X136.283 Y128.549 E19.37978
G1 X138.994 Y129.004 E19.59921
G1 X141.695 Y129.538 E19.81899
G1 X143 Y129.815 E19.92548
G1 X143.746 Y129.949 E19.98598
G1 X144.186 Y130.016 E20.02151
G1 X144.859 Y130.096 E20.07561
G1 X145.162 Y130.124 E20.0999
G1 X145.828 Y130.164 E20.15316
G1 X146.231 Y130.178 E20.18535
G1 X146.92 Y130.178 E20.24035
G1 X147.369 Y130.165 E20.2762
G1 X148.027 Y130.125 E20.32882
G1 X148.352 Y130.097 E20.35486
G1 X149.128 Y130.003 E20.41726
G1 X149.446 Y129.954 E20.44294
G1 X150.101 Y129.837 E20.49606
G1 X150.542 Y129.743 E20.53205
G1 X151.168 Y129.59 E20.58349
G1 X151.519 Y129.494 E20.61254
G1 X152.211 Y129.28 E20.67036
G1 X152.55 Y129.165 E20.69893
G1 X153.204 Y128.92 E20.75468
G1 X153.512 Y128.795 E20.78121
G1 X154.189 Y128.493 E20.84039
G1 X154.559 Y128.316 E20.87313
G1 X155.142 Y128.013 E20.92558
G1 X155.435 Y127.85 E20.95234
G1 X156.069 Y127.472 E21.01126
G1 X156.451 Y127.229 E21.0474
G1 X156.929 Y126.903 E21.09359
G1 X157.233 Y126.682 E21.12359
G1 X157.852 Y126.204 E21.18602
G1 X158.107 Y125.994 E21.21238
G1 X158.654 Y125.516 E21.27037
G1 X158.928 Y125.26 E21.3003
G1 X159.403 Y124.791 E21.35359
G1 X159.64 Y124.544 E21.38091
G1 X160.127 Y124.005 E21.4389
G1 X160.37 Y123.719 E21.46886
G1 X160.768 Y123.221 E21.51975
G1 X161.062 Y122.828 E21.55892
G1 X161.413 Y122.33 E21.60756
G1 X161.654 Y121.964 E21.64254
G1 X161.982 Y121.433 E21.69236
G1 X162.222 Y121.016 E21.73077
G1 X162.534 Y120.436 E21.78334
G1 X162.68 Y120.143 E21.80947
G1 X162.988 Y119.475 E21.86819
G1 X163.112 Y119.186 E21.89329
G1 X163.379 Y118.508 E21.95146
G1 X163.529 Y118.091 E21.98683
G1 X163.733 Y117.458 E22.03992
G1 X163.825 Y117.141 E22.06627
G1 X164.004 Y116.455 E22.12286
G1 X164.087 Y116.089 E22.15282
G1 X164.225 Y115.386 E22.21
G1 X164.289 Y114.994 E22.24171
G1 X164.369 Y114.398 E22.28971
G1 X164.423 Y113.887 E22.33073
G1 X164.464 Y113.334 E22.37499
G1 X164.482 Y112.939 E22.40656
G1 X164.494 Y112.238 E22.46252
G1 X164.488 Y111.802 E22.49733
G1 X164.459 Y111.176 E22.54735
G1 X164.43 Y110.769 E22.57992
G1 X164.358 Y110.089 E22.63451
G1 X164.301 Y109.666 E22.66858
G1 X164.187 Y108.987 E22.72354
G1 X164.114 Y108.625 E22.75302
G1 X163.97 Y107.996 E22.80452
G1 X163.868 Y107.601 E22.83709
G1 X163.673 Y106.932 E22.89271
G1 X163.569 Y106.614 E22.91942
G1 X163.331 Y105.947 E22.97595
G1 X163.193 Y105.593 E23.00628
G1 X162.925 Y104.965 E23.06078
G1 X162.776 Y104.641 E23.08925
G1 X162.444 Y103.976 E23.14858
G1 X162.238 Y103.597 E23.18302
G1 X161.932 Y103.068 E23.2318
G1 X161.726 Y102.733 E23.26319
G1 X161.357 Y102.176 E23.31652
G1 X161.087 Y101.792 E23.354
G1 X160.75 Y101.342 E23.39887
G1 X160.433 Y100.944 E23.43949
G1 X160.041 Y100.483 E23.48779
G1 X159.739 Y100.147 E23.52386
G1 X159.281 Y99.67 E23.57664
G1 X159.045 Y99.438 E23.60306
G1 X158.547 Y98.975 E23.65734
G1 X158.194 Y98.665 E23.69484
G1 X157.701 Y98.26 E23.74577
G1 X156.841 Y97.622 E23.83125
G1 X156.567 Y97.434 E23.85777
G1 X155.883 Y96.999 E23.92248
G1 X155.531 Y96.789 E23.9552
G1 X155.099 Y96.548 E23.99468
G1 X154.641 Y96.312 E24.03581
G1 X154.003 Y96.006 E24.09229
G1 X153.657 Y95.852 E24.12252
G1 X153.039 Y95.6 E24.1758
G1 X152.712 Y95.477 E24.20369
G1 X152.049 Y95.252 E24.25958
G1 X151.696 Y95.143 E24.28907
G1 X151.085 Y94.973 E24.33969
G1 X150.7 Y94.878 E24.37135
G1 X150.022 Y94.733 E24.42669
G1 X149.636 Y94.663 E24.45801
G1 X148.718 Y94.524 E24.53212
G1 X147.901 Y94.451 E24.5976
G1 X147.48 Y94.425 E24.63127
G1 X146.822 Y94.405 E24.68381
G1 X143.75 Y94.363 E24.92906
G1 X141.013 Y94.247 E25.14773
G1 X138.307 Y94.054 E25.36429
G1 X135.526 Y93.778 E25.58737
G1 X132.833 Y93.432 E25.8041
G1 X130.12 Y93.007 E26.02331
G1 X127.459 Y92.511 E26.23938
G1 X124.715 Y91.92 E26.46344
G1 X122.058 Y91.268 E26.68182
G1 X119.007 Y90.431 E26.93437
G1 X118.203 Y90.247 E27.0002
G1 X117.845 Y90.176 E27.02934
G1 X117.147 Y90.061 E27.08581
G1 X116.682 Y89.998 E27.12326
G1 X115.992 Y89.926 E27.17864
G1 X115.553 Y89.894 E27.21378
G1 X114.856 Y89.864 E27.26947
G1 X114.42 Y89.858 E27.30427
G1 X113.79 Y89.868 E27.35457
G1 X113.378 Y89.886 E27.38749
G1 X112.556 Y89.948 E27.45329
G1 X112.215 Y89.983 E27.48065
G1 X111.561 Y90.071 E27.53333
G1 X111.119 Y90.144 E27.56909
G1 X110.338 Y90.297 E27.63262
G1 X109.999 Y90.376 E27.6604
G1 X109.259 Y90.568 E27.72143
G1 X108.921 Y90.667 E27.74954
G1 X108.241 Y90.889 E27.80664
G1 X107.782 Y91.052 E27.84552
G1 X107.16 Y91.297 E27.89889
G1 X106.725 Y91.482 E27.93662
G1 X106.175 Y91.738 E27.98505
G1 X105.797 Y91.927 E28.01878
G1 X105.074 Y92.316 E28.08432
G1 X104.786 Y92.482 E28.11085
G1 X104.178 Y92.857 E28.16788
G1 X103.823 Y93.091 E28.20182
G1 X103.217 Y93.518 E28.26099
G1 X102.907 Y93.75 E28.2919
G1 X102.356 Y94.189 E28.34814
G1 X102.045 Y94.45 E28.38054
G1 X101.455 Y94.982 E28.44396
G1 X101.195 Y95.229 E28.47259
G1 X100.681 Y95.751 E28.53106
G0 F6000 X100.253 Y95.33
G1 F900 X100.782 Y94.794 E28.59118
G1 X101.053 Y94.536 E28.62105
G1 X101.659 Y93.99 E28.68616
G1 X101.982 Y93.72 E28.71976
G1 X102.547 Y93.27 E28.77742
G1 X102.871 Y93.028 E28.8097
G1 X103.493 Y92.59 E28.87043
G1 X103.863 Y92.346 E28.90581
G1 X104.486 Y91.962 E28.96423
G1 X104.774 Y91.796 E28.99076
G1 X105.529 Y91.39 E29.05919
G1 X105.922 Y91.194 E29.09425
G1 X106.49 Y90.93 E29.14424
G1 X106.94 Y90.739 E29.18327
G1 X107.581 Y90.487 E29.23825
G1 X108.055 Y90.319 E29.27839
G1 X108.752 Y90.091 E29.33693
G1 X109.108 Y89.987 E29.36653
G1 X109.863 Y89.792 E29.42878
G1 X110.223 Y89.708 E29.45829
G1 X111.021 Y89.552 E29.52319
G1 X111.481 Y89.476 E29.56041
G1 X112.154 Y89.386 E29.61461
G1 X112.511 Y89.35 E29.64325
G1 X113.352 Y89.287 E29.71057
G1 X113.78 Y89.268 E29.74477
G1 X114.428 Y89.258 E29.7965
G1 X114.882 Y89.265 E29.83275
G1 X115.597 Y89.296 E29.88987
G1 X116.054 Y89.329 E29.92645
G1 X116.763 Y89.403 E29.98335
