;FLAVOR:Marlin
;TIME:785
;Filament used: 0.629467m
;Layer height: 0.2
;MINX:28.409
;MINY:18.771
;MINZ:0.32
;MAXX:230.718
;MAXY:200.634
;MAXZ:0.32
;POSTPROCESSED
;Generated with Cura_SteamEngine 5.3.1
;
;

M82 ;absolute extrusion mode
START_PRINT EXTRUDER_TEMP=250.0 BED_TEMP=100 RELATIVE_E_MODE=False PROBE=false PROBE_AREA_START=%MINX%,%MINY% PROBE_AREA_END=%MAXX%,%MAXY%
G92 E0
G92 E0
G1 F1500 E-6.5
;LAYER_COUNT:1
;LAYER:0
M107
G0 F6000 X29.745 Y20.751 Z0.32
;TYPE:SKIRT
G1 F1500 E0
G1 F900 X30.009 Y20.421 E0.02699
G1 X30.331 Y20.147 E0.05399
G1 X30.699 Y19.937 E0.08104
G1 X31.099 Y19.801 E0.10802
G1 X31.555 Y19.741 E0.1374
G1 X31.939 Y19.731 E0.16193
G1 X50.937 Y19.731 E1.37513
G1 X51.645 Y19.742 E1.42035
G1 X52.065 Y19.789 E1.44733
G1 X52.35 Y19.868 E1.46622
G1 X54.586 Y20.651 E1.61751
G1 X57.23 Y21.499 E1.79483
G1 X59.888 Y22.271 E1.97158
G1 X62.566 Y22.966 E2.14826
G1 X65.291 Y23.591 E2.3268
G1 X67.944 Y24.122 E2.49958
G1 X70.69 Y24.592 E2.67748
G1 X73.432 Y24.981 E2.85434
G1 X76.187 Y25.292 E3.03139
G1 X78.949 Y25.527 E3.20841
G1 X81.683 Y25.681 E3.38328
G1 X84.454 Y25.758 E3.5603
G1 X87.224 Y25.756 E3.73719
G1 X89.995 Y25.677 E3.91422
G1 X92.728 Y25.521 E4.08903
G1 X95.492 Y25.285 E4.26618
G1 X98.244 Y24.971 E4.44306
G1 X100.994 Y24.578 E4.62046
G1 X103.726 Y24.109 E4.79747
G1 X106.411 Y23.57 E4.97236
G1 X109.086 Y22.954 E5.14765
G1 X111.788 Y22.249 E5.32598
G1 X114.476 Y21.466 E5.50477
G1 X117.07 Y20.631 E5.67879
G1 X119.277 Y19.864 E5.82799
G1 X119.688 Y19.764 E5.85501
G1 X119.949 Y19.741 E5.87174
G1 X120.33 Y19.731 E5.89608
G1 X139.328 Y19.731 E7.10928
G1 X140.035 Y19.742 E7.15443
G1 X140.455 Y19.789 E7.18142
G1 X140.715 Y19.859 E7.19862
G1 X141.608 Y20.16 E7.25879
G1 X142.503 Y20.476 E7.31941
G1 X145.116 Y21.318 E7.49472
G1 X147.774 Y22.091 E7.67149
G1 X150.463 Y22.792 E7.84895
G1 X153.183 Y23.419 E8.0272
G1 X155.851 Y23.955 E8.20098
G1 X158.608 Y24.427 E8.3796
G1 X161.297 Y24.812 E8.55307
G1 X164.078 Y25.128 E8.73181
G1 X166.846 Y25.365 E8.90922
G1 X169.577 Y25.521 E9.0839
G1 X172.347 Y25.6 E9.26087
G1 X175.118 Y25.6 E9.43782
G1 X177.892 Y25.523 E9.61504
G1 X180.626 Y25.368 E9.78991
G1 X183.381 Y25.136 E9.96646
G1 X186.144 Y24.822 E10.14404
G1 X188.89 Y24.432 E10.32116
G1 X191.615 Y23.967 E10.49769
G1 X194.313 Y23.426 E10.67342
G1 X196.974 Y22.815 E10.84777
G1 X199.704 Y22.105 E11.0279
G1 X202.323 Y21.346 E11.20203
G1 X205.005 Y20.484 E11.38193
G1 X206.793 Y19.864 E11.50278
G1 X207.204 Y19.763 E11.52981
G1 X207.464 Y19.741 E11.54647
G1 X207.848 Y19.731 E11.571
G1 X226.84 Y19.731 E12.78382
G1 X227.538 Y19.74 E12.8284
G1 X227.958 Y19.786 E12.85538
G1 X228.363 Y19.909 E12.88241
G1 X228.737 Y20.106 E12.9094
G1 X229.067 Y20.37 E12.93639
G1 X229.342 Y20.692 E12.96343
G1 X229.551 Y21.059 E12.9904
G1 X229.688 Y21.459 E13.0174
G1 X229.748 Y21.917 E13.0469
G1 X229.758 Y22.301 E13.07143
G1 X229.758 Y41.276 E14.28317
G1 X229.748 Y41.997 E14.32921
G1 X229.66 Y42.588 E14.36737
G1 X228.964 Y44.997 E14.5275
G1 X228.267 Y47.676 E14.70427
G1 X227.639 Y50.402 E14.88291
G1 X227.106 Y53.052 E15.05553
G1 X226.634 Y55.805 E15.2339
G1 X226.243 Y58.547 E15.41077
G1 X225.93 Y61.303 E15.5879
G1 X225.693 Y64.079 E15.76582
G1 X225.538 Y66.799 E15.9398
G1 X225.459 Y69.569 E16.11676
G1 X225.459 Y72.342 E16.29385
G1 X225.536 Y75.113 E16.47087
G1 X225.689 Y77.829 E16.64459
G1 X225.924 Y80.605 E16.82249
G1 X226.238 Y83.366 E16.99995
G1 X226.627 Y86.106 E17.17668
G1 X227.096 Y88.842 E17.35394
G1 X227.635 Y91.535 E17.52933
G1 X228.246 Y94.196 E17.70368
G1 X228.954 Y96.92 E17.88341
G1 X229.661 Y99.381 E18.04693
G1 X229.747 Y99.931 E18.08248
G1 X229.758 Y100.33 E18.10797
G1 X229.758 Y119.305 E19.3197
G1 X229.748 Y120.026 E19.36575
G1 X229.669 Y120.585 E19.4018
G1 X229.506 Y121.179 E19.44113
G1 X229.064 Y122.695 E19.54198
G1 X228.357 Y125.408 E19.72101
G1 X227.732 Y128.125 E19.89905
G1 X227.194 Y130.798 E20.07317
G1 X226.725 Y133.529 E20.25012
G1 X226.335 Y136.268 E20.4268
G1 X226.019 Y139.03 E20.60433
G1 X225.783 Y141.802 E20.78199
G1 X225.629 Y144.515 E20.95552
G1 X225.549 Y147.293 E21.13299
G1 X225.547 Y150.066 E21.31007
G1 X225.624 Y152.837 E21.4871
G1 X225.777 Y155.553 E21.66081
G1 X226.013 Y158.332 E21.83892
G1 X226.324 Y161.085 E22.01584
G1 X226.715 Y163.835 E22.19322
G1 X227.18 Y166.56 E22.36975
G1 X227.723 Y169.267 E22.54607
G1 X228.326 Y171.901 E22.71862
G1 X229.042 Y174.656 E22.9004
G1 X229.661 Y176.815 E23.04383
G1 X229.747 Y177.365 E23.07938
G1 X229.758 Y177.764 E23.10487
G1 X229.758 Y196.726 E24.31577
G1 X229.749 Y197.453 E24.3622
G1 X229.704 Y197.873 E24.38917
G1 X229.58 Y198.278 E24.41622
G1 X229.383 Y198.652 E24.44322
G1 X229.119 Y198.982 E24.4702
G1 X228.798 Y199.257 E24.4972
G1 X228.431 Y199.467 E24.5242
G1 X228.031 Y199.603 E24.55118
G1 X227.572 Y199.664 E24.58075
G1 X227.188 Y199.674 E24.60528
G1 X208.19 Y199.674 E25.81848
G1 X207.483 Y199.663 E25.86363
G1 X207.063 Y199.616 E25.89062
G1 X206.803 Y199.546 E25.90782
G1 X205.874 Y199.232 E25.97044
G1 X204.99 Y198.92 E26.0303
G1 X202.307 Y198.058 E26.21026
G1 X199.688 Y197.299 E26.38439
G1 X196.982 Y196.595 E26.56295
G1 X194.301 Y195.979 E26.73862
G1 X191.579 Y195.435 E26.91588
G1 X188.867 Y194.971 E27.09158
G1 X186.125 Y194.581 E27.26845
G1 X183.37 Y194.27 E27.4455
G1 X180.608 Y194.035 E27.62252
G1 X177.874 Y193.881 E27.79739
G1 X175.103 Y193.804 E27.97441
G1 X172.333 Y193.806 E28.1513
G1 X169.562 Y193.885 E28.32833
G1 X166.825 Y194.041 E28.50339
G1 X164.068 Y194.276 E28.68009
G1 X161.308 Y194.592 E28.85749
G1 X158.567 Y194.982 E29.0343
G1 X155.831 Y195.452 E29.21158
G1 X153.146 Y195.991 E29.38646
G1 X150.471 Y196.607 E29.56175
G1 X147.769 Y197.312 E29.74008
G1 X145.081 Y198.095 E29.91887
G1 X142.497 Y198.926 E30.0922
G1 X140.734 Y199.539 E30.2114
G1 X140.323 Y199.639 E30.23841
G1 X140.066 Y199.662 E30.25489
G1 X139.67 Y199.673 E30.28019
G1 X120.672 Y199.673 E31.49339
G1 X119.965 Y199.662 E31.53854
G1 X119.545 Y199.615 E31.56553
G1 X119.284 Y199.544 E31.5828
G1 X118.78 Y199.374 E31.61677
G1 X117.038 Y198.759 E31.73474
G1 X114.424 Y197.918 E31.9101
G1 X111.765 Y197.146 E32.08691
G1 X109.077 Y196.446 E32.26429
G1 X106.36 Y195.822 E32.44231
G1 X103.687 Y195.285 E32.61642
G1 X100.961 Y194.819 E32.79303
G1 X98.208 Y194.427 E32.97061
G1 X95.458 Y194.115 E33.14735
G1 X92.698 Y193.88 E33.32424
G1 X89.96 Y193.725 E33.49936
G1 X87.191 Y193.647 E33.67626
G1 X84.42 Y193.647 E33.85321
G1 X81.649 Y193.725 E34.03024
G1 X78.916 Y193.88 E34.20505
G1 X76.153 Y194.116 E34.38213
G1 X73.394 Y194.43 E34.55946
G1 X70.659 Y194.818 E34.73586
G1 X67.919 Y195.288 E34.91339
G1 X65.219 Y195.831 E35.08927
G1 X62.573 Y196.438 E35.26263
G1 X59.836 Y197.151 E35.44325
G1 X57.186 Y197.921 E35.61947
G1 X54.577 Y198.76 E35.79448
G1 X52.345 Y199.539 E35.94545
G1 X51.934 Y199.64 E35.97248
G1 X51.675 Y199.663 E35.98908
G1 X51.279 Y199.674 E36.01438
G1 X32.287 Y199.674 E37.2272
G1 X31.589 Y199.665 E37.27178
G1 X31.169 Y199.619 E37.29876
G1 X30.764 Y199.496 E37.32579
G1 X30.39 Y199.299 E37.35278
G1 X30.06 Y199.035 E37.37977
G1 X29.785 Y198.713 E37.40681
G1 X29.576 Y198.346 E37.43378
G1 X29.439 Y197.946 E37.46078
G1 X29.379 Y197.485 E37.49047
G1 X29.369 Y197.091 E37.51564
G1 X29.369 Y178.103 E38.7282
G1 X29.381 Y177.387 E38.77393
G1 X29.462 Y176.829 E38.80994
G1 X29.621 Y176.255 E38.84797
G1 X30.064 Y174.737 E38.94896
G1 X30.77 Y172.026 E39.12785
G1 X31.395 Y169.309 E39.30589
G1 X31.933 Y166.636 E39.48001
G1 X32.402 Y163.905 E39.65696
G1 X32.792 Y161.166 E39.83364
G1 X33.108 Y158.404 E40.01117
G1 X33.344 Y155.632 E40.18883
G1 X33.499 Y152.912 E40.36281
G1 X33.578 Y150.141 E40.53983
G1 X33.58 Y147.368 E40.71692
G1 X33.503 Y144.597 E40.89394
G1 X33.35 Y141.88 E41.06772
G1 X33.114 Y139.102 E41.24576
G1 X32.803 Y136.348 E41.42275
G1 X32.412 Y133.598 E41.60013
G1 X31.947 Y130.873 E41.77666
G1 X31.404 Y128.167 E41.95291
G1 X30.801 Y125.533 E42.12546
G1 X30.083 Y122.771 E42.30771
G1 X29.466 Y120.62 E42.45061
G1 X29.38 Y120.07 E42.48616
G1 X29.369 Y119.67 E42.51171
G1 X29.369 Y100.669 E43.7251
G1 X29.381 Y99.953 E43.77083
G1 X29.469 Y99.368 E43.80861
G1 X30.166 Y96.963 E43.96851
G1 X30.86 Y94.295 E44.14456
G1 X31.49 Y91.562 E44.32367
G1 X32.024 Y88.904 E44.4968
G1 X32.493 Y86.166 E44.67419
G1 X32.884 Y83.424 E44.85106
G1 X33.197 Y80.668 E45.02819
G1 X33.434 Y77.892 E45.20611
G1 X33.589 Y75.172 E45.38009
G1 X33.668 Y72.402 E45.55705
G1 X33.668 Y69.629 E45.73413
G1 X33.59 Y66.841 E45.91224
G1 X33.438 Y64.141 E46.08494
G1 X33.203 Y61.366 E46.26278
G1 X32.889 Y58.604 E46.4403
G1 X32.496 Y55.84 E46.61858
G1 X32.029 Y53.113 E46.79526
G1 X31.49 Y50.427 E46.97021
G1 X30.881 Y47.775 E47.14397
G1 X30.175 Y45.058 E47.32324
G1 X29.758 Y43.59 E47.42069
G1 X29.469 Y42.604 E47.48631
G1 X29.38 Y42.041 E47.52271
G1 X29.369 Y41.641 E47.54826
G1 X29.369 Y22.615 E48.76325
G1 X29.378 Y21.95 E48.80572
G1 X29.424 Y21.529 E48.83276
G1 X29.548 Y21.125 E48.85975
G1 X29.745 Y20.751 E48.88675
G0 F6000 X29.341 Y20.488
G1 F900 X29.103 Y20.94 E48.91937
G1 X28.952 Y21.431 E48.95217
G1 X28.898 Y21.944 E48.98511
G1 X28.889 Y22.609 E49.02758
G1 X28.889 Y41.654 E50.24379
G1 X28.9 Y42.054 E50.26934
G1 X29.008 Y42.739 E50.31362
G1 X29.296 Y43.721 E50.37898
G1 X29.71 Y45.179 E50.47576
G1 X30.416 Y47.896 E50.65503
G1 X31.019 Y50.521 E50.82703
G1 X31.558 Y53.207 E51.00197
G1 X32.021 Y55.908 E51.17697
G1 X32.412 Y58.658 E51.35435
G1 X32.725 Y61.407 E51.53104
G1 X32.959 Y64.168 E51.70799
G1 X33.11 Y66.854 E51.87978
G1 X33.188 Y69.629 E52.05706
G1 X33.188 Y72.388 E52.23325
G1 X33.109 Y75.158 E52.41021
G1 X32.956 Y77.851 E52.58247
G1 X32.72 Y80.614 E52.75955
G1 X32.407 Y83.37 E52.93668
G1 X32.02 Y86.085 E53.11181
G1 X31.553 Y88.809 E53.2883
G1 X31.022 Y91.454 E53.46058
G1 X30.395 Y94.174 E53.63883
G1 X29.701 Y96.842 E53.81488
G1 X28.994 Y99.297 E53.97803
G1 X28.906 Y99.882 E54.0158
G1 X28.889 Y100.661 E54.06556
G1 X28.889 Y119.683 E55.2803
G1 X28.9 Y120.083 E55.30585
G1 X28.992 Y120.694 E55.34531
G1 X29.619 Y122.892 E55.49127
G1 X30.336 Y125.654 E55.6735
G1 X30.933 Y128.261 E55.84429
G1 X31.476 Y130.967 E56.02054
G1 X31.937 Y133.666 E56.19539
G1 X32.326 Y136.402 E56.37187
G1 X32.636 Y139.143 E56.54802
G1 X32.871 Y141.907 E56.72516
G1 X33.023 Y144.61 E56.89805
G1 X33.1 Y147.368 E57.07424
G1 X33.098 Y150.127 E57.25043
G1 X33.019 Y152.898 E57.42746
G1 X32.866 Y155.591 E57.59971
G1 X32.631 Y158.349 E57.77647
G1 X32.315 Y161.111 E57.954
G1 X31.929 Y163.824 E58.129
G1 X31.462 Y166.541 E58.30505
G1 X30.927 Y169.201 E58.47831
G1 X30.305 Y171.905 E58.6555
G1 X29.599 Y174.616 E58.8344
G1 X29.16 Y176.121 E58.93451
G1 X28.999 Y176.701 E58.97295
G1 X28.906 Y177.318 E59.0128
G1 X28.889 Y178.095 E59.06243
G1 X28.889 Y197.103 E60.27627
G1 X28.899 Y197.497 E60.30144
G1 X28.969 Y198.055 E60.33735
G1 X29.137 Y198.545 E60.37043
G1 X29.39 Y198.99 E60.40312
G1 X29.725 Y199.382 E60.43605
G1 X30.127 Y199.703 E60.4689
G1 X30.577 Y199.94 E60.50138
G1 X31.074 Y200.092 E60.53457
G1 X31.583 Y200.145 E60.56725
G1 X32.281 Y200.154 E60.61182
G1 X51.292 Y200.154 E61.82586
G1 X51.688 Y200.143 E61.85115
G1 X52.049 Y200.106 E61.87433
G1 X52.46 Y200.005 E61.90136
G1 X54.724 Y199.217 E62.05444
G1 X57.33 Y198.379 E62.22925
G1 X59.97 Y197.612 E62.40481
G1 X62.68 Y196.906 E62.58365
G1 X65.314 Y196.302 E62.75622
G1 X68.014 Y195.759 E62.93209
G1 X70.74 Y195.291 E63.10872
G1 X73.448 Y194.907 E63.28338
G1 X76.207 Y194.593 E63.46071
G1 X78.95 Y194.359 E63.63651
G1 X81.663 Y194.205 E63.81004
G1 X84.434 Y194.127 E63.98706
G1 X87.177 Y194.127 E64.16223
G1 X89.946 Y194.205 E64.33913
G1 X92.664 Y194.359 E64.51297
G1 X95.404 Y194.592 E64.68858
G1 X98.154 Y194.904 E64.86532
G1 X100.885 Y195.293 E65.04148
G1 X103.592 Y195.756 E65.21686
G1 X106.265 Y196.293 E65.39097
G1 X108.956 Y196.911 E65.56728
G1 X111.644 Y197.611 E65.74466
G1 X114.284 Y198.377 E65.92021
G1 X116.878 Y199.212 E66.09423
G1 X118.62 Y199.827 E66.2122
G1 X119.131 Y199.999 E66.24663
G1 X119.492 Y200.092 E66.27044
G1 X119.958 Y200.142 E66.30037
G1 X120.665 Y200.153 E66.34552
G1 X139.683 Y200.153 E67.56
G1 X140.079 Y200.142 E67.5853
G1 X140.366 Y200.117 E67.6037
G1 X140.892 Y199.992 E67.63822
G1 X142.644 Y199.383 E67.75667
G1 X145.221 Y198.554 E67.92954
G1 X147.903 Y197.773 E68.10793
G1 X150.579 Y197.074 E68.28455
G1 X153.248 Y196.46 E68.45944
G1 X155.925 Y195.923 E68.6338
G1 X158.643 Y195.456 E68.80991
G1 X161.363 Y195.069 E68.98536
G1 X164.123 Y194.753 E69.16276
G1 X166.859 Y194.52 E69.33811
G1 X169.576 Y194.365 E69.5119
G1 X172.347 Y194.286 E69.68893
G1 X175.09 Y194.284 E69.86409
G1 X177.861 Y194.361 E70.04112
G1 X180.574 Y194.514 E70.21464
G1 X183.316 Y194.747 E70.39038
G1 X186.071 Y195.058 E70.56743
G1 X188.791 Y195.445 E70.74287
G1 X191.485 Y195.906 E70.91741
G1 X194.207 Y196.45 E71.09468
G1 X196.861 Y197.06 E71.26858
G1 X199.567 Y197.764 E71.44713
G1 X202.167 Y198.517 E71.61999
G1 X204.83 Y199.373 E71.79862
G1 X205.714 Y199.685 E71.85848
G1 X206.649 Y200.001 E71.92151
G1 X207.01 Y200.093 E71.9453
G1 X207.476 Y200.143 E71.97523
G1 X208.183 Y200.154 E72.02038
G1 X227.2 Y200.154 E73.2348
G1 X227.635 Y200.14 E73.26259
G1 X228.139 Y200.073 E73.29506
G1 X228.631 Y199.906 E73.32824
G1 X229.076 Y199.651 E73.36099
G1 X229.466 Y199.317 E73.39378
G1 X229.787 Y198.916 E73.42658
G1 X230.026 Y198.463 E73.45929
G1 X230.176 Y197.971 E73.49214
G1 X230.229 Y197.459 E73.52501
G1 X230.238 Y196.732 E73.57144
G1 X230.238 Y177.751 E74.78355
G1 X230.227 Y177.352 E74.80904
G1 X230.135 Y176.741 E74.8485
G1 X229.506 Y174.535 E74.99499
G1 X228.791 Y171.78 E75.17675
G1 X228.191 Y169.16 E75.3484
G1 X227.651 Y166.466 E75.52385
G1 X227.188 Y163.754 E75.69955
G1 X226.799 Y161.017 E75.87609
G1 X226.49 Y158.278 E76.05211
G1 X226.255 Y155.512 E76.22938
G1 X226.104 Y152.824 E76.4013
G1 X226.027 Y150.066 E76.5775
G1 X226.029 Y147.307 E76.75369
G1 X226.109 Y144.529 E76.93116
G1 X226.261 Y141.843 E77.10296
G1 X226.496 Y139.085 E77.27972
G1 X226.812 Y136.323 E77.45725
G1 X227.198 Y133.61 E77.63225
G1 X227.665 Y130.893 E77.8083
G1 X228.2 Y128.233 E77.98157
G1 X228.825 Y125.516 E78.15961
G1 X229.525 Y122.829 E78.33692
G1 X229.967 Y121.313 E78.43777
G1 X230.132 Y120.712 E78.47756
G1 X230.228 Y120.033 E78.52136
G1 X230.238 Y119.312 E78.5674
G1 X230.238 Y100.317 E79.78041
G1 X230.227 Y99.918 E79.8059
G1 X230.135 Y99.307 E79.84536
G1 X229.418 Y96.799 E80.01194
G1 X228.711 Y94.075 E80.19165
G1 X228.103 Y91.428 E80.36509
G1 X227.567 Y88.748 E80.53962
G1 X227.1 Y86.025 E80.71605
G1 X226.715 Y83.312 E80.89104
G1 X226.401 Y80.551 E81.06849
G1 X226.167 Y77.789 E81.2455
G1 X226.016 Y75.1 E81.41749
G1 X225.939 Y72.342 E81.59369
G1 X225.939 Y69.583 E81.76987
G1 X226.018 Y66.813 E81.94684
G1 X226.171 Y64.12 E82.11909
G1 X226.407 Y61.357 E82.29617
G1 X226.718 Y58.615 E82.4724
G1 X227.107 Y55.886 E82.64843
G1 X227.577 Y53.147 E82.8259
G1 X228.107 Y50.51 E82.99767
G1 X228.732 Y47.797 E83.17545
G1 X229.429 Y45.118 E83.35223
G1 X230.135 Y42.659 E83.5156
G1 X230.223 Y42.068 E83.55376
G1 X230.238 Y41.283 E83.6039
G1 X230.238 Y22.289 E84.81685
G1 X230.228 Y21.905 E84.84138
G1 X230.158 Y21.35 E84.8771
G1 X229.99 Y20.86 E84.91018
G1 X229.737 Y20.415 E84.94287
G1 X229.402 Y20.023 E84.9758
G1 X229 Y19.702 E85.00865
G1 X228.55 Y19.465 E85.04113
G1 X228.053 Y19.313 E85.07432
G1 X227.544 Y19.26 E85.107
G1 X226.846 Y19.251 E85.15157
G1 X207.836 Y19.251 E86.36554
G1 X207.452 Y19.261 E86.39007
G1 X207.089 Y19.297 E86.41337
G1 X206.636 Y19.41 E86.44318
G1 X204.848 Y20.03 E86.56403
G1 X202.183 Y20.887 E86.7428
G1 X199.583 Y21.64 E86.91566
G1 X196.853 Y22.35 E87.09579
G1 X194.219 Y22.955 E87.26838
G1 X191.521 Y23.496 E87.4441
G1 X188.809 Y23.959 E87.61979
G1 X186.09 Y24.345 E87.79517
G1 X183.327 Y24.659 E87.97275
G1 X180.596 Y24.889 E88.14777
G1 X177.879 Y25.043 E88.32155
G1 X175.105 Y25.12 E88.49877
G1 X172.361 Y25.12 E88.674
G1 X169.591 Y25.041 E88.85096
G1 X166.88 Y24.886 E89.02436
G1 X164.132 Y24.651 E89.20049
G1 X161.351 Y24.335 E89.37923
G1 X158.684 Y23.953 E89.55128
G1 X155.946 Y23.484 E89.72867
G1 X153.278 Y22.948 E89.90245
G1 X150.571 Y22.324 E90.07985
G1 X147.908 Y21.63 E90.25559
G1 X145.256 Y20.859 E90.43196
G1 X142.663 Y20.023 E90.60594
G1 X141.768 Y19.707 E90.66655
G1 X140.868 Y19.404 E90.72719
