;FLAVOR:Marlin
;TIME:2294
;Filament used: 1.11098m
;Layer height: 0.2
;MINX:102.461
;MINY:100.2
;MINZ:0.32
;MAXX:160.061
;MAXY:119.8
;MAXZ:32.12
;POSTPROCESSED
;Generated with Cura_SteamEngine 5.3.1
;
;

M82 ;absolute extrusion mode
START_PRINT EXTRUDER_TEMP=250.0 BED_TEMP=90 RELATIVE_E_MODE=False PROBE=false PROBE_AREA_START=%MINX%,%MINY% PROBE_AREA_END=%MAXX%,%MAXY%
G92 E0
G92 E0
G1 F1500 E-6.5
;LAYER_COUNT:160
;LAYER:0
M107
G0 F6000 X104.544 Y102.4 Z0.32
;TYPE:SKIRT
G1 F1500 E0
G1 F900 X104.868 Y102.111 E0.04159
G1 X105.239 Y101.886 E0.08315
G1 X105.645 Y101.733 E0.12471
G1 X106.204 Y101.65 E0.17884
G1 X106.591 Y101.64 E0.21593
G1 X155.588 Y101.64 E4.90931
G1 X156.286 Y101.65 E4.97618
G1 X156.717 Y101.696 E5.0177
G1 X157.133 Y101.821 E5.05931
G1 X157.519 Y102.019 E5.10086
G1 X157.862 Y102.285 E5.14244
G1 X158.151 Y102.609 E5.18403
G1 X158.376 Y102.981 E5.22567
G1 X158.528 Y103.387 E5.2672
G1 X158.611 Y103.944 E5.32114
G1 X158.621 Y104.33 E5.35813
G1 X158.621 Y115.293 E6.40827
G1 X158.612 Y116.02 E6.47791
G1 X158.567 Y116.452 E6.51951
G1 X158.443 Y116.868 E6.5611
G1 X158.245 Y117.254 E6.60265
G1 X157.98 Y117.598 E6.64425
G1 X157.657 Y117.887 E6.68576
G1 X157.286 Y118.113 E6.72737
G1 X156.88 Y118.266 E6.76893
G1 X156.318 Y118.35 E6.82337
G1 X155.931 Y118.36 E6.86045
G1 X106.938 Y118.36 E11.55345
G1 X106.24 Y118.351 E11.62032
G1 X105.808 Y118.305 E11.66193
G1 X105.392 Y118.182 E11.70348
G1 X105.006 Y117.984 E11.74504
G1 X104.662 Y117.718 E11.78669
G1 X104.373 Y117.395 E11.82821
G1 X104.148 Y117.024 E11.86977
G1 X103.995 Y116.617 E11.91142
G1 X103.911 Y116.055 E11.96585
G1 X103.901 Y115.658 E12.00389
G1 X103.901 Y104.642 E13.05911
G1 X103.91 Y103.977 E13.12281
G1 X103.956 Y103.545 E13.16443
G1 X104.08 Y103.129 E13.20601
G1 X104.278 Y102.743 E13.24756
G1 X104.544 Y102.4 E13.28914
G0 F6000 X104.015 Y101.908
G1 F900 X103.666 Y102.357 E13.34362
G1 X103.41 Y102.858 E13.39751
G1 X103.247 Y103.404 E13.45209
G1 X103.19 Y103.967 E13.5063
G1 X103.181 Y104.632 E13.57
G1 X103.181 Y115.676 E14.6279
G1 X103.191 Y116.073 E14.66594
G1 X103.293 Y116.797 E14.73597
G1 X103.498 Y117.341 E14.79166
G1 X103.792 Y117.826 E14.84599
G1 X104.169 Y118.247 E14.90012
G1 X104.62 Y118.596 E14.95475
G1 X105.118 Y118.851 E15.00834
G1 X105.671 Y119.015 E15.06359
G1 X106.231 Y119.071 E15.1175
G1 X106.929 Y119.08 E15.18437
G1 X155.95 Y119.08 E19.88005
G1 X156.424 Y119.062 E19.92548
G1 X157.064 Y118.966 E19.98748
G1 X157.603 Y118.763 E20.04265
G1 X158.088 Y118.468 E20.09702
G1 X158.507 Y118.093 E20.15089
G1 X158.859 Y117.636 E20.20614
G1 X159.113 Y117.139 E20.25961
G1 X159.277 Y116.593 E20.31421
G1 X159.332 Y116.029 E20.3685
G1 X159.341 Y115.302 E20.43814
G1 X159.341 Y104.311 E21.49096
G1 X159.331 Y103.925 E21.52795
G1 X159.23 Y103.209 E21.59721
G1 X159.025 Y102.663 E21.65308
G1 X158.734 Y102.182 E21.70693
G1 X158.354 Y101.756 E21.76161
G1 X157.905 Y101.407 E21.81608
G1 X157.404 Y101.15 E21.87002
G1 X156.86 Y100.987 E21.92442
G1 X156.296 Y100.93 E21.97872
G1 X155.598 Y100.92 E22.04558
G1 X106.572 Y100.92 E26.74175
G1 X106.185 Y100.93 E26.77883
G1 X105.464 Y101.032 E26.84858
G1 X104.923 Y101.235 E26.90393
G1 X104.441 Y101.528 E26.95796
G1 X104.015 Y101.908 E27.01264
G0 F6000 X103.487 Y101.415
G1 F900 X103.055 Y101.97 E27.08001
G1 X102.739 Y102.589 E27.14659
G1 X102.538 Y103.263 E27.21396
G1 X102.47 Y103.957 E27.28075
G1 X102.461 Y104.622 E27.34446
G1 X102.461 Y115.694 E28.40504
G1 X102.471 Y116.091 E28.44308
G1 X102.591 Y116.976 E28.52863
G1 X102.847 Y117.656 E28.59823
G1 X103.209 Y118.254 E28.66519
G1 X103.678 Y118.777 E28.73248
G1 X104.233 Y119.207 E28.79973
G1 X104.848 Y119.522 E28.86592
G1 X105.532 Y119.725 E28.93426
G1 X106.222 Y119.791 E29.00066
G1 X106.92 Y119.8 E29.06752
G1 X155.95 Y119.8 E33.76407
G1 X156.531 Y119.774 E33.81978
G1 X157.248 Y119.666 E33.88923
G1 X157.917 Y119.414 E33.95771
G1 X158.521 Y119.047 E34.02541
G1 X159.034 Y118.588 E34.09135
G1 X159.471 Y118.02 E34.16
G1 X159.785 Y117.407 E34.22597
G1 X159.987 Y116.733 E34.29337
G1 X160.049 Y116.099 E34.35439
G1 X160.061 Y115.311 E34.42988
G1 X160.061 Y104.292 E35.48538
G1 X160.051 Y103.906 E35.52237
G1 X159.933 Y103.033 E35.60675
G1 X159.675 Y102.346 E35.67705
G1 X159.317 Y101.755 E35.74324
G1 X158.847 Y101.228 E35.81088
G1 X158.29 Y100.795 E35.87846
G1 X157.675 Y100.479 E35.94469
G1 X157.003 Y100.278 E36.01188
G1 X156.306 Y100.21 E36.07896
G1 X155.608 Y100.2 E36.14583
G1 X106.553 Y100.2 E40.84476
G1 X106.166 Y100.21 E40.88185
G1 X105.288 Y100.329 E40.96672
G1 X104.607 Y100.585 E41.03641
G1 X104.012 Y100.947 E41.10312
G1 X103.487 Y101.415 E41.17049
G1 F1500 E34.67049
;MESH:OverhangTest
G0 F6000 X154.461 Y114.2
;TYPE:WALL-INNER
G1 F1500 E41.17049
G1 F900 X154.461 Y105.8 E41.97512
G1 X108.061 Y105.8 E46.41974
G1 X108.061 Y114.2 E47.22437
G1 X154.461 Y114.2 E51.66899
G0 F6000 X155.181 Y114.92
G1 F900 X155.181 Y105.08 E52.61155
G1 X107.341 Y105.08 E57.19411
G1 X107.341 Y114.92 E58.13667
G1 X155.181 Y114.92 E62.71923
G0 F6000 X155.901 Y115.64
;TYPE:WALL-OUTER
G1 F900 X155.901 Y104.36 E63.79973
G1 X106.621 Y104.36 E68.52022
G1 X106.621 Y115.64 E69.60072
G1 X155.901 Y115.64 E74.32122
G1 F1500 E67.82122
G0 F6000 X153.789 Y113.528
;TYPE:SKIN
G1 F1500 E74.32122
G1 F900 X108.733 Y113.528 E78.63709
G1 X108.733 Y106.472 E79.31298
G1 X153.789 Y106.472 E83.62886
G1 X153.789 Y113.528 E84.30475
G1 F1500 E77.80475
G0 F6000 X152.653 Y106.832
G1 F1500 E84.30475
G1 F900 X153.428 Y107.608 E84.4098
G0 F6000 X153.428 Y108.626
G1 F900 X151.634 Y106.832 E84.65283
G0 F6000 X150.616 Y106.832
G1 F900 X153.428 Y109.644 E85.03376
G0 F6000 X153.428 Y110.662
G1 F900 X149.598 Y106.832 E85.5526
G0 F6000 X148.58 Y106.832
G1 F900 X153.428 Y111.681 E86.2094
G0 F6000 X153.428 Y112.699
G1 F900 X147.561 Y106.832 E87.00419
G0 F6000 X146.543 Y106.832
G1 F900 X152.878 Y113.167 E87.86237
G0 F6000 X151.86 Y113.167
G1 F900 X145.525 Y106.832 E88.72054
G0 F6000 X144.507 Y106.832
G1 F900 X150.842 Y113.167 E89.57872
G0 F6000 X149.823 Y113.167
G1 F900 X143.488 Y106.832 E90.4369
G0 F6000 X142.47 Y106.832
G1 F900 X148.805 Y113.167 E91.29508
G0 F6000 X147.787 Y113.167
G1 F900 X141.452 Y106.832 E92.15326
G0 F6000 X140.434 Y106.832
G1 F900 X146.769 Y113.167 E93.01144
G0 F6000 X145.75 Y113.167
G1 F900 X139.416 Y106.832 E93.86955
G0 F6000 X138.397 Y106.832
G1 F900 X144.732 Y113.167 E94.72773
G0 F6000 X143.714 Y113.167
G1 F900 X137.379 Y106.832 E95.58591
G0 F6000 X136.361 Y106.832
G1 F900 X142.696 Y113.167 E96.44409
G0 F6000 X141.678 Y113.167
G1 F900 X135.343 Y106.832 E97.30227
G0 F6000 X134.324 Y106.832
G1 F900 X140.659 Y113.167 E98.16045
G0 F6000 X139.641 Y113.167
G1 F900 X133.306 Y106.832 E99.01863
G0 F6000 X132.288 Y106.832
G1 F900 X138.623 Y113.167 E99.87681
G0 F6000 X137.605 Y113.167
G1 F900 X131.27 Y106.832 E100.73499
G0 F6000 X130.251 Y106.832
G1 F900 X136.586 Y113.167 E101.59317
G0 F6000 X135.568 Y113.167
G1 F900 X129.233 Y106.832 E102.45135
G0 F6000 X128.215 Y106.832
G1 F900 X134.55 Y113.167 E103.30953
G0 F6000 X133.532 Y113.167
G1 F900 X127.197 Y106.832 E104.16771
G0 F6000 X126.178 Y106.832
G1 F900 X132.513 Y113.167 E105.02589
G0 F6000 X131.495 Y113.167
G1 F900 X125.16 Y106.832 E105.88407
G0 F6000 X124.142 Y106.832
G1 F900 X130.477 Y113.167 E106.74225
G0 F6000 X129.459 Y113.167
G1 F900 X123.124 Y106.832 E107.60043
G0 F6000 X122.106 Y106.832
G1 F900 X128.44 Y113.167 E108.45854
G0 F6000 X127.422 Y113.167
G1 F900 X121.087 Y106.832 E109.31672
G0 F6000 X120.069 Y106.832
G1 F900 X126.404 Y113.167 E110.1749
G0 F6000 X125.386 Y113.167
G1 F900 X119.051 Y106.832 E111.03308
G0 F6000 X118.033 Y106.832
G1 F900 X124.368 Y113.167 E111.89125
G0 F6000 X123.349 Y113.167
G1 F900 X117.014 Y106.832 E112.74943
G0 F6000 X115.996 Y106.832
G1 F900 X122.331 Y113.167 E113.60761
G0 F6000 X121.313 Y113.167
G1 F900 X114.978 Y106.832 E114.46579
G0 F6000 X113.96 Y106.832
G1 F900 X120.295 Y113.167 E115.32397
G0 F6000 X119.276 Y113.167
G1 F900 X112.941 Y106.832 E116.18215
G0 F6000 X111.923 Y106.832
G1 F900 X118.258 Y113.167 E117.04033
G0 F6000 X117.24 Y113.167
G1 F900 X110.905 Y106.832 E117.89851
G0 F6000 X109.887 Y106.832
G1 F900 X116.222 Y113.167 E118.75669
G0 F6000 X115.203 Y113.167
G1 F900 X109.092 Y107.055 E119.58459
G0 F6000 X109.092 Y108.074
G1 F900 X114.185 Y113.167 E120.27452
G0 F6000 X113.167 Y113.167
G1 F900 X109.092 Y109.092 E120.82655
G0 F6000 X109.092 Y110.11
G1 F900 X112.149 Y113.167 E121.24067
G0 F6000 X111.131 Y113.167
G1 F900 X109.092 Y111.128 E121.51689
G0 F6000 X109.092 Y112.147
M104 S250
G1 F900 X110.112 Y113.167 E121.65506
G1 F1500 E115.15506
;MESH:NONMESH
G0 F300 X110.112 Y113.167 Z0.52
G0 F6000 X155.061 Y114.8
;TIME_ELAPSED:97.549703
;LAYER:1
;TYPE:WALL-INNER
;MESH:OverhangTest
G1 F1500 E121.65506
G1 F1200 X155.061 Y105.2 E122.03822
G1 X107.461 Y105.2 E123.93804
G1 X107.461 Y114.8 E124.32119
G1 X155.061 Y114.8 E126.22101
G0 F7500 X155.541 Y115.28
G1 F1200 X155.541 Y104.72 E126.64248
G1 X106.981 Y104.72 E128.58062
G1 X106.981 Y115.28 E129.00209
G1 X155.541 Y115.28 E130.94023
G0 F7500 X156.021 Y115.76
;TYPE:WALL-OUTER
G1 F1200 X156.021 Y104.24 E131.40001
G1 X106.501 Y104.24 E133.37646
G1 X106.501 Y115.76 E133.83625
G1 X156.021 Y115.76 E135.8127
G1 F1500 E129.3127
G0 F7500 X154.629 Y114.368
;TYPE:SKIN
G1 F1500 E135.8127
G1 F1200 X107.893 Y114.368 E137.67804
G1 X107.893 Y105.632 E138.02671
G1 X154.629 Y105.632 E139.89205
G1 X154.629 Y114.368 E140.24072
G0 F7500 X154.388 Y113.746
G1 F1200 X154.006 Y114.128 E140.26228
G0 F7500 X153.327 Y114.128
G1 F1200 X154.388 Y113.067 E140.32217
G0 F7500 X154.388 Y112.388
G1 F1200 X152.648 Y114.128 E140.42038
G0 F7500 X151.969 Y114.128
G1 F1200 X154.388 Y111.71 E140.55689
G0 F7500 X154.388 Y111.031
G1 F1200 X151.291 Y114.128 E140.7317
G0 F7500 X150.612 Y114.128
G1 F1200 X154.388 Y110.352 E140.94483
G0 F7500 X154.388 Y109.673
G1 F1200 X149.933 Y114.128 E141.19629
G0 F7500 X149.254 Y114.128
G1 F1200 X154.388 Y108.994 E141.48608
G0 F7500 X154.388 Y108.316
G1 F1200 X148.575 Y114.128 E141.81416
G0 F7500 X147.897 Y114.128
G1 F1200 X154.388 Y107.637 E142.18054
G0 F7500 X154.388 Y106.958
G1 F1200 X147.218 Y114.128 E142.58525
G0 F7500 X146.539 Y114.128
G1 F1200 X154.388 Y106.279 E143.02828
G0 F7500 X154.116 Y105.872
G1 F1200 X145.86 Y114.128 E143.49428
G0 F7500 X145.181 Y114.128
G1 F1200 X153.437 Y105.872 E143.96029
G0 F7500 X152.759 Y105.872
G1 F1200 X144.502 Y114.128 E144.42632
G0 F7500 X143.824 Y114.128
G1 F1200 X152.08 Y105.872 E144.89232
G0 F7500 X151.401 Y105.872
G1 F1200 X143.145 Y114.128 E145.35833
G0 F7500 X142.466 Y114.128
G1 F1200 X150.722 Y105.872 E145.82433
G0 F7500 X150.043 Y105.872
G1 F1200 X141.787 Y114.128 E146.29034
G0 F7500 X141.108 Y114.128
G1 F1200 X149.364 Y105.872 E146.75634
G0 F7500 X148.686 Y105.872
G1 F1200 X140.429 Y114.128 E147.22237
G0 F7500 X139.751 Y114.128
G1 F1200 X148.007 Y105.872 E147.68838
G0 F7500 X147.328 Y105.872
G1 F1200 X139.072 Y114.128 E148.15438
G0 F7500 X138.393 Y114.128
G1 F1200 X146.649 Y105.872 E148.62039
G0 F7500 X145.97 Y105.872
G1 F1200 X137.714 Y114.128 E149.08639
G0 F7500 X137.035 Y114.128
G1 F1200 X145.292 Y105.872 E149.55242
G0 F7500 X144.613 Y105.872
G1 F1200 X136.357 Y114.128 E150.01843
G0 F7500 X135.678 Y114.128
G1 F1200 X143.934 Y105.872 E150.48443
G0 F7500 X143.255 Y105.872
G1 F1200 X134.999 Y114.128 E150.95044
G0 F7500 X134.32 Y114.128
G1 F1200 X142.576 Y105.872 E151.41644
G0 F7500 X141.897 Y105.872
G1 F1200 X133.641 Y114.128 E151.88244
G0 F7500 X132.962 Y114.128
G1 F1200 X141.219 Y105.872 E152.34848
G0 F7500 X140.54 Y105.872
G1 F1200 X132.284 Y114.128 E152.81448
G0 F7500 X131.605 Y114.128
G1 F1200 X139.861 Y105.872 E153.28049
G0 F7500 X139.182 Y105.872
G1 F1200 X130.926 Y114.128 E153.74649
G0 F7500 X130.247 Y114.128
G1 F1200 X138.503 Y105.872 E154.21249
G0 F7500 X137.825 Y105.872
G1 F1200 X129.568 Y114.128 E154.67853
G0 F7500 X128.89 Y114.128
G1 F1200 X137.146 Y105.872 E155.14453
G0 F7500 X136.467 Y105.872
G1 F1200 X128.211 Y114.128 E155.61054
G0 F7500 X127.532 Y114.128
G1 F1200 X135.788 Y105.872 E156.07654
G0 F7500 X135.109 Y105.872
G1 F1200 X126.853 Y114.128 E156.54254
G0 F7500 X126.174 Y114.128
G1 F1200 X134.43 Y105.872 E157.00855
G0 F7500 X133.752 Y105.872
G1 F1200 X125.495 Y114.128 E157.47458
G0 F7500 X124.817 Y114.128
G1 F1200 X133.073 Y105.872 E157.94058
G0 F7500 X132.394 Y105.872
G1 F1200 X124.138 Y114.128 E158.40659
G0 F7500 X123.459 Y114.128
G1 F1200 X131.715 Y105.872 E158.87259
G0 F7500 X131.036 Y105.872
G1 F1200 X122.78 Y114.128 E159.3386
G0 F7500 X122.101 Y114.128
G1 F1200 X130.357 Y105.872 E159.8046
G0 F7500 X129.679 Y105.872
G1 F1200 X121.422 Y114.128 E160.27063
G0 F7500 X120.744 Y114.128
G1 F1200 X129 Y105.872 E160.73664
G0 F7500 X128.321 Y105.872
G1 F1200 X120.065 Y114.128 E161.20264
G0 F7500 X119.386 Y114.128
G1 F1200 X127.642 Y105.872 E161.66865
G0 F7500 X126.963 Y105.872
G1 F1200 X118.707 Y114.128 E162.13465
G0 F7500 X118.028 Y114.128
G1 F1200 X126.285 Y105.872 E162.60068
G0 F7500 X125.606 Y105.872
G1 F1200 X117.35 Y114.128 E163.06669
G0 F7500 X116.671 Y114.128
G1 F1200 X124.927 Y105.872 E163.53269
G0 F7500 X124.248 Y105.872
G1 F1200 X115.992 Y114.128 E163.9987
G0 F7500 X115.313 Y114.128
G1 F1200 X123.569 Y105.872 E164.4647
G0 F7500 X122.89 Y105.872
G1 F1200 X114.634 Y114.128 E164.93071
G0 F7500 X113.955 Y114.128
G1 F1200 X122.212 Y105.872 E165.39674
G0 F7500 X121.533 Y105.872
G1 F1200 X113.277 Y114.128 E165.86274
G0 F7500 X112.598 Y114.128
G1 F1200 X120.854 Y105.872 E166.32875
G0 F7500 X120.175 Y105.872
G1 F1200 X111.919 Y114.128 E166.79475
G0 F7500 X111.24 Y114.128
G1 F1200 X119.496 Y105.872 E167.26076
G0 F7500 X118.817 Y105.872
G1 F1200 X110.561 Y114.128 E167.72676
G0 F7500 X109.882 Y114.128
G1 F1200 X118.139 Y105.872 E168.19279
G0 F7500 X117.46 Y105.872
G1 F1200 X109.204 Y114.128 E168.6588
G0 F7500 X108.525 Y114.128
G1 F1200 X116.781 Y105.872 E169.1248
G0 F7500 X116.102 Y105.872
G1 F1200 X108.132 Y113.842 E169.57466
G0 F7500 X108.132 Y113.163
G1 F1200 X115.423 Y105.872 E169.9862
G0 F7500 X114.745 Y105.872
G1 F1200 X108.132 Y112.484 E170.35944
G0 F7500 X108.132 Y111.805
G1 F1200 X114.066 Y105.872 E170.69435
G0 F7500 X113.387 Y105.872
G1 F1200 X108.132 Y111.126 E170.99094
G0 F7500 X108.132 Y110.447
G1 F1200 X112.708 Y105.872 E171.2492
G0 F7500 X112.029 Y105.872
G1 F1200 X108.132 Y109.769 E171.46916
G0 F7500 X108.132 Y109.09
G1 F1200 X111.35 Y105.872 E171.6508
G0 F7500 X110.672 Y105.872
G1 F1200 X108.132 Y108.411 E171.79414
G0 F7500 X108.132 Y107.732
G1 F1200 X109.993 Y105.872 E171.89915
G0 F7500 X109.314 Y105.872
G1 F1200 X108.132 Y107.053 E171.96584
G0 F7500 X108.132 Y106.375
G1 F1200 X108.635 Y105.872 E171.99423
G1 F1500 E165.49423
;MESH:NONMESH
G0 F300 X108.635 Y105.872 Z0.72
G0 F7500 X155.061 Y114.8
;TIME_ELAPSED:169.191851
;LAYER:2
;TYPE:WALL-INNER
;MESH:OverhangTest
G1 F1500 E171.99423
G1 X155.061 Y105.2 E172.37739
G1 X107.461 Y105.2 E174.27721
G1 X107.461 Y114.8 E174.66037
G1 X155.061 Y114.8 E176.56018
G0 F9000 X155.541 Y115.28
G1 F1500 X155.541 Y104.72 E176.98166
G1 X106.981 Y104.72 E178.91979
G1 X106.981 Y115.28 E179.34126
G1 X155.541 Y115.28 E181.2794
G0 F9000 X156.021 Y115.76
;TYPE:WALL-OUTER
G1 F1500 X156.021 Y104.24 E181.73919
G1 X106.501 Y104.24 E183.71564
G1 X106.501 Y115.76 E184.17542
G1 X156.021 Y115.76 E186.15188
G1 F1500 E179.65188
G0 F9000 X154.629 Y114.368
;TYPE:SKIN
G1 F1500 E186.15188
G1 X107.893 Y114.368 E188.01721
G1 X107.893 Y105.632 E188.36588
G1 X154.629 Y105.632 E190.23122
G1 X154.629 Y114.368 E190.57989
G1 F1500 E184.07989
G0 F9000 X154.388 Y106.191
G1 F1500 E190.57989
G1 X154.068 Y105.872 E190.59792
G0 F9000 X153.389 Y105.872
G1 F1500 X154.388 Y106.87 E190.65428
G0 F9000 X154.388 Y107.549
G1 F1500 X152.711 Y105.872 E190.74894
G0 F9000 X152.032 Y105.872
G1 F1500 X154.388 Y108.228 E190.88192
G0 F9000 X154.388 Y108.907
G1 F1500 X151.353 Y105.872 E191.05323
G0 F9000 X150.674 Y105.872
G1 F1500 X154.388 Y109.585 E191.26284
G0 F9000 X154.388 Y110.264
G1 F1500 X149.995 Y105.872 E191.51077
G0 F9000 X149.316 Y105.872
G1 F1500 X154.388 Y110.943 E191.79703
G0 F9000 X154.388 Y111.622
G1 F1500 X148.638 Y105.872 E192.12158
G0 F9000 X147.959 Y105.872
G1 F1500 X154.388 Y112.301 E192.48446
