;FLAVOR:Marlin
;TIME:9146
;Filament used: 7.98239m
;Layer height: 0.32
;MINX:22.65
;MINY:10.407
;MINZ:0.96
;MAXX:237.35
;MAXY:210.565
;MAXZ:2.56
;POSTPROCESSED
;Generated with Cura_SteamEngine 5.4.0
;
;

M82 ;absolute extrusion mode


; Pre-Processed for Cancel-Object support by preprocess_cancellation v0.2.0
; 1 known objects
EXCLUDE_OBJECT_DEFINE NAME=Frantic_Turing_stl CENTER=127.727,116.571 POLYGON=[[22.65,10.407],[22.65,209.7],[237.35,209.7],[237.35,10.407]]
START_PRINT EXTRUDER_TEMP=250.0 BED_TEMP=90 RELATIVE_E_MODE=False PROBE=alse PROBE_AREA_START=%MINX%,%MINY% PROBE_AREA_END=%MAXX%,%MAXY%
G92 E0
G92 E0
G1 F2100 E-0.5
;LAYER_COUNT:8
;LAYER:2
M107
;MESH:Frantic Turing.stl
EXCLUDE_OBJECT_START NAME=Frantic_Turing_stl
G0 F11250 X32.035 Y21.568 Z0.96
;TYPE:WALL-OUTER
G1 F2100 E0
G1 F2195.1 X33.858 Y23.055 E0.12832
G1 F2054.8 X34.042 Y23.101 E0.13938
G1 F2100 E-0.36062
G0 F11250 X34.541 Y22.779
G0 X38.137 Y23.053
G0 X39.189 Y25.873
G0 X38.82 Y26.518
G1 F2100 E0.13938
G1 F2250 X38.834 Y26.839 E0.15647
G1 X38.746 Y26.951 E0.16405
G1 F2107.7 X37.023 Y27.906 E0.27596
G1 F1910.8 X37.117 Y27.93 E0.28204
G1 F2027 X38.708 Y29.161 E0.40087
G1 F2255.6 X38.799 Y29.301 E0.40973
G1 X38.72 Y29.612 E0.42677
G1 X38.612 Y29.717 E0.43476
G1 F2250 X36.535 Y30.114 E0.54729
G1 X36.403 Y30.042 E0.5553
G1 X36.246 Y29.868 E0.56777
G1 X36.208 Y30.088 E0.57965
G1 X36.134 Y30.195 E0.58657
G1 X35.418 Y30.487 E0.62772
G1 X34.737 Y30.707 E0.66581
G1 X31.707 Y31.164 E0.82887
G1 X29.274 Y30.59 E0.9619
G1 X27.992 Y29.276 E1.0596
G1 X26.818 Y28.148 E1.14624
G1 X26.587 Y27.075 E1.20465
G1 X26.47 Y25.307 E1.29894
G1 X26.711 Y24.079 E1.36554
G1 X27.174 Y23.339 E1.41199
G1 X27.721 Y23.033 E1.44534
G1 X28.295 Y22.758 E1.47921
G1 X28.804 Y22.478 E1.51013
G1 X29.38 Y22.202 E1.54412
G1 X30.002 Y21.946 E1.57991
G1 X30.959 Y21.594 E1.63418
G1 X31.616 Y21.328 E1.6719
G1 F2227.7 X31.732 Y21.335 E1.67814
G1 F2179.2 X32.035 Y21.568 E1.69914
G1 F2189.8 X31.972 Y21.353 E1.7114
G1 F2238.8 X32.108 Y21.017 E1.73078
G1 F2250 X34.804 Y20.585 E1.87608
G1 X34.929 Y20.651 E1.8836
G1 X35.111 Y20.9 E1.90002
G1 X35.084 Y21.042 E1.90771
G1 X34.365 Y22.504 E1.99441
G1 F2148 X34.153 Y22.976 E2.02326
G1 F1973.7 X34.042 Y23.101 E2.0334
G1 F1986.8 X34.252 Y23.042 E2.04654
G1 F2163.5 X34.469 Y23.1 E2.05897
G1 F2233.3 X35.137 Y23.74 E2.10857
G1 F2222.2 X35.093 Y23.603 E2.11633
G1 F2238.8 X35.199 Y23.343 E2.13134
G1 F2250 X35.282 Y23.25 E2.13798
G1 X35.388 Y23.224 E2.14379
G1 X37.626 Y23.275 E2.26291
G1 X37.753 Y23.347 E2.27068
G1 X37.874 Y23.609 E2.28604
G1 X37.832 Y23.802 E2.29655
G1 X36.701 Y25.07 E2.38697
G1 F2142.9 X36.496 Y25.151 E2.39929
G1 F2045.5 X36.416 Y25.112 E2.4045
G1 F1982.4 X35.886 Y24.581 E2.44981
G1 X36.094 Y24.936 E2.47467
G1 F2045.5 X36.111 Y25.141 E2.48671
G1 F1882.8 X36.059 Y25.266 E2.49532
G1 F1744.2 X35.761 Y25.529 E2.5226
G1 X35.89 Y25.509 E2.53156
G1 X36.077 Y25.552 E2.54474
G1 F1578.9 X36.243 Y25.713 E2.56227
G1 X36.331 Y25.502 E2.57961
G1 F1894.7 X36.393 Y25.491 E2.58359
G1 F2059.5 X36.546 Y25.334 E2.59633
G1 F2142.9 X36.763 Y25.299 E2.60862
G1 F2250 X38.77 Y26.439 E2.73145
G1 X38.82 Y26.518 E2.73642
G0 F11250 X39.051 Y26.139
;TYPE:WALL-INNER
G1 F2250 X39.226 Y26.494 E2.75748
G1 X39.233 Y26.851 E2.77649
G1 X39.189 Y27.009 E2.78521
G1 X38.976 Y27.279 E2.80352
G1 X37.751 Y27.938 E2.87754
G1 X38.949 Y28.841 E2.95738
G1 X39.104 Y29.015 E2.96978
G1 X39.174 Y29.191 E2.97986
G1 X39.172 Y29.459 E2.99412
G1 F2255.6 X39.085 Y29.777 E3.01162
G1 X38.943 Y29.974 E3.02451
G1 F2250 X38.735 Y30.104 E3.03756
G1 X36.664 Y30.497 E3.14974
G1 X36.402 Y30.472 E3.16375
G1 F2244.4 X36.354 Y30.541 E3.16823
G1 F2222.2 X35.543 Y30.87 E3.21539
G1 F1956.5 X35.207 Y31.034 E3.23827
G1 X35.551 Y31.071 E3.25944
G1 F2233.3 X35.751 Y31.163 E3.27125
G1 F2250 X36.043 Y31.386 E3.2908
G1 X36.133 Y31.527 E3.2997
G1 X36.193 Y31.79 E3.31406
G1 X35.897 Y33.491 E3.40594
G1 X37.511 Y33.123 E3.49403
G1 X37.752 Y33.166 E3.50706
G1 X37.957 Y33.291 E3.51984
G1 X38.195 Y33.582 E3.53984
G1 X38.276 Y33.866 E3.55556
G1 X38.251 Y34.09 E3.56755
G1 X37.423 Y35.723 E3.66499
G1 X39.007 Y35.885 E3.74972
G1 X39.189 Y35.962 E3.76024
G1 X39.372 Y36.143 E3.77394
G1 X39.546 Y36.572 E3.79857
G1 X39.488 Y36.909 E3.81677
G1 X39.406 Y37.05 E3.82545
G1 X37.752 Y38.652 E3.94799
G1 X37.429 Y38.813 E3.96719
G1 X37.289 Y38.814 E3.97464
G1 X37.228 Y39.143 E3.99245
G1 X38.905 Y39.849 E4.08928
G1 X39.147 Y40.034 E4.10549
G1 X39.249 Y40.233 E4.11739
G1 X39.301 Y40.655 E4.14002
G1 X39.233 Y40.858 E4.15141
G1 X39.117 Y41.038 E4.16281
G1 X36.838 Y42.557 E4.30856
G1 X36.628 Y42.593 E4.31989
G1 X36.22 Y42.487 E4.34233
G1 X35.715 Y43.047 E4.38246
G1 X35.481 Y43.178 E4.39673
G1 X33.963 Y43.625 E4.48094
G1 F2255.6 X31.919 Y44.125 E4.59264
G1 X30.838 Y44.106 E4.65003
G1 F2250 X30.601 Y44.052 E4.66297
G1 X29.782 Y43.678 E4.71088
G1 X29.137 Y42.968 E4.76193
G1 X28.271 Y41.965 E4.83245
G1 X27.693 Y41.334 E4.87798
G1 X27.602 Y41.118 E4.89046
G1 X27.552 Y39.79 E4.96118
G1 X27.434 Y38.259 E5.04289
G1 X27.485 Y38.016 E5.05611
G1 X28.069 Y36.695 E5.13297
G1 X28.434 Y35.541 E5.19738
G1 X28.53 Y35.341 E5.20918
G1 X29.267 Y34.7 E5.26116
G1 X30.469 Y33.915 E5.33756
G1 X31.393 Y33.377 E5.39446
G1 X31.981 Y32.882 E5.43537
G1 X32.712 Y32.352 E5.48342
G1 X33.011 Y32.317 E5.49944
G1 X33.207 Y32.368 E5.51021
G1 X33.324 Y32.233 E5.51972
G1 F2142.9 X34.854 Y31.272 E5.62068
G1 F1851.9 X35.064 Y31.091 E5.6386
G1 F1803.6 X34.055 Y31.228 E5.7062
G1 F2078.5 X33.046 Y31.366 E5.76487
G1 F2250 X31.703 Y31.57 E5.83716
G1 X29.147 Y30.978 E5.97678
G1 X28.955 Y30.836 E5.98949
G1 X27.68 Y29.53 E6.08662
G1 X26.5 Y28.398 E6.17363
G1 X26.414 Y28.173 E6.18645
G1 X26.193 Y27.144 E6.24246
G1 X26.067 Y25.26 E6.34294
G1 X26.312 Y24.035 E6.40942
G1 X26.391 Y23.835 E6.42087
G1 X26.897 Y23.028 E6.47156
G1 X27.519 Y22.687 E6.50931
G1 X28.112 Y22.402 E6.54432
G1 X28.63 Y22.118 E6.57576
G1 X29.228 Y21.832 E6.61103
G1 X29.864 Y21.57 E6.64764
G1 X30.814 Y21.221 E6.7015
G1 X31.514 Y20.932 E6.7418
G1 X31.697 Y20.941 E6.75155
G1 X31.765 Y20.811 E6.75935
G1 X32.05 Y20.625 E6.77746
G1 X34.69 Y20.198 E6.91978
G1 X34.889 Y20.199 E6.93037
G1 X35.066 Y20.26 E6.94033
G1 X35.216 Y20.372 E6.9503
G1 X35.427 Y20.648 E6.96878
G1 X35.502 Y20.899 E6.98273
G1 X35.443 Y21.218 E6.99999
G1 X34.666 Y22.795 E7.09355
G1 X34.746 Y22.812 E7.0979
G1 X34.971 Y23.028 E7.1145
G1 X35.081 Y22.904 E7.12332
G1 X35.397 Y22.824 E7.14066
G1 X37.68 Y22.879 E7.26219
G1 X37.949 Y22.985 E7.27758
G1 X38.107 Y23.135 E7.28917
G1 X38.257 Y23.493 E7.30983
G1 X38.272 Y23.781 E7.32517
G1 X38.131 Y24.068 E7.34219
G1 X37.217 Y25.092 E7.41523
G1 X39.051 Y26.139 E7.52762
G0 F11250 X39.2 Y25.88
G0 X39.648 Y26.211
G0 X39.635 Y27.194
G0 X38.491 Y27.996
G1 F2250 X39.19 Y28.522 E7.57417
G1 X39.449 Y28.812 E7.59486
G1 X39.564 Y29.104 E7.61156
G1 X39.562 Y29.55 E7.6353
G1 F2255.6 X39.451 Y29.942 E7.65693
G1 X39.195 Y30.294 E7.68003
G1 F2250 X38.861 Y30.487 E7.70056
G1 X36.739 Y30.89 E7.8155
G1 X36.503 Y30.904 E7.82808
G1 X36.231 Y31.024 E7.8439
G1 X36.346 Y31.125 E7.85205
G1 X36.496 Y31.36 E7.86688
G1 X36.596 Y31.794 E7.89059
G1 X36.396 Y32.967 E7.95391
G1 X37.493 Y32.718 E8.01377
G1 X37.888 Y32.79 E8.03514
G1 X38.218 Y32.97 E8.05514
G1 X38.541 Y33.376 E8.08275
G1 X38.642 Y33.634 E8.0975
G1 X38.676 Y33.847 E8.10897
G1 X38.634 Y34.218 E8.12884
G1 X38.045 Y35.382 E8.19827
G1 X39.061 Y35.482 E8.2526
G1 X39.404 Y35.624 E8.27235
G1 X39.603 Y35.788 E8.28607
G1 X39.769 Y36.034 E8.30187
G1 X39.882 Y36.336 E8.31903
G1 X39.936 Y36.596 E8.33316
G1 X39.922 Y36.848 E8.34659
G1 X39.854 Y37.069 E8.35889
G1 X39.721 Y37.302 E8.37317
G1 X38.03 Y38.94 E8.49846
G1 X37.912 Y38.998 E8.50545
G1 X39.06 Y39.481 E8.57173
G1 X39.463 Y39.789 E8.59872
G1 X39.626 Y40.066 E8.61583
G1 X39.69 Y40.555 E8.64207
G1 X39.675 Y40.786 E8.65439
G1 X39.594 Y41.03 E8.66807
G1 X39.453 Y41.25 E8.68198
G1 X39.246 Y41.433 E8.69668
G1 X37.156 Y42.826 E8.83034
G1 X36.898 Y42.949 E8.84555
G1 X36.646 Y42.993 E8.85917
G1 X36.37 Y42.922 E8.87433
G1 X35.984 Y43.343 E8.90473
G1 X35.595 Y43.561 E8.92846
G1 X34.058 Y44.014 E9.01373
G1 F2158.3 X32.086 Y44.515 E9.12661
G1 F1833 X31.867 Y44.6 E9.14195
G1 F1651.4 X31.703 Y44.593 E9.15386
G1 F1636.4 X31.404 Y44.598 E9.17574
G1 F1878.9 X30.829 Y44.506 E9.21285
G1 F2250 X30.435 Y44.416 E9.23435
G1 X29.698 Y44.079 E9.27748
G1 X29.483 Y43.943 E9.29102
G1 X28.834 Y43.23 E9.34233
G1 X27.999 Y42.261 E9.4104
G1 X27.358 Y41.561 E9.46091
G1 X27.204 Y41.198 E9.48189
G1 X27.15 Y39.78 E9.55741
G1 X27.034 Y38.259 E9.63858
G1 X27.119 Y37.854 E9.66061
G1 X27.695 Y36.553 E9.73632
G1 X28.053 Y35.42 E9.79955
G1 X28.173 Y35.169 E9.81436
G1 X28.341 Y34.975 E9.82802
G1 X29.021 Y34.381 E9.87607
G1 X30.268 Y33.569 E9.95526
G1 X31.161 Y33.049 E10.01025
G1 X31.687 Y32.604 E10.04691
G1 F1919 X32.618 Y31.902 E10.11967
G1 F1875 X32.282 Y31.898 E10.14112
G1 F2189.8 X31.868 Y31.95 E10.16394
G1 F2250 X31.591 Y31.953 E10.17868
G1 X29.158 Y31.392 E10.31155
G1 X28.927 Y31.307 E10.32465
G1 X28.669 Y31.116 E10.34174
G1 X27.428 Y29.844 E10.43631
G1 X26.308 Y28.768 E10.51896
G1 X26.133 Y28.543 E10.53413
G1 X26.022 Y28.257 E10.55045
G1 X25.799 Y27.213 E10.60726
G1 X25.665 Y25.231 E10.71298
G1 X25.92 Y23.957 E10.78212
G1 X26.052 Y23.623 E10.80123
G1 X26.473 Y22.95 E10.84348
G1 X26.696 Y22.681 E10.86207
G1 X27.327 Y22.336 E10.90034
G1 X27.929 Y22.046 E10.9359
G1 X28.457 Y21.757 E10.96793
G1 X29.075 Y21.462 E11.00438
G1 X29.726 Y21.195 E11.04182
G1 X30.668 Y20.849 E11.09522
G1 X31.357 Y20.569 E11.1348
G1 X31.47 Y20.542 E11.14099
G1 X31.597 Y20.419 E11.15039
G1 X31.975 Y20.226 E11.17298
G1 X34.732 Y19.786 E11.32155
G1 X34.958 Y19.805 E11.33362
G1 X35.253 Y19.906 E11.35022
G1 X35.503 Y20.093 E11.36683
G1 X35.772 Y20.439 E11.39015
G1 X35.901 Y20.864 E11.41379
G1 X35.802 Y21.395 E11.44253
G1 X35.28 Y22.456 E11.50546
G1 X35.406 Y22.424 E11.51238
G1 X37.701 Y22.476 E11.63454
G1 X37.97 Y22.545 E11.64932
G1 X38.182 Y22.66 E11.66215
G1 X38.373 Y22.84 E11.67612
G1 X38.516 Y23.076 E11.69081
G1 X38.685 Y23.49 E11.7146
G1 X38.665 Y23.856 E11.73411
G1 X38.595 Y24.079 E11.74655
G1 X38.429 Y24.334 E11.76274
G1 X37.844 Y24.989 E11.80947
G1 X39.21 Y25.769 E11.89318
G1 X39.478 Y26.055 E11.91404
G1 X39.564 Y26.224 E11.92413
G1 X39.63 Y26.505 E11.93949
G1 X39.633 Y26.899 E11.96046
G1 X39.561 Y27.157 E11.97471
G1 X39.383 Y27.448 E11.99287
G1 X39.181 Y27.629 E12.0073
G1 X38.491 Y27.996 E12.04889
G1 F2100 E11.54889
G0 F11250 X40.553 Y26.803
G0 X39.271 Y24.729
G0 X38.251 Y21.656
G0 X36.692 Y21.518
G0 X34.795 Y18.871
G0 X25.275 Y23.129
G0 X24.745 Y24.985
G0 X24.593 Y18.169
G0 X26.594 Y14.243
G0 X30.52 Y12.242
G0 X46.093 Y12.264
G0 X41.385 Y15.998
G0 X40.173 Y20
G0 X43.971 Y25.78
G0 X45.426 Y25.579
G0 X46.58 Y26.457
G0 X48.766 Y25.773
G0 X50.092 Y25.879
G0 X55.3 Y24.799
G0 X55.728 Y23.826
G0 X57.437 Y24.393
G0 X57.858 Y25.08
G0 X60.613 Y24.872
G0 X61.788 Y26.35
G0 X65.486 Y25.691
G0 X68.219 Y24.765
G0 X71.394 Y21.74
G0 X69.906 Y14.641
G0 X66.42 Y12.399
G0 X67.31 Y12.22
G0 X82.528 Y11.654
G0 X84.582 Y12.164
G0 X86.069 Y12.75
G0 X90.854 Y17.599
G0 X91.423 Y16.019
G0 X92.691 Y14.347
G0 X94.171 Y12.797
G0 X95.976 Y12.098
G0 X98.067 Y11.645
G0 X99.631 Y12.111
G0 X101.128 Y12.739
G0 X103.741 Y15.591
G1 F2100 E12.04889
G1 F2250 X104.09 Y16.697 E12.11061
G1 X104.39 Y17.732 E12.16796
G1 X104.68 Y18.655 E12.21944
G1 X105.014 Y19.81 E12.28342
G1 X105.018 Y20.077 E12.29763
G1 X104.684 Y23.507 E12.48103
G1 X104.209 Y24.484 E12.53884
G1 X103.926 Y25.016 E12.57091
G1 X103.973 Y26.516 E12.65077
G1 X103.907 Y26.856 E12.6692
G1 X103.83 Y27.014 E12.67856
G1 X103.626 Y27.265 E12.69577
G1 X103.296 Y27.444 E12.71575
G1 X103.026 Y27.495 E12.73037
G1 X102.236 Y27.494 E12.77241
G1 X101.606 Y27.458 E12.80599
G1 X101.333 Y27.408 E12.82076
G1 X101.137 Y27.711 E12.83997
G1 X99.993 Y28.527 E12.91475
G1 X99.647 Y28.621 E12.93383
G1 X99.178 Y28.564 E12.95897
G1 X99.008 Y28.485 E12.96894
G1 X97.68 Y27.52 E13.0563
G1 X97.395 Y28.067 E13.08913
G1 X97.159 Y28.363 E13.10927
G1 X96.977 Y28.487 E13.12099
G1 X96.621 Y28.597 E13.14082
G1 X96.022 Y28.613 E13.17271
G1 X95.753 Y28.582 E13.18712
G1 X95.081 Y28.404 E13.22411
G1 X94.649 Y27.979 E13.25636
G1 X94.181 Y27.142 E13.30739
G1 X93.971 Y26.584 E13.33912
G1 X93.887 Y26.762 E13.3496
G1 X93.687 Y27.06 E13.3687
G1 X93.343 Y27.262 E13.38992
G1 X93.075 Y27.326 E13.40459
G1 X92.538 Y27.375 E13.43328
G1 X91.784 Y27.271 E13.47379
G1 X91.396 Y27.132 E13.49572
G1 X91.128 Y26.89 E13.51494
G1 X91.014 Y26.716 E13.52601
G1 X90.685 Y25.79 E13.5783
G1 X90.482 Y24.968 E13.62336
G1 X90.465 Y24.632 E13.64126
G1 X90.544 Y24.343 E13.65721
G1 X90.618 Y24.206 E13.66549
G1 X90.817 Y24.121 E13.67701
G1 F2233.3 X90.355 Y22.591 E13.7627
G1 F2255.6 X90.292 Y21.267 E13.83306
G1 F2337.7 X90.295 Y20.702 E13.862
G1 F2078.5 X90.231 Y19.225 E13.94717
G1 F2027 X90.714 Y17.516 E14.05207
G1 F2250 X91.285 Y15.932 E14.14168
G1 X92.531 Y14.291 E14.25132
G1 X93.924 Y12.82 E14.35913
G1 X94.287 Y12.578 E14.38235
G1 X95.86 Y11.97 E14.4721
G1 F2093 X96.859 Y11.69 E14.53145
G1 F1833 X97.859 Y11.41 E14.59928
G1 F1584.5 X97.795 Y11.388 E14.6044
G1 F1604.3 X96.868 Y11.336 E14.67369
G1 F1986.8 X95.94 Y11.283 E14.72971
G1 F2250 X84.652 Y11.289 E15.33042
G1 F2036.2 X84.028 Y11.332 E15.3672
G1 F1707.8 X83.403 Y11.375 E15.41112
G1 F1473 X82.779 Y11.418 E15.46197
G1 X83.416 Y11.623 E15.51636
G1 F1707.8 X84.053 Y11.828 E15.56328
G1 F2036.2 X84.69 Y12.034 E15.60265
G1 F2250 X85.94 Y12.524 E15.6741
G1 X86.326 Y12.796 E15.69923
G1 X87.227 Y13.825 E15.77201
G1 X88.734 Y15.759 E15.90249
G1 X89.477 Y17.881 E16.02213
G1 F2233.3 X89.648 Y18.912 E16.07817
G1 F2013.4 X89.747 Y19.265 E16.09997
G1 F1956.5 X89.918 Y20.657 E16.1858
G1 F2189.8 X89.903 Y21.19 E16.21495
G1 F2117.6 X89.889 Y22.464 E16.28699
G1 F2093 X89.757 Y22.855 E16.3106
G1 F2250 X89.599 Y23.385 E16.34003
G1 X89.475 Y23.897 E16.36807
G1 X89.251 Y24.659 E16.41033
G1 X89.181 Y24.953 E16.42642
G1 X89.277 Y25.378 E16.4496
G1 X89.263 Y25.635 E16.4633
G1 X89.171 Y26.256 E16.49671
G1 X89.06 Y26.625 E16.51721
G1 X88.458 Y27.299 E16.5653
G1 X88.125 Y27.519 E16.58654
G1 X87.448 Y27.736 E16.62438
G1 X87.032 Y27.694 E16.64663
G1 X86.783 Y27.586 E16.66107
G1 X86.251 Y27.261 E16.69425
G1 X86.073 Y27.766 E16.72274
G1 X85.849 Y28.091 E16.74375
G1 X85.195 Y28.499 E16.78477
G1 X84.825 Y28.614 E16.80539
G1 X84.166 Y28.569 E16.84054
G1 X83.874 Y28.505 E16.85645
G1 X83.596 Y28.343 E16.87357
G1 X83.004 Y27.788 E16.91675
G1 X82.796 Y27.523 E16.93468
G1 X82.463 Y28.102 E16.97022
G1 X82.301 Y28.314 E16.98442
G1 X82.073 Y28.483 E16.99953
G1 X81.879 Y28.564 E17.01071
G1 X81.615 Y28.604 E17.02492
G1 F2238.8 X80.548 Y28.622 E17.082
G1 F2216.7 X80.209 Y28.512 E17.10125
G1 F2227.7 X79.829 Y28.174 E17.12858
G1 F2250 X79.174 Y26.723 E17.2133
G1 X79.189 Y26.61 E17.21937
G1 X78.828 Y26.544 E17.2389
G1 X78.486 Y26.81 E17.26195
G1 X77.585 Y27.286 E17.31618
G1 X77.217 Y27.397 E17.33664
G1 X76.975 Y27.392 E17.34952
G1 F2255.6 X76.756 Y27.335 E17.36153
G1 X76.342 Y27.035 E17.38867
G1 F2250 X76.196 Y26.793 E17.40371
G1 X75.837 Y25.945 E17.45272
G1 X75.542 Y24.943 E17.5083
G1 X75.565 Y24.527 E17.53047
G1 X75.844 Y24.091 E17.55802
G1 X75.485 Y23.347 E17.60198
G1 X75.31 Y21.781 E17.68584
G1 X75.251 Y19.582 E17.8029
G1 X75.937 Y17.344 E17.92747
G1 X76.613 Y15.483 E18.03283
G1 X76.771 Y15.267 E18.04708
G1 X77.863 Y14.06 E18.13369
G1 X79.329 Y12.561 E18.24527
G1 X79.652 Y12.34 E18.2661
G1 X80.81 Y11.846 E18.3331
G1 F1960.8 X81.561 Y11.628 E18.38085
G1 F1557.1 X82.313 Y11.409 E18.44108
G1 X81.638 Y11.351 E18.49318
G1 F1960.8 X80.963 Y11.292 E18.53455
G1 F2250 X30.299 Y11.32 E21.2307
G1 X25.909 Y13.558 E21.49293
G1 X23.671 Y17.947 E21.7551
G1 X23.67 Y177.462 E30.24389
G1 X23.557 Y177.823 E30.26402
G1 X23.45 Y177.887 E30.27065
G1 X23.451 Y208.899 E31.921
G1 X236.55 Y208.9 E43.26132
G1 X236.55 Y177.122 E44.95242
G1 X236.438 Y177.053 E44.95942
G1 X236.366 Y176.868 E44.96999
G1 X236.33 Y176.6 E44.98438
G1 X236.33 Y17.947 E53.42729
G1 X235.211 Y15.751 E53.55845
G1 X234.513 Y13.936 E53.66193
G1 X233.123 Y12.81 E53.75713
G1 X230.946 Y11.701 E53.88715
G1 X229.096 Y11.207 E53.98905
G1 X99.728 Y11.281 E60.87352
G1 F1919 X99.043 Y11.35 E60.91648
