;FLAVOR:Marlin
;TIME:804
;Filament used: 0.481795m
;Layer height: 0.2
;MINX:27
;MINY:27
;MINZ:0.2
;MAXX:233
;MAXY:233
;MAXZ:0.2
;POSTPROCESSED
;Generated with Cura_SteamEngine 5.2.1
;
;

M82 ;absolute extrusion mode
START_PRINT EXTRUDER_TEMP=220.0 BED_TEMP=60 RELATIVE_E_MODE=False PROBE=false PROBE_AREA_START=%MINX%,%MINY% PROBE_AREA_END=%MAXX%,%MAXY%
G92 E0
G92 E0
G1 F1500 E-6.5
;LAYER_COUNT:1
;LAYER:0
M107
G0 F6000 X30.198 Y30.264 Z0.2
;TYPE:SKIRT
G1 F1500 E0
G1 F1200 X30.886 Y29.627 E0.03119
G1 X31.626 Y29.051 E0.06237
G1 X32.412 Y28.539 E0.09357
G1 X33.239 Y28.097 E0.12476
G1 X34.101 Y27.727 E0.15596
G1 X34.991 Y27.431 E0.18716
G1 X35.903 Y27.213 E0.21835
G1 X36.83 Y27.072 E0.24953
G1 X37.701 Y27.013 E0.27857
G1 X38.33 Y27 E0.29949
G1 X57.293 Y27 E0.93021
G1 X58.152 Y27.011 E0.95878
G1 X59.089 Y27.064 E0.98999
G1 X60.017 Y27.197 E1.02117
G1 X61.214 Y27.491 E1.06217
G1 X62.175 Y27.785 E1.09559
G1 X62.946 Y28.032 E1.12252
G1 X65.344 Y28.729 E1.20558
G1 X67.787 Y29.366 E1.28955
G1 X70.257 Y29.935 E1.37386
G1 X72.719 Y30.43 E1.45738
G1 X75.214 Y30.858 E1.54158
G1 X77.687 Y31.211 E1.62466
G1 X80.183 Y31.495 E1.70822
G1 X82.687 Y31.708 E1.7918
G1 X85.22 Y31.853 E1.87619
G1 X87.705 Y31.924 E1.95887
G1 X90.229 Y31.924 E2.04282
G1 X92.754 Y31.853 E2.12684
G1 X95.27 Y31.712 E2.21065
G1 X97.8 Y31.497 E2.2951
G1 X100.257 Y31.219 E2.37734
G1 X102.803 Y30.857 E2.46287
G1 X105.254 Y30.438 E2.54558
G1 X107.701 Y29.949 E2.62857
G1 X110.175 Y29.38 E2.71301
G1 X112.573 Y28.756 E2.79542
G1 X115.081 Y28.028 E2.88228
G1 X116.699 Y27.518 E2.93871
G1 X117.604 Y27.275 E2.96987
G1 X118.527 Y27.109 E3.00106
G1 X119.667 Y27.015 E3.03911
G1 X120.33 Y27 E3.06117
G1 X139.449 Y27.001 E3.69707
G1 X140.153 Y27.011 E3.72048
G1 X141.09 Y27.064 E3.7517
G1 X142.018 Y27.197 E3.78288
G1 X143.215 Y27.491 E3.82388
G1 X144.176 Y27.785 E3.8573
G1 X144.947 Y28.032 E3.88423
G1 X147.337 Y28.727 E3.96701
G1 X149.797 Y29.368 E4.05157
G1 X152.263 Y29.937 E4.13574
G1 X154.712 Y30.429 E4.21882
G1 X157.214 Y30.858 E4.30325
G1 X159.687 Y31.211 E4.38634
G1 X162.183 Y31.495 E4.46989
G1 X164.687 Y31.708 E4.55348
G1 X167.22 Y31.853 E4.63786
G1 X169.705 Y31.924 E4.72055
G1 X172.229 Y31.924 E4.8045
G1 X174.754 Y31.853 E4.88851
G1 X177.27 Y31.712 E4.97232
G1 X179.8 Y31.497 E5.05678
G1 X182.257 Y31.219 E5.13902
G1 X184.803 Y30.857 E5.22455
G1 X187.254 Y30.438 E5.30725
G1 X189.701 Y29.949 E5.39025
G1 X192.175 Y29.38 E5.47468
G1 X194.573 Y28.756 E5.5571
G1 X197.081 Y28.028 E5.64396
G1 X198.699 Y27.518 E5.70038
G1 X199.604 Y27.275 E5.73155
G1 X200.527 Y27.109 E5.76274
G1 X201.667 Y27.015 E5.80078
G1 X202.33 Y27 E5.82284
G1 X221.435 Y27.001 E6.45828
G1 X222.133 Y27.01 E6.48149
G1 X223.069 Y27.062 E6.51267
G1 X223.998 Y27.194 E6.54388
G1 X224.912 Y27.404 E6.57507
G1 X225.805 Y27.691 E6.60627
G1 X226.67 Y28.054 E6.63747
G1 X227.501 Y28.488 E6.66865
G1 X228.292 Y28.992 E6.69985
G1 X229.037 Y29.562 E6.73105
G1 X229.731 Y30.193 E6.76225
G1 X230.368 Y30.88 E6.79341
G1 X230.945 Y31.62 E6.82462
G1 X231.457 Y32.406 E6.85582
G1 X231.9 Y33.233 E6.88702
G1 X232.271 Y34.094 E6.9182
G1 X232.567 Y34.984 E6.9494
G1 X232.786 Y35.896 E6.98059
G1 X232.927 Y36.823 E7.01178
G1 X232.987 Y37.701 E7.04105
G1 X233 Y38.33 E7.06198
G1 X232.999 Y57.441 E7.69761
G1 X232.988 Y58.167 E7.72176
G1 X232.934 Y59.103 E7.75294
G1 X232.8 Y60.031 E7.78413
G1 X232.508 Y61.217 E7.82475
G1 X232.168 Y62.325 E7.8633
G1 X231.968 Y62.947 E7.88503
G1 X231.273 Y65.337 E7.96782
G1 X230.632 Y67.797 E8.05237
G1 X230.065 Y70.257 E8.13633
G1 X229.57 Y72.719 E8.21986
G1 X229.142 Y75.214 E8.30406
G1 X228.789 Y77.687 E8.38714
G1 X228.505 Y80.183 E8.4707
G1 X228.292 Y82.687 E8.55428
G1 X228.147 Y85.22 E8.63867
G1 X228.076 Y87.705 E8.72135
G1 X228.076 Y90.229 E8.8053
G1 X228.147 Y92.753 E8.88928
G1 X228.288 Y95.271 E8.97316
G1 X228.503 Y97.8 E9.05758
G1 X228.781 Y100.257 E9.13982
G1 X229.143 Y102.803 E9.22535
G1 X229.562 Y105.254 E9.30806
G1 X230.051 Y107.701 E9.39105
G1 X230.62 Y110.175 E9.47549
G1 X231.244 Y112.573 E9.5579
G1 X231.973 Y115.082 E9.6448
G1 X232.48 Y116.69 E9.70088
G1 X232.724 Y117.596 E9.73209
G1 X232.89 Y118.519 E9.76328
G1 X232.985 Y119.667 E9.80159
G1 X233 Y120.33 E9.82365
G1 X232.999 Y139.441 E10.45928
G1 X232.988 Y140.167 E10.48343
G1 X232.934 Y141.103 E10.51462
G1 X232.8 Y142.031 E10.5458
G1 X232.508 Y143.217 E10.58643
G1 X232.168 Y144.325 E10.62497
G1 X231.968 Y144.947 E10.6467
G1 X231.273 Y147.337 E10.72949
G1 X230.632 Y149.797 E10.81404
G1 X230.065 Y152.257 E10.89801
G1 X229.57 Y154.719 E10.98153
G1 X229.142 Y157.214 E11.06573
G1 X228.789 Y159.687 E11.14881
G1 X228.505 Y162.183 E11.23237
G1 X228.292 Y164.687 E11.31595
G1 X228.147 Y167.22 E11.40034
G1 X228.076 Y169.705 E11.48302
G1 X228.076 Y172.229 E11.56697
G1 X228.147 Y174.753 E11.65095
G1 X228.288 Y177.271 E11.73483
G1 X228.503 Y179.8 E11.81925
G1 X228.781 Y182.257 E11.90149
G1 X229.143 Y184.803 E11.98702
G1 X229.562 Y187.254 E12.06973
G1 X230.051 Y189.701 E12.15272
G1 X230.62 Y192.175 E12.23716
G1 X231.244 Y194.573 E12.31957
G1 X231.973 Y197.082 E12.40647
G1 X232.48 Y198.69 E12.46255
G1 X232.724 Y199.596 E12.49376
G1 X232.89 Y200.519 E12.52495
G1 X232.985 Y201.667 E12.56326
G1 X233 Y202.33 E12.58532
G1 X232.999 Y221.4 E13.21959
G1 X232.99 Y222.127 E13.24377
G1 X232.939 Y223.064 E13.27498
G1 X232.807 Y223.992 E13.30616
G1 X232.598 Y224.906 E13.33734
G1 X232.311 Y225.799 E13.36854
G1 X231.949 Y226.665 E13.39976
G1 X231.515 Y227.496 E13.43094
G1 X231.011 Y228.287 E13.46214
G1 X230.442 Y229.032 E13.49332
G1 X229.811 Y229.727 E13.52454
G1 X229.124 Y230.365 E13.55572
G1 X228.385 Y230.942 E13.58691
G1 X227.599 Y231.454 E13.6181
G1 X226.773 Y231.897 E13.64928
G1 X225.911 Y232.269 E13.68051
G1 X225.022 Y232.565 E13.71167
G1 X224.11 Y232.785 E13.74287
G1 X223.183 Y232.926 E13.77406
G1 X222.299 Y232.987 E13.80353
G1 X221.67 Y233 E13.82446
G1 X202.551 Y232.999 E14.46036
G1 X201.848 Y232.989 E14.48374
G1 X200.911 Y232.936 E14.51496
G1 X199.983 Y232.803 E14.54614
G1 X198.786 Y232.509 E14.58713
G1 X197.825 Y232.215 E14.62056
G1 X197.054 Y231.968 E14.64749
G1 X194.656 Y231.271 E14.73054
G1 X192.213 Y230.634 E14.81452
G1 X189.743 Y230.065 E14.89882
G1 X187.281 Y229.57 E14.98234
G1 X184.786 Y229.142 E15.06654
G1 X182.313 Y228.789 E15.14963
G1 X179.817 Y228.505 E15.23318
G1 X177.313 Y228.292 E15.31676
G1 X174.78 Y228.147 E15.40115
G1 X172.295 Y228.076 E15.48383
G1 X169.771 Y228.076 E15.56778
G1 X167.246 Y228.147 E15.6518
G1 X164.73 Y228.288 E15.73561
G1 X162.2 Y228.503 E15.82006
G1 X159.743 Y228.781 E15.90231
G1 X157.197 Y229.143 E15.98784
G1 X154.746 Y229.562 E16.07054
G1 X152.299 Y230.051 E16.15354
G1 X149.825 Y230.62 E16.23797
G1 X147.427 Y231.244 E16.32038
G1 X144.919 Y231.972 E16.40724
G1 X143.301 Y232.482 E16.46367
G1 X142.396 Y232.725 E16.49484
G1 X141.473 Y232.891 E16.52603
G1 X140.333 Y232.985 E16.56407
G1 X139.67 Y233 E16.58613
G1 X120.551 Y232.999 E17.22203
G1 X119.848 Y232.989 E17.24541
G1 X118.911 Y232.936 E17.27663
G1 X117.983 Y232.803 E17.30781
G1 X116.786 Y232.509 E17.34881
G1 X115.825 Y232.215 E17.38223
G1 X115.054 Y231.968 E17.40916
G1 X112.656 Y231.271 E17.49222
G1 X110.213 Y230.634 E17.57619
G1 X107.743 Y230.065 E17.66049
G1 X105.281 Y229.57 E17.74402
G1 X102.786 Y229.142 E17.82821
G1 X100.313 Y228.789 E17.9113
G1 X97.817 Y228.505 E17.99485
G1 X95.313 Y228.292 E18.07844
G1 X92.78 Y228.147 E18.16282
G1 X90.295 Y228.076 E18.24551
G1 X87.771 Y228.076 E18.32946
G1 X85.246 Y228.147 E18.41347
G1 X82.73 Y228.288 E18.49729
G1 X80.2 Y228.503 E18.58174
G1 X77.743 Y228.781 E18.66398
G1 X75.197 Y229.143 E18.74951
G1 X72.746 Y229.562 E18.83221
G1 X70.299 Y230.051 E18.91521
G1 X67.825 Y230.62 E18.99964
G1 X65.427 Y231.244 E19.08206
G1 X62.919 Y231.972 E19.16892
G1 X61.301 Y232.482 E19.22534
G1 X60.396 Y232.725 E19.25651
G1 X59.473 Y232.891 E19.2877
G1 X58.333 Y232.985 E19.32575
G1 X57.67 Y233 E19.3478
G1 X38.565 Y232.999 E19.98324
G1 X37.867 Y232.99 E20.00646
G1 X36.931 Y232.938 E20.03763
G1 X36.002 Y232.806 E20.06884
G1 X35.088 Y232.596 E20.10004
G1 X34.195 Y232.309 E20.13123
G1 X33.33 Y231.946 E20.16243
G1 X32.499 Y231.512 E20.19362
G1 X31.708 Y231.008 E20.22481
G1 X30.963 Y230.438 E20.25601
G1 X30.269 Y229.807 E20.28721
G1 X29.632 Y229.12 E20.31837
G1 X29.055 Y228.38 E20.34958
G1 X28.543 Y227.594 E20.38078
G1 X28.1 Y226.767 E20.41198
G1 X27.729 Y225.906 E20.44316
G1 X27.433 Y225.016 E20.47436
G1 X27.214 Y224.104 E20.50556
G1 X27.073 Y223.177 E20.53674
G1 X27.013 Y222.288 E20.56638
G1 X27 Y221.658 E20.58734
G1 X27 Y202.707 E21.21765
G1 X27.014 Y201.812 E21.24742
G1 X27.069 Y200.876 E21.27861
G1 X27.205 Y199.948 E21.3098
G1 X27.493 Y198.782 E21.34975
G1 X27.832 Y197.676 E21.38822
G1 X28.032 Y197.054 E21.40995
G1 X28.729 Y194.656 E21.49301
G1 X29.366 Y192.213 E21.57698
G1 X29.935 Y189.743 E21.66129
G1 X30.43 Y187.281 E21.74481
G1 X30.858 Y184.786 E21.82901
G1 X31.211 Y182.313 E21.91209
G1 X31.495 Y179.817 E21.99565
G1 X31.708 Y177.313 E22.07923
G1 X31.853 Y174.78 E22.16362
G1 X31.924 Y172.295 E22.2463
G1 X31.924 Y169.771 E22.33025
G1 X31.853 Y167.247 E22.41423
G1 X31.711 Y164.725 E22.49825
G1 X31.498 Y162.202 E22.58246
G1 X31.219 Y159.739 E22.66491
G1 X30.859 Y157.207 E22.74997
G1 X30.437 Y154.741 E22.83318
G1 X29.949 Y152.299 E22.91601
G1 X29.38 Y149.825 E23.00044
G1 X28.756 Y147.427 E23.08285
G1 X28.031 Y144.931 E23.1693
G1 X27.519 Y143.307 E23.22594
G1 X27.276 Y142.401 E23.25714
G1 X27.11 Y141.478 E23.28833
G1 X27.015 Y140.333 E23.32654
G1 X27 Y139.67 E23.3486
G1 X27 Y120.707 E23.97931
G1 X27.014 Y119.812 E24.00908
G1 X27.069 Y118.876 E24.04027
G1 X27.205 Y117.948 E24.07146
G1 X27.493 Y116.782 E24.11141
G1 X27.832 Y115.676 E24.14988
G1 X28.032 Y115.054 E24.17162
G1 X28.729 Y112.656 E24.25467
G1 X29.366 Y110.213 E24.33865
G1 X29.935 Y107.743 E24.42295
G1 X30.43 Y105.281 E24.50647
G1 X30.858 Y102.786 E24.59067
G1 X31.211 Y100.313 E24.67376
G1 X31.495 Y97.817 E24.75731
G1 X31.708 Y95.313 E24.84089
G1 X31.853 Y92.78 E24.92528
G1 X31.924 Y90.295 E25.00796
G1 X31.924 Y87.771 E25.09191
G1 X31.853 Y85.247 E25.1759
G1 X31.711 Y82.725 E25.25991
G1 X31.498 Y80.202 E25.34412
G1 X31.219 Y77.739 E25.42657
G1 X30.859 Y75.207 E25.51163
G1 X30.437 Y72.741 E25.59484
G1 X29.949 Y70.299 E25.67767
G1 X29.38 Y67.825 E25.7621
G1 X28.756 Y65.427 E25.84452
G1 X28.031 Y62.931 E25.93096
G1 X27.519 Y61.307 E25.9876
G1 X27.276 Y60.401 E26.0188
G1 X27.11 Y59.478 E26.04999
G1 X27.015 Y58.333 E26.0882
G1 X27 Y57.67 E26.11026
G1 X27.001 Y38.525 E26.74703
G1 X27.01 Y37.86 E26.76915
G1 X27.063 Y36.924 E26.80033
G1 X27.195 Y35.995 E26.83154
G1 X27.406 Y35.081 E26.86274
G1 X27.694 Y34.189 E26.89391
G1 X28.057 Y33.324 E26.92511
G1 X28.492 Y32.493 E26.95631
G1 X28.996 Y31.703 E26.98748
G1 X29.566 Y30.958 E27.01868
G1 X30.198 Y30.264 E27.0499
G0 F6000 X30.589 Y30.439
G1 F1200 X31.274 Y29.823 E27.08054
G1 X32.01 Y29.27 E27.11116
G1 X32.791 Y28.782 E27.14179
G1 X33.611 Y28.364 E27.1724
G1 X34.465 Y28.019 E27.20303
G1 X35.345 Y27.749 E27.23365
G1 X36.245 Y27.557 E27.26426
G1 X37.159 Y27.443 E27.29489
G1 X37.712 Y27.413 E27.31331
G1 X38.33 Y27.4 E27.33387
G1 X57.293 Y27.4 E27.96458
G1 X58.147 Y27.411 E27.99299
G1 X59.066 Y27.464 E28.02361
G1 X59.977 Y27.597 E28.05423
G1 X61.097 Y27.874 E28.0926
G1 X62.058 Y28.168 E28.12603
G1 X62.807 Y28.408 E28.15219
G1 X65.246 Y29.117 E28.23666
G1 X67.702 Y29.757 E28.32108
G1 X70.16 Y30.323 E28.40497
G1 X72.672 Y30.828 E28.49019
G1 X75.132 Y31.25 E28.57321
G1 X77.617 Y31.605 E28.6567
G1 X80.137 Y31.892 E28.74106
G1 X82.67 Y32.108 E28.82561
G1 X85.185 Y32.251 E28.90939
G1 X87.729 Y32.324 E28.99404
G1 X90.24 Y32.324 E29.07756
G1 X92.787 Y32.253 E29.16231
G1 X95.292 Y32.112 E29.24575
G1 X97.808 Y31.898 E29.32974
G1 X100.321 Y31.614 E29.41385
G1 X102.855 Y31.254 E29.49898
G1 X105.328 Y30.831 E29.58243
G1 X107.763 Y30.344 E29.66502
G1 X110.292 Y29.763 E29.75133
G1 X112.723 Y29.13 E29.83488
G1 X115.174 Y28.418 E29.91977
G1 X116.819 Y27.9 E29.97713
G1 X117.708 Y27.661 E30.00775
G1 X118.615 Y27.501 E30.03838
G1 X119.679 Y27.415 E30.07388
G1 X120.33 Y27.4 E30.09554
G1 X139.444 Y27.401 E30.73128
G1 X140.148 Y27.411 E30.75469
G1 X141.067 Y27.464 E30.78531
G1 X141.978 Y27.597 E30.81593
G1 X143.098 Y27.874 E30.85431
G1 X144.059 Y28.168 E30.88773
G1 X144.808 Y28.408 E30.91389
G1 X147.239 Y29.115 E30.9981
G1 X149.704 Y29.757 E31.08282
G1 X152.174 Y30.326 E31.16712
G1 X154.665 Y30.827 E31.25163
G1 X157.132 Y31.25 E31.33488
G1 X159.617 Y31.605 E31.41837
G1 X162.137 Y31.892 E31.50273
G1 X164.67 Y32.108 E31.58728
G1 X167.185 Y32.251 E31.67107
G1 X169.729 Y32.324 E31.75572
G1 X172.24 Y32.324 E31.83923
G1 X174.787 Y32.253 E31.92398
G1 X177.292 Y32.112 E32.00743
G1 X179.808 Y31.898 E32.09141
G1 X182.321 Y31.614 E32.17553
G1 X184.855 Y31.254 E32.26066
G1 X187.328 Y30.831 E32.3441
G1 X189.763 Y30.344 E32.42669
G1 X192.292 Y29.763 E32.513
G1 X194.723 Y29.13 E32.59655
G1 X197.174 Y28.418 E32.68144
G1 X198.819 Y27.9 E32.7388
G1 X199.708 Y27.661 E32.76942
G1 X200.615 Y27.501 E32.80005
G1 X201.679 Y27.415 E32.83556
G1 X202.33 Y27.4 E32.85722
G1 X221.43 Y27.401 E33.49249
G1 X222.128 Y27.41 E33.5157
G1 X223.047 Y27.462 E33.54632
G1 X223.958 Y27.593 E33.57693
G1 X224.854 Y27.803 E33.60754
G1 X225.729 Y28.09 E33.63817
G1 X226.576 Y28.452 E33.6688
G1 X227.388 Y28.886 E33.69943
G1 X228.159 Y29.388 E33.73003
G1 X228.884 Y29.956 E33.76066
G1 X229.557 Y30.585 E33.7913
G1 X230.172 Y31.269 E33.82189
G1 X230.726 Y32.004 E33.8525
G1 X231.214 Y32.785 E33.88313
G1 X231.633 Y33.605 E33.91376
G1 X231.979 Y34.458 E33.94438
G1 X232.249 Y35.338 E33.97499
G1 X232.442 Y36.239 E34.00564
G1 X232.556 Y37.152 E34.03624
G1 X232.587 Y37.712 E34.0549
G1 X232.6 Y38.33 E34.07546
G1 X232.599 Y57.435 E34.71089
G1 X232.588 Y58.161 E34.73504
G1 X232.534 Y59.08 E34.76566
G1 X232.4 Y59.991 E34.79628
G1 X232.126 Y61.1 E34.83428
G1 X231.833 Y62.058 E34.8676
G1 X231.592 Y62.808 E34.8938
G1 X230.885 Y65.239 E34.97801
G1 X230.241 Y67.711 E35.06297
G1 X229.677 Y70.16 E35.14656
G1 X229.172 Y72.672 E35.23178
G1 X228.75 Y75.132 E35.31479
G1 X228.395 Y77.617 E35.39828
G1 X228.108 Y80.137 E35.48264
G1 X227.892 Y82.67 E35.56719
G1 X227.749 Y85.185 E35.65098
G1 X227.676 Y87.729 E35.73563
G1 X227.676 Y90.24 E35.81914
G1 X227.747 Y92.788 E35.90392
G1 X227.888 Y95.292 E35.98734
G1 X228.102 Y97.808 E36.07132
G1 X228.386 Y100.321 E36.15544
G1 X228.746 Y102.855 E36.24056
G1 X229.169 Y105.328 E36.32401
G1 X229.656 Y107.763 E36.4066
G1 X230.237 Y110.292 E36.49291
G1 X230.87 Y112.723 E36.57646
G1 X231.574 Y115.148 E36.66045
G1 X232.099 Y116.811 E36.71845
G1 X232.337 Y117.7 E36.74906
G1 X232.498 Y118.607 E36.7797
G1 X232.585 Y119.679 E36.81547
G1 X232.6 Y120.33 E36.83713
G1 X232.599 Y139.435 E37.47256
G1 X232.588 Y140.161 E37.49671
G1 X232.534 Y141.08 E37.52733
G1 X232.4 Y141.991 E37.55796
G1 X232.126 Y143.1 E37.59595
G1 X231.833 Y144.058 E37.62927
G1 X231.592 Y144.808 E37.65547
G1 X230.885 Y147.239 E37.73968
G1 X230.241 Y149.711 E37.82464
G1 X229.677 Y152.16 E37.90823
G1 X229.172 Y154.672 E37.99345
G1 X228.75 Y157.132 E38.07646
G1 X228.395 Y159.617 E38.15996
G1 X228.108 Y162.137 E38.24431
G1 X227.892 Y164.67 E38.32887
G1 X227.749 Y167.185 E38.41265
G1 X227.676 Y169.729 E38.4973
G1 X227.676 Y172.24 E38.58082
G1 X227.747 Y174.788 E38.6656
G1 X227.888 Y177.292 E38.74901
G1 X228.102 Y179.808 E38.833
G1 X228.386 Y182.321 E38.91711
G1 X228.746 Y184.855 E39.00224
G1 X229.169 Y187.328 E39.08568
G1 X229.656 Y189.763 E39.16828
G1 X230.237 Y192.292 E39.25458
G1 X230.87 Y194.723 E39.33813
G1 X231.574 Y197.148 E39.42212
G1 X232.099 Y198.811 E39.48012
G1 X232.337 Y199.7 E39.51073
G1 X232.498 Y200.607 E39.54137
G1 X232.585 Y201.679 E39.57714
G1 X232.6 Y202.33 E39.5988
G1 X232.599 Y221.395 E40.23291
G1 X232.59 Y222.122 E40.25709
G1 X232.539 Y223.041 E40.2877
G1 X232.408 Y223.953 E40.31834
G1 X232.198 Y224.849 E40.34895
G1 X231.912 Y225.724 E40.37957
G1 X231.551 Y226.571 E40.41019
G1 X231.117 Y227.383 E40.44082
G1 X230.615 Y228.155 E40.47145
G1 X230.047 Y228.88 E40.50208
G1 X229.419 Y229.553 E40.53269
G1 X228.735 Y230.169 E40.56331
G1 X228 Y230.723 E40.59392
G1 X227.22 Y231.212 E40.62454
G1 X226.4 Y231.631 E40.65517
G1 X225.547 Y231.977 E40.68579
