;FLAVOR:Marlin
;TIME:4412
;Filament used: 3.03396m
;Layer height: 0.2
;MINX:90.984
;MINY:72.745
;MINZ:0.32
;MAXX:169.047
;MAXY:143.855
;MAXZ:43.72
;POSTPROCESSED
;Generated with Cura_SteamEngine 5.3.1
;
;

M82 ;absolute extrusion mode
START_PRINT EXTRUDER_TEMP=250.0 BED_TEMP=100 RELATIVE_E_MODE=False PROBE=false PROBE_AREA_START=%MINX%,%MINY% PROBE_AREA_END=%MAXX%,%MAXY%
G92 E0
G92 E0
G1 F1500 E-6.5
;LAYER_COUNT:218
;LAYER:0
M107
G0 F6000 X92.836 Y104.19 Z0.32
;TYPE:SKIRT
G1 F1500 E0
G1 F900 X92.587 Y104.412 E0.0213
G1 X92.322 Y104.742 E0.04833
G1 X92.124 Y105.116 E0.07535
G1 X92 Y105.52 E0.10234
G1 X91.954 Y105.94 E0.12932
G1 X91.944 Y106.642 E0.17416
G1 X91.944 Y133.551 E1.89255
G1 X91.954 Y133.945 E1.91772
G1 X92.014 Y134.405 E1.94734
G1 X92.151 Y134.805 E1.97434
G1 X92.36 Y135.172 E2.00131
G1 X92.635 Y135.494 E2.02836
G1 X92.965 Y135.758 E2.05534
G1 X93.339 Y135.955 E2.08234
G1 X93.744 Y136.078 E2.10937
G1 X94.164 Y136.124 E2.13635
G1 X94.862 Y136.133 E2.18093
G1 X118.154 Y136.133 E3.66834
G1 X118.551 Y136.122 E3.6937
G1 X119.17 Y136.015 E3.73382
G1 X119.744 Y135.83 E3.77233
G1 X122.474 Y134.992 E3.95469
G1 X125.172 Y134.25 E4.13338
G1 X127.867 Y133.587 E4.31062
G1 X130.554 Y133.011 E4.48611
G1 X133.249 Y132.51 E4.66116
G1 X136.002 Y132.077 E4.83912
G1 X138.746 Y131.726 E5.01578
G1 X141.504 Y131.453 E5.19276
G1 X144.234 Y131.259 E5.36754
G1 X147.005 Y131.142 E5.54465
G1 X149.809 Y131.102 E5.72373
G1 X160.447 Y131.102 E6.40307
G1 X161.091 Y131.085 E6.44421
G1 X161.451 Y131.065 E6.46723
G1 X162.036 Y131.001 E6.50482
G1 X162.367 Y130.937 E6.52634
G1 X163.058 Y130.749 E6.57208
G1 X163.608 Y130.542 E6.6096
G1 X164.189 Y130.278 E6.65036
G1 X164.786 Y129.931 E6.69445
G1 X165.289 Y129.573 E6.73388
G1 X165.754 Y129.181 E6.77272
G1 X165.971 Y128.971 E6.792
G1 X166.428 Y128.466 E6.83549
G1 X166.813 Y127.955 E6.87635
G1 X167.116 Y127.466 E6.91309
G1 X167.38 Y126.984 E6.94818
G1 X167.518 Y126.675 E6.96979
G1 X167.763 Y125.988 E7.01637
G1 X167.92 Y125.389 E7.05592
G1 X168.035 Y124.709 E7.09996
G1 X168.077 Y124.083 E7.14002
G1 X168.087 Y123.406 E7.18326
G1 X168.087 Y120.821 E7.34834
G1 X168.074 Y119.938 E7.40473
G1 X168.008 Y119.271 E7.44753
G1 X167.88 Y118.633 E7.48909
G1 X167.765 Y118.204 E7.51745
G1 X167.605 Y117.729 E7.54946
G1 X167.446 Y117.334 E7.57665
G1 X167.071 Y116.63 E7.62759
G1 X166.757 Y116.141 E7.6647
G1 X166.361 Y115.631 E7.70593
G1 X165.922 Y115.158 E7.74714
G1 X165.522 Y114.799 E7.78146
G1 X165.151 Y114.501 E7.81185
G1 X164.579 Y114.102 E7.85639
G1 X163.393 Y113.326 E7.9469
G1 X161.116 Y111.756 E8.12352
G1 X158.902 Y110.135 E8.29875
G1 X156.698 Y108.424 E8.47693
G1 X154.565 Y106.668 E8.65336
G1 X152.502 Y104.872 E8.82803
G1 X150.454 Y102.983 E9.00596
G1 X148.45 Y101.026 E9.18483
G1 X146.545 Y99.057 E9.35979
G1 X144.703 Y97.043 E9.53408
G1 X142.854 Y94.904 E9.71463
G1 X141.127 Y92.785 E9.8892
G1 X139.452 Y90.609 E10.06456
G1 X137.799 Y88.331 E10.2443
G1 X136.271 Y86.095 E10.41724
G1 X134.746 Y83.721 E10.59743
G1 X133.332 Y81.377 E10.77224
G1 X131.972 Y78.97 E10.94879
G1 X131.155 Y77.465 E11.05815
G1 X130.955 Y77.133 E11.0829
G1 X130.665 Y76.704 E11.11597
G1 X130.399 Y76.346 E11.14445
G1 X130.173 Y76.086 E11.16645
G1 X129.65 Y75.571 E11.21332
G1 X129.179 Y75.18 E11.25241
G1 X128.683 Y74.842 E11.29074
G1 X128.097 Y74.502 E11.334
G1 X127.457 Y74.218 E11.37872
G1 X126.97 Y74.042 E11.41179
G1 X126.243 Y73.855 E11.45972
G1 X125.711 Y73.765 E11.49418
G1 X125.457 Y73.737 E11.5105
G1 X125.007 Y73.715 E11.53927
G1 X124.123 Y73.705 E11.59572
G1 X123.403 Y73.708 E11.6417
G1 X122.891 Y73.733 E11.67444
G1 X122.451 Y73.785 E11.70273
G1 X122.048 Y73.848 E11.72878
G1 X121.295 Y74.05 E11.77857
G1 X120.658 Y74.288 E11.82199
G1 X120.117 Y74.543 E11.86018
G1 X119.51 Y74.901 E11.90519
G1 X119.004 Y75.27 E11.94518
G1 X118.681 Y75.541 E11.9721
G1 X118.21 Y75.987 E12.01353
G1 X117.978 Y76.247 E12.03578
G1 X117.544 Y76.819 E12.08163
G1 X115.675 Y79.768 E12.30459
G1 X114.131 Y82.053 E12.4807
G1 X112.534 Y84.279 E12.65565
G1 X110.827 Y86.522 E12.83565
G1 X109.099 Y88.662 E13.0113
G1 X107.314 Y90.749 E13.18667
G1 X105.448 Y92.811 E13.36426
G1 X103.519 Y94.826 E13.5424
G1 X101.594 Y96.724 E13.71503
G1 X99.553 Y98.626 E13.89319
G1 X97.454 Y100.476 E14.07186
G1 X95.356 Y102.221 E14.24612
G1 X93.172 Y103.934 E14.42337
G1 X92.836 Y104.19 E14.45035
G0 F6000 X92.545 Y103.808
G1 F900 X92.881 Y103.552 E14.47732
G1 X95.06 Y101.843 E14.65417
G1 X97.147 Y100.107 E14.82752
G1 X99.236 Y98.266 E15.00534
G1 X101.257 Y96.382 E15.18178
G1 X103.182 Y94.484 E15.35441
G1 X105.101 Y92.479 E15.53164
G1 X106.958 Y90.427 E15.70838
G1 X108.734 Y88.35 E15.88289
G1 X110.445 Y86.231 E16.05681
G1 X112.152 Y83.988 E16.23681
G1 X113.733 Y81.784 E16.41003
G1 X115.277 Y79.499 E16.58613
G1 X117.139 Y76.562 E16.8082
G1 X117.62 Y75.927 E16.85908
G1 X117.88 Y75.638 E16.8839
G1 X118.372 Y75.173 E16.92713
G1 X118.695 Y74.902 E16.95406
G1 X119.227 Y74.513 E16.99614
G1 X119.912 Y74.109 E17.04693
G1 X120.49 Y73.838 E17.08769
G1 X121.171 Y73.586 E17.13406
G1 X121.924 Y73.384 E17.18385
G1 X122.395 Y73.308 E17.21432
G1 X122.835 Y73.256 E17.24261
G1 X123.401 Y73.228 E17.2788
G1 X124.128 Y73.225 E17.32523
G1 X125.03 Y73.236 E17.38283
G1 X125.51 Y73.26 E17.41352
G1 X125.791 Y73.292 E17.43158
G1 X126.363 Y73.39 E17.46864
G1 X127.09 Y73.577 E17.51658
G1 X127.652 Y73.779 E17.55472
G1 X128.292 Y74.063 E17.59943
G1 X128.953 Y74.445 E17.64818
G1 X129.486 Y74.811 E17.68947
G1 X129.987 Y75.229 E17.73114
G1 X130.51 Y75.744 E17.77801
G1 X130.761 Y76.031 E17.80236
G1 X131.063 Y76.435 E17.83457
G1 X131.366 Y76.885 E17.86921
G1 X131.577 Y77.236 E17.89537
G1 X132.39 Y78.734 E18.00421
G1 X133.743 Y81.129 E18.17987
G1 X135.15 Y83.462 E18.35385
G1 X136.667 Y85.824 E18.53312
G1 X138.187 Y88.049 E18.7052
G1 X139.832 Y90.316 E18.88406
G1 X141.499 Y92.482 E19.0586
G1 X143.217 Y94.59 E19.23226
G1 X145.057 Y96.719 E19.41196
G1 X146.89 Y98.723 E19.58539
G1 X148.795 Y100.692 E19.76035
G1 X150.779 Y102.63 E19.93746
G1 X152.817 Y104.51 E20.11452
G1 X154.87 Y106.297 E20.28834
G1 X157.003 Y108.053 E20.46477
G1 X159.186 Y109.748 E20.64126
G1 X161.4 Y111.369 E20.81649
G1 X163.656 Y112.924 E20.99147
G1 X164.854 Y113.708 E21.0829
G1 X165.426 Y114.107 E21.12743
G1 X165.843 Y114.442 E21.16159
G1 X166.274 Y114.831 E21.19867
G1 X166.713 Y115.304 E21.23988
G1 X167.161 Y115.882 E21.28658
G1 X167.495 Y116.404 E21.32615
G1 X167.87 Y117.108 E21.37709
G1 X168.06 Y117.576 E21.40935
G1 X168.229 Y118.08 E21.44329
G1 X168.351 Y118.539 E21.47362
G1 X168.486 Y119.224 E21.51821
G1 X168.552 Y119.891 E21.56101
G1 X168.567 Y120.814 E21.61996
G1 X168.567 Y123.413 E21.78593
G1 X168.556 Y124.115 E21.83076
G1 X168.514 Y124.741 E21.87083
G1 X168.384 Y125.511 E21.9207
G1 X168.215 Y126.149 E21.96284
G1 X167.956 Y126.871 E22.01183
G1 X167.801 Y127.215 E22.03592
G1 X167.524 Y127.719 E22.07265
G1 X167.221 Y128.208 E22.10938
G1 X166.784 Y128.788 E22.15576
G1 X166.305 Y129.316 E22.20128
G1 X166.088 Y129.526 E22.22057
G1 X165.567 Y129.964 E22.26403
G1 X165.027 Y130.346 E22.30628
G1 X164.388 Y130.715 E22.3534
G1 X163.807 Y130.979 E22.39415
G1 X163.184 Y131.212 E22.43663
G1 X162.458 Y131.408 E22.48465
G1 X162.088 Y131.478 E22.50869
G1 X161.478 Y131.544 E22.54788
G1 X161.104 Y131.565 E22.5718
G1 X160.46 Y131.582 E22.61294
G1 X149.816 Y131.582 E23.29266
G1 X147.025 Y131.622 E23.47091
G1 X144.254 Y131.739 E23.64802
G1 X141.548 Y131.931 E23.82126
G1 X138.793 Y132.204 E23.99805
G1 X136.07 Y132.552 E24.17336
G1 X133.337 Y132.982 E24.35003
G1 X130.642 Y133.483 E24.52508
G1 X127.982 Y134.053 E24.6988
G1 X125.299 Y134.713 E24.87525
G1 X122.61 Y135.452 E25.05333
G1 X119.252 Y136.488 E25.27774
G1 X118.633 Y136.595 E25.31786
G1 X118.167 Y136.613 E25.34764
G1 X94.856 Y136.613 E26.83627
G1 X94.158 Y136.604 E26.88084
G1 X93.649 Y136.551 E26.91353
G1 X93.152 Y136.399 E26.94671
G1 X92.702 Y136.162 E26.97919
G1 X92.3 Y135.841 E27.01204
G1 X91.965 Y135.449 E27.04497
G1 X91.712 Y135.004 E27.07766
G1 X91.544 Y134.514 E27.11074
G1 X91.474 Y133.957 E27.14659
G1 X91.464 Y133.563 E27.17176
G1 X91.464 Y106.635 E28.89137
G1 X91.474 Y105.933 E28.9362
G1 X91.528 Y105.422 E28.96902
G1 X91.678 Y104.932 E29.00174
G1 X91.92 Y104.476 E29.03471
G1 X92.236 Y104.083 E29.06691
G1 X92.545 Y103.808 E29.09333
G0 F6000 X91.888 Y103.75
G1 F900 X92.254 Y103.426 E29.12454
G1 X92.59 Y103.17 E29.15152
G1 X94.764 Y101.465 E29.32795
G1 X96.84 Y99.738 E29.5004
G1 X98.919 Y97.906 E29.67735
G1 X100.92 Y96.04 E29.85207
G1 X102.845 Y94.142 E30.02471
G1 X104.754 Y92.147 E30.20104
G1 X106.602 Y90.105 E30.37691
G1 X108.369 Y88.038 E30.55057
G1 X110.063 Y85.94 E30.72276
G1 X111.77 Y83.697 E30.90276
G1 X113.335 Y81.515 E31.07424
G1 X114.879 Y79.23 E31.25035
G1 X116.756 Y76.272 E31.47406
G1 X117.237 Y75.637 E31.52493
G1 X117.55 Y75.289 E31.55482
G1 X118.063 Y74.805 E31.59986
G1 X118.386 Y74.534 E31.62679
G1 X118.983 Y74.1 E31.67392
G1 X119.708 Y73.674 E31.72762
G1 X120.286 Y73.403 E31.76839
G1 X121.047 Y73.122 E31.82019
G1 X121.8 Y72.92 E31.86998
G1 X122.339 Y72.831 E31.90486
G1 X122.779 Y72.779 E31.93316
G1 X123.399 Y72.748 E31.9728
G1 X124.134 Y72.745 E32.01974
G1 X125.054 Y72.757 E32.07849
G1 X125.564 Y72.783 E32.1111
G1 X125.872 Y72.819 E32.13091
G1 X126.483 Y72.925 E32.17051
G1 X127.21 Y73.112 E32.21844
G1 X127.847 Y73.34 E32.26165
G1 X128.532 Y73.647 E32.30959
G1 X129.225 Y74.049 E32.36075
G1 X129.794 Y74.442 E32.40491
G1 X130.295 Y74.86 E32.44657
G1 X130.847 Y75.402 E32.49598
G1 X131.122 Y75.715 E32.52258
G1 X131.461 Y76.167 E32.55866
G1 X131.777 Y76.638 E32.59488
G1 X131.999 Y77.007 E32.62238
G1 X132.808 Y78.498 E32.73071
G1 X134.154 Y80.881 E32.90549
G1 X135.554 Y83.203 E33.07863
G1 X137.063 Y85.553 E33.25698
G1 X138.575 Y87.767 E33.42819
G1 X140.212 Y90.023 E33.60619
G1 X141.871 Y92.179 E33.77991
G1 X143.58 Y94.276 E33.95266
G1 X145.411 Y96.395 E34.1315
G1 X147.235 Y98.389 E34.30408
G1 X149.14 Y100.358 E34.47903
G1 X151.104 Y102.277 E34.65438
G1 X153.132 Y104.148 E34.83059
G1 X155.175 Y105.926 E35.00354
G1 X157.308 Y107.682 E35.17997
G1 X159.47 Y109.361 E35.35478
G1 X161.684 Y110.982 E35.53001
G1 X163.919 Y112.522 E35.70334
G1 X165.129 Y113.314 E35.79569
G1 X165.701 Y113.713 E35.84022
G1 X166.165 Y114.086 E35.87824
G1 X166.626 Y114.504 E35.91798
G1 X167.065 Y114.977 E35.95919
G1 X167.565 Y115.623 E36.01136
G1 X167.919 Y116.178 E36.05339
G1 X168.294 Y116.882 E36.10433
G1 X168.505 Y117.395 E36.13975
G1 X168.693 Y117.957 E36.1776
G1 X168.822 Y118.446 E36.20989
G1 X168.964 Y119.177 E36.25745
G1 X169.03 Y119.844 E36.30025
G1 X169.047 Y120.806 E36.36169
G1 X169.047 Y123.421 E36.52868
G1 X169.035 Y124.147 E36.57505
G1 X168.993 Y124.773 E36.61512
G1 X168.848 Y125.634 E36.67088
G1 X168.667 Y126.311 E36.71563
G1 X168.394 Y127.068 E36.76702
G1 X168.222 Y127.446 E36.79354
G1 X167.932 Y127.972 E36.83189
G1 X167.629 Y128.461 E36.86863
G1 X167.14 Y129.111 E36.92057
G1 X166.661 Y129.639 E36.9661
G1 X166.422 Y129.871 E36.98737
G1 X165.844 Y130.356 E37.03555
G1 X165.267 Y130.762 E37.08061
G1 X164.587 Y131.152 E37.13067
G1 X163.975 Y131.429 E37.17357
G1 X163.352 Y131.662 E37.21604
G1 X162.547 Y131.88 E37.2693
G1 X162.177 Y131.95 E37.29335
G1 X161.505 Y132.023 E37.33651
G1 X161.117 Y132.045 E37.36133
G1 X160.473 Y132.062 E37.40247
G1 X149.823 Y132.062 E38.08257
G1 X147.045 Y132.102 E38.25999
G1 X144.274 Y132.219 E38.43711
G1 X141.592 Y132.409 E38.60881
G1 X138.84 Y132.682 E38.78541
G1 X136.138 Y133.027 E38.95936
G1 X133.425 Y133.454 E39.13474
G1 X130.73 Y133.955 E39.30979
G1 X128.097 Y134.519 E39.48175
G1 X125.426 Y135.176 E39.6574
G1 X122.752 Y135.911 E39.83449
G1 X119.394 Y136.947 E40.05891
G1 X118.652 Y137.075 E40.10699
G1 X118.186 Y137.093 E40.13677
G1 X94.85 Y137.093 E41.627
G1 X94.152 Y137.084 E41.67157
G1 X93.552 Y137.023 E41.71009
G1 X92.966 Y136.844 E41.74922
G1 X92.439 Y136.566 E41.78727
G1 X91.965 Y136.188 E41.82598
G1 X91.572 Y135.728 E41.86462
G1 X91.272 Y135.2 E41.9034
G1 X91.074 Y134.624 E41.94229
G1 X90.994 Y133.969 E41.98443
G1 X90.984 Y133.575 E42.0096
G1 X90.984 Y106.628 E43.73042
G1 X90.994 Y105.926 E43.77526
G1 X91.056 Y105.324 E43.8139
G1 X91.232 Y104.748 E43.85236
G1 X91.518 Y104.21 E43.89127
G1 X91.888 Y103.75 E43.92897
G1 F1500 E37.42897
;MESH:5015_fan_duct_v2.3.1.stl
G0 F6000 X93.519 Y106.381
G0 X94.598 Y106.381
G0 X119.589 Y106.438
;TYPE:WALL-INNER
G1 F1500 E43.92897
G1 F900 X119.183 Y106.951 E43.97075
G1 X118.666 Y107.167 E44.00653
G1 X95.385 Y107.168 E45.49324
G1 X95.384 Y132.693 E47.12326
G1 X117.284 Y132.693 E48.52178
G1 X117.284 Y128.73 E48.77485
G1 X117.369 Y128.417 E48.79557
G1 X117.554 Y128.102 E48.81889
G1 X117.723 Y127.933 E48.83416
G1 X118.029 Y127.733 E48.8575
G1 X118.435 Y127.662 E48.88382
G1 X160.816 Y127.662 E51.59025
G1 X161.175 Y127.645 E51.6132
G1 X161.607 Y127.589 E51.64102
G1 X161.99 Y127.486 E51.66635
G1 X162.299 Y127.374 E51.68733
G1 X162.61 Y127.229 E51.70925
G1 X162.888 Y127.069 E51.72973
G1 X163.174 Y126.868 E51.75205
G1 X163.479 Y126.612 E51.77748
G1 X163.763 Y126.302 E51.80433
G1 X163.959 Y126.046 E51.82492
G1 X164.142 Y125.759 E51.84666
G1 X164.335 Y125.388 E51.87336
G1 X164.474 Y125.003 E51.8995
G1 X164.562 Y124.675 E51.92119
G1 X164.619 Y124.356 E51.94188
G1 X164.647 Y124.041 E51.96208
G1 X164.647 Y120.136 E52.21145
G1 X164.619 Y119.821 E52.23164
G1 X164.56 Y119.496 E52.25274
G1 X164.474 Y119.174 E52.27402
G1 X164.335 Y118.789 E52.30016
G1 X164.141 Y118.416 E52.32701
G1 X163.963 Y118.137 E52.34814
G1 X163.757 Y117.87 E52.36968
G1 X163.537 Y117.629 E52.39052
G1 X163.291 Y117.403 E52.41185
G1 X162.97 Y117.158 E52.43764
G1 X162.59 Y116.938 E52.46568
G1 X162.309 Y116.806 E52.4855
G1 X161.993 Y116.692 E52.50695
G1 X161.67 Y116.606 E52.5283
G1 X161.346 Y116.548 E52.54932
G1 X161.025 Y116.52 E52.5699
G1 X158.659 Y116.519 E52.72099
G1 X158.247 Y116.572 E52.74751
G1 X157.958 Y116.635 E52.7664
G1 X157.556 Y116.756 E52.79321
G1 X157.13 Y116.948 E52.82305
G1 X156.77 Y117.168 E52.84999
G1 X156.529 Y117.345 E52.86909
G1 X156.274 Y117.566 E52.89064
G1 X155.512 Y118.32 E52.95909
G1 X154.824 Y118.943 E53.01837
G1 X154.12 Y119.526 E53.07674
G1 X153.42 Y120.058 E53.13288
G1 X152.636 Y120.603 E53.19386
G1 X151.852 Y121.097 E53.25303
G1 X151.066 Y121.546 E53.31084
G1 X150.287 Y121.949 E53.36685
G1 X149.422 Y122.349 E53.42771
G1 X148.617 Y122.682 E53.48334
G1 X147.714 Y123.008 E53.54465
G1 X146.828 Y123.286 E53.60395
G1 X145.99 Y123.508 E53.65931
G1 X145.051 Y123.717 E53.72074
G1 X144.196 Y123.867 E53.77617
G1 X143.249 Y123.992 E53.83717
G1 X142.329 Y124.073 E53.89615
G1 X141.458 Y124.111 E53.95182
G1 X140.504 Y124.114 E54.01275
G1 X139.632 Y124.078 E54.06848
G1 X138.711 Y124.001 E54.1275
G1 X137.763 Y123.878 E54.18854
G1 X136.902 Y123.73 E54.24433
G1 X135.973 Y123.526 E54.30507
G1 X135.079 Y123.291 E54.3641
G1 X134.26 Y123.037 E54.41886
G1 X133.348 Y122.71 E54.48073
G1 X132.485 Y122.357 E54.54027
G1 X131.702 Y121.996 E54.59533
G1 X130.851 Y121.56 E54.6564
G1 X130.1 Y121.136 E54.71147
G1 X129.268 Y120.613 E54.77423
G1 X128.556 Y120.122 E54.82946
G1 X127.839 Y119.582 E54.88678
G1 X127.079 Y118.955 E54.9497
G1 X126.438 Y118.377 E55.00481
G1 X125.757 Y117.708 E55.06578
G1 X125.125 Y117.031 E55.12492
G1 X124.568 Y116.383 E55.17949
G1 X123.979 Y115.631 E55.24049
G1 X123.441 Y114.877 E55.29964
G1 X122.932 Y114.097 E55.35911
G1 X122.473 Y113.32 E55.41674
G1 X122.059 Y112.548 E55.47268
G1 X121.66 Y111.721 E55.53132
G1 X121.276 Y110.823 E55.59369
G1 X121.034 Y110.16 E55.63876
G1 X120.669 Y109.106 E55.70999
G1 X120.423 Y108.236 E55.76773
G1 X120.212 Y107.336 E55.82676
G1 X120.039 Y106.433 E55.88547
G1 F692.3 X119.831 Y106.003 E55.92513
G1 X119.609 Y106.387 E55.96195
G1 F900 X119.589 Y106.438 E55.96545
G0 F6000 X118.911 Y106.549
G1 F900 X118.595 Y106.687 E55.98747
G1 X94.905 Y106.688 E57.5003
G1 X94.904 Y133.173 E59.19162
G1 X117.764 Y133.173 E60.65144
G1 X117.764 Y128.788 E60.93147
G1 X117.842 Y128.534 E60.94844
G1 X118.027 Y128.304 E60.96728
G1 X118.184 Y128.206 E60.9791
G1 X118.423 Y128.144 E60.99487
G1 X160.827 Y128.142 E63.70277
G1 X161.217 Y128.124 E63.7277
G1 X161.701 Y128.061 E63.75887
G1 X162.135 Y127.944 E63.78757
G1 X162.483 Y127.818 E63.81121
