;FLAVOR:Marlin
;TIME:3048
;Filament used: 2.64991m
;Layer height: 0.32
;MINX:99.92
;MINY:85.2
;MINZ:0.32
;MAXX:160.066
;MAXY:132.75
;MAXZ:30.08
;POSTPROCESSED
;Generated with Cura_SteamEngine 5.3.1
;
;

M82 ;absolute extrusion mode
START_PRINT EXTRUDER_TEMP=250.0 BED_TEMP=90 RELATIVE_E_MODE=False PROBE=alse PROBE_AREA_START=%MINX%,%MINY% PROBE_AREA_END=%MAXX%,%MAXY%
G92 E0
G92 E0
G1 F1500 E-6.5
;LAYER_COUNT:94
;LAYER:0
M107
G0 F6000 X104.864 Y94.316 Z0.32
;TYPE:SKIRT
G1 F1500 E0
G1 F900 X106.029 Y93.03 E0.11543
G1 X108.572 Y91.322 E0.3192
G1 X108.686 Y90.972 E0.34369
G1 X109.606 Y89.485 E0.46001
G1 X110.58 Y88.376 E0.55819
G1 X113.369 Y86.346 E0.78765
G1 X114.734 Y85.656 E0.8894
G1 X116.619 Y85.2 E1.0184
G1 X120.313 Y85.2 E1.26413
G1 X121.988 Y85.605 E1.37876
G1 X123.334 Y86.174 E1.47597
G1 X124.112 Y86.74 E1.53997
G1 X125.385 Y86.76 E1.62466
G1 X127.021 Y87.17 E1.73685
G1 X128.346 Y87.746 E1.83296
G1 X130.932 Y89.625 E2.0456
G1 X132.018 Y90.892 E2.1566
G1 X132.814 Y92.228 E2.26005
G1 X133.785 Y95.214 E2.46892
G1 X133.91 Y96.76 E2.57209
G1 X134.348 Y97.071 E2.60783
G1 X136.205 Y98.689 E2.77167
G1 X137.301 Y99.844 E2.87758
G1 X138.271 Y101.099 E2.9831
G1 X138.271 Y94.227 E3.44022
G1 X138.611 Y92.731 E3.54228
G1 X138.991 Y91.622 E3.62026
G1 X139.9 Y90.282 E3.72797
G1 X140.775 Y89.246 E3.81817
G1 X142.189 Y88.248 E3.9333
G1 X143.674 Y87.53 E4.04302
G1 X145.275 Y87.25 E4.15114
G1 X153.089 Y87.25 E4.67093
G1 X154.585 Y87.59 E4.77298
G1 X155.694 Y87.97 E4.85096
G1 X157.034 Y88.879 E4.95867
G1 X158.07 Y89.754 E5.04888
G1 X159.068 Y91.168 E5.16401
G1 X159.786 Y92.653 E5.27373
G1 X160.066 Y94.254 E5.38185
G1 X160.066 Y125.758 E7.4775
G1 X159.669 Y127.601 E7.60291
G1 X159.202 Y128.56 E7.67387
G1 X158.459 Y129.745 E7.76691
G1 X157.464 Y130.85 E7.86582
G1 X155.822 Y131.91 E7.99583
G1 X154.712 Y132.462 E8.07829
G1 X153.068 Y132.75 E8.18932
G1 X145.248 Y132.75 E8.7095
G1 X143.752 Y132.41 E8.81156
G1 X142.643 Y132.03 E8.88954
G1 X141.303 Y131.121 E8.99725
G1 X140.267 Y130.246 E9.08745
G1 X139.269 Y128.832 E9.20258
G1 X138.551 Y127.347 E9.31231
G1 X138.271 Y125.746 E9.42042
G1 X138.271 Y120.206 E9.78894
G1 X137.866 Y120.427 E9.81963
G1 X136.876 Y120.845 E9.89112
G1 X135.219 Y121.109 E10.00273
G1 X122.658 Y121.109 E10.83829
G1 X120.797 Y120.705 E10.96497
G1 X120.161 Y120.396 E11.01201
G1 X119.267 Y120.829 E11.07808
G1 X117.667 Y121.109 E11.18613
G1 X106.911 Y121.109 E11.90163
G1 X105.413 Y120.768 E12.00382
G1 X104.359 Y120.408 E12.07791
G1 X102.592 Y119.277 E12.21747
G1 X101.221 Y117.744 E12.35428
G1 X100.479 Y116.202 E12.46811
G1 X100.091 Y115.102 E12.5457
G1 X99.92 Y113.405 E12.65916
G1 X100.089 Y110.89 E12.82683
G1 X100.331 Y109.385 E12.92823
G1 X100.988 Y106.898 E13.09934
G1 X101.453 Y105.65 E13.18794
G1 X102.597 Y103.309 E13.36126
G1 X103.331 Y102.129 E13.4537
G1 X103.148 Y101.568 E13.49295
G1 X103.012 Y99.877 E13.6058
G1 X103.135 Y98.335 E13.7087
G1 X103.982 Y95.727 E13.89111
G1 X104.864 Y94.316 E14.0018
G0 F6000 X105.263 Y94.621
G1 F900 X106.36 Y93.41 E14.11049
G1 X108.995 Y91.641 E14.32161
G1 X109.144 Y91.182 E14.35371
G1 X110.008 Y89.786 E14.46292
G1 X110.921 Y88.746 E14.55497
G1 X113.629 Y86.775 E14.77777
G1 X114.907 Y86.129 E14.87303
G1 X116.679 Y85.7 E14.99431
G1 X120.253 Y85.7 E15.23205
G1 X121.828 Y86.081 E15.33984
G1 X123.09 Y86.614 E15.43097
G1 X123.947 Y87.237 E15.50145
G1 X125.32 Y87.259 E15.5928
G1 X126.857 Y87.644 E15.6982
G1 X128.099 Y88.184 E15.78829
G1 X130.587 Y89.992 E15.99287
G1 X131.611 Y91.186 E16.09751
G1 X132.355 Y92.435 E16.19421
G1 X133.292 Y95.317 E16.3958
G1 X133.414 Y96.827 E16.49657
G1 X133.408 Y97.017 E16.50922
G1 X134.058 Y97.479 E16.56227
G1 X135.842 Y99.033 E16.71965
G1 X136.938 Y100.188 E16.82557
G1 X138.555 Y102.286 E17.00177
G1 X138.771 Y102.634 E17.02901
G1 X138.771 Y94.285 E17.58439
G1 X139.099 Y92.842 E17.68283
G1 X139.443 Y91.846 E17.75292
G1 X140.282 Y90.605 E17.85257
G1 X141.116 Y89.618 E17.93852
G1 X142.445 Y88.68 E18.04673
G1 X143.831 Y88.01 E18.14914
G1 X145.315 Y87.75 E18.24936
G1 X153.031 Y87.75 E18.76263
G1 X154.474 Y88.078 E18.86106
G1 X155.47 Y88.422 E18.93116
G1 X156.711 Y89.261 E19.03081
G1 X157.698 Y90.095 E19.11676
G1 X158.636 Y91.424 E19.22497
G1 X159.306 Y92.81 E19.32737
G1 X159.566 Y94.294 E19.42759
G1 X159.566 Y125.704 E21.51699
G1 X159.193 Y127.435 E21.63478
G1 X158.752 Y128.341 E21.70181
G1 X158.062 Y129.438 E21.78802
G1 X157.136 Y130.466 E21.88005
G1 X155.599 Y131.462 E22.00189
G1 X154.551 Y131.983 E22.07974
G1 X153.028 Y132.25 E22.18259
G1 X145.306 Y132.25 E22.69626
G1 X143.863 Y131.922 E22.7947
G1 X142.867 Y131.578 E22.8648
G1 X141.626 Y130.739 E22.96444
G1 X140.639 Y129.905 E23.0504
G1 X139.701 Y128.576 E23.15861
G1 X139.031 Y127.19 E23.26101
G1 X138.771 Y125.706 E23.36123
G1 X138.771 Y119.36 E23.78337
G1 X137.671 Y119.966 E23.86691
G1 X136.736 Y120.361 E23.93443
G1 X135.178 Y120.609 E24.03937
G1 X122.713 Y120.609 E24.86855
G1 X120.962 Y120.229 E24.98774
G1 X120.162 Y119.84 E25.04691
G1 X119.113 Y120.348 E25.12444
G1 X117.621 Y120.609 E25.2252
G1 X106.969 Y120.609 E25.93377
G1 X105.524 Y120.28 E26.03235
G1 X104.575 Y119.953 E26.09912
G1 X102.92 Y118.894 E26.22982
G1 X101.642 Y117.465 E26.35735
G1 X100.93 Y115.985 E26.4666
G1 X100.582 Y114.99 E26.53672
G1 X100.422 Y113.4 E26.64302
G1 X100.583 Y110.969 E26.80509
G1 X100.825 Y109.464 E26.90648
G1 X101.457 Y107.073 E27.071
G1 X101.922 Y105.825 E27.15959
G1 X103.022 Y103.573 E27.32631
G1 X103.878 Y102.196 E27.43416
G1 X103.641 Y101.469 E27.48503
G1 X103.513 Y99.877 E27.59127
G1 X103.628 Y98.436 E27.68743
G1 X104.439 Y95.939 E27.86207
G1 X105.263 Y94.621 E27.96547
G0 F6000 X105.662 Y94.926
G1 F900 X106.691 Y93.79 E28.06743
G1 X109.418 Y91.96 E28.28589
G1 X109.602 Y91.392 E28.32561
G1 X110.41 Y90.087 E28.42771
G1 X111.262 Y89.116 E28.51364
G1 X113.889 Y87.204 E28.72977
G1 X115.08 Y86.602 E28.81854
G1 X116.739 Y86.2 E28.93209
G1 X120.194 Y86.2 E29.16192
G1 X121.667 Y86.556 E29.26273
G1 X122.846 Y87.054 E29.34786
G1 X123.782 Y87.735 E29.42486
G1 X125.255 Y87.758 E29.52286
G1 X126.693 Y88.118 E29.62147
G1 X127.852 Y88.622 E29.70554
G1 X130.245 Y90.361 E29.90231
G1 X131.205 Y91.481 E30.00044
G1 X131.897 Y92.642 E30.09035
G1 X132.799 Y95.416 E30.28439
G1 X132.916 Y96.867 E30.38122
G1 X132.891 Y97.264 E30.40768
G1 X133.768 Y97.887 E30.47924
G1 X135.479 Y99.377 E30.63016
G1 X136.575 Y100.532 E30.73608
G1 X138.13 Y102.55 E30.90555
G1 X138.851 Y103.71 E30.9964
G1 X139.271 Y104.567 E31.05989
G1 X139.271 Y94.343 E31.73999
G1 X139.587 Y92.953 E31.83481
G1 X139.893 Y92.073 E31.89679
G1 X140.664 Y90.928 E31.98861
G1 X141.459 Y89.987 E32.07056
G1 X142.698 Y89.112 E32.17146
G1 X143.986 Y88.49 E32.2666
G1 X145.355 Y88.25 E32.35906
G1 X152.973 Y88.25 E32.86581
G1 X154.363 Y88.566 E32.96063
G1 X155.243 Y88.872 E33.02261
G1 X156.388 Y89.643 E33.11443
G1 X157.329 Y90.438 E33.19638
G1 X158.204 Y91.677 E33.29728
G1 X158.826 Y92.965 E33.39242
G1 X159.066 Y94.334 E33.48488
G1 X159.066 Y125.65 E35.56802
G1 X158.717 Y127.269 E35.67819
G1 X158.302 Y128.122 E35.7413
G1 X157.663 Y129.133 E35.82085
G1 X156.806 Y130.085 E35.90606
G1 X155.376 Y131.014 E36.0195
G1 X154.393 Y131.503 E36.09253
G1 X152.982 Y131.75 E36.18782
G1 X145.364 Y131.75 E36.69457
G1 X143.974 Y131.434 E36.78939
G1 X143.094 Y131.128 E36.85137
G1 X141.949 Y130.357 E36.94319
G1 X141.008 Y129.562 E37.02514
G1 X140.133 Y128.323 E37.12603
G1 X139.511 Y127.035 E37.22118
G1 X139.271 Y125.666 E37.31364
G1 X139.271 Y118.301 E37.80356
G1 X138.781 Y118.783 E37.84928
G1 X137.477 Y119.505 E37.94843
G1 X136.598 Y119.876 E38.0119
G1 X135.137 Y120.109 E38.11031
G1 X122.768 Y120.109 E38.9331
G1 X121.127 Y119.753 E39.0448
G1 X120.43 Y119.418 E39.09624
G1 X120.191 Y119.271 E39.1149
G1 X118.956 Y119.868 E39.20615
G1 X117.581 Y120.109 E39.29901
G1 X107.027 Y120.109 E40.00107
G1 X105.635 Y119.792 E40.09603
G1 X104.796 Y119.501 E40.15511
G1 X103.247 Y118.509 E40.27746
G1 X102.063 Y117.186 E40.39557
G1 X101.381 Y115.768 E40.50024
G1 X101.074 Y114.884 E40.56248
G1 X100.924 Y113.389 E40.66243
G1 X101.077 Y111.048 E40.81849
G1 X101.319 Y109.543 E40.91989
G1 X101.926 Y107.248 E41.0778
G1 X102.391 Y106 E41.16639
G1 X103.471 Y103.793 E41.32984
G1 X104.425 Y102.262 E41.44984
G1 X104.134 Y101.37 E41.51225
G1 X104.014 Y99.877 E41.61188
G1 X104.121 Y98.537 E41.7013
G1 X104.896 Y96.151 E41.86818
G1 X105.662 Y94.926 E41.96429
G0 F6000 X106.061 Y95.231
G1 F900 X107.022 Y94.17 E42.05952
G1 X109.655 Y92.399 E42.2706
G1 X109.828 Y92.319 E42.28328
G1 X110.06 Y91.602 E42.33341
G1 X110.812 Y90.388 E42.4284
G1 X111.603 Y89.486 E42.5082
G1 X114.151 Y87.631 E42.71786
G1 X115.252 Y87.075 E42.79991
G1 X116.799 Y86.7 E42.90579
G1 X120.135 Y86.7 E43.1277
G1 X121.506 Y87.031 E43.22152
G1 X122.602 Y87.494 E43.30067
G1 X123.617 Y88.232 E43.38415
G1 X125.189 Y88.257 E43.48873
G1 X126.53 Y88.593 E43.58069
G1 X127.605 Y89.06 E43.65866
G1 X129.9 Y90.728 E43.84738
G1 X130.798 Y91.775 E43.93914
G1 X131.438 Y92.849 E44.0223
G1 X132.306 Y95.519 E44.20906
G1 X132.418 Y96.907 E44.30169
G1 X132.371 Y97.508 E44.34179
G1 X133.478 Y98.295 E44.43214
G1 X135.116 Y99.721 E44.57661
G1 X136.212 Y100.876 E44.68253
G1 X137.705 Y102.814 E44.84526
G1 X138.426 Y103.974 E44.93612
G1 X139.524 Y106.225 E45.10272
G1 X139.771 Y106.9 E45.15053
G1 X139.771 Y94.401 E45.98197
G1 X140.075 Y93.064 E46.07317
G1 X140.345 Y92.298 E46.1272
G1 X141.079 Y91.207 E46.21467
G1 X141.797 Y90.36 E46.28853
G1 X142.954 Y89.544 E46.38271
G1 X144.139 Y88.971 E46.47027
G1 X145.401 Y88.75 E46.5555
G1 X152.915 Y88.75 E47.05533
G1 X154.252 Y89.054 E47.14654
G1 X155.018 Y89.324 E47.20057
G1 X156.109 Y90.058 E47.28804
G1 X156.956 Y90.776 E47.3619
G1 X157.772 Y91.933 E47.45608
G1 X158.345 Y93.118 E47.54364
G1 X158.566 Y94.38 E47.62886
G1 X158.566 Y125.596 E49.70536
G1 X158.24 Y127.107 E49.80818
G1 X157.879 Y127.855 E49.86343
G1 X157.262 Y128.831 E49.94024
G1 X156.479 Y129.701 E50.0181
G1 X155.153 Y130.566 E50.12342
G1 X154.232 Y131.024 E50.19184
G1 X152.942 Y131.25 E50.27896
G1 X145.422 Y131.25 E50.77919
G1 X144.085 Y130.946 E50.8704
G1 X143.319 Y130.676 E50.92442
G1 X142.228 Y129.942 E51.01189
G1 X141.381 Y129.224 E51.08576
G1 X140.565 Y128.067 E51.17994
G1 X139.992 Y126.882 E51.26749
G1 X139.771 Y125.62 E51.35272
G1 X139.771 Y117.017 E51.92499
G1 X139.603 Y117.275 E51.94547
G1 X138.479 Y118.378 E52.05023
G1 X137.282 Y119.044 E52.14135
G1 X136.458 Y119.392 E52.20085
G1 X135.096 Y119.609 E52.29259
G1 X122.823 Y119.609 E53.109
G1 X121.291 Y119.277 E53.21327
G1 X120.647 Y118.967 E53.26081
G1 X120.186 Y118.676 E53.29708
G1 X119.954 Y118.832 E53.31568
G1 X118.801 Y119.388 E53.40083
G1 X117.541 Y119.609 E53.48592
G1 X107.085 Y119.609 E54.18146
G1 X105.746 Y119.304 E54.27281
G1 X105.015 Y119.047 E54.32435
G1 X103.574 Y118.124 E54.43819
G1 X102.484 Y116.907 E54.54686
G1 X101.832 Y115.551 E54.64695
G1 X101.565 Y114.774 E54.7016
G1 X101.425 Y113.383 E54.7946
G1 X101.571 Y111.127 E54.94499
G1 X101.803 Y109.67 E55.04313
G1 X102.395 Y107.423 E55.1977
G1 X102.86 Y106.175 E55.28629
G1 X103.92 Y104.013 E55.44646
G1 X104.714 Y102.739 E55.54632
G1 X104.988 Y102.378 E55.57647
G1 X104.627 Y101.271 E55.65392
G1 X104.515 Y99.877 E55.74695
G1 X104.614 Y98.638 E55.82963
G1 X105.353 Y96.363 E55.98875
G1 X106.061 Y95.231 E56.07757
G0 F6000 X106.462 Y95.533
G1 F900 X107.351 Y94.552 E56.16563
G1 X109.934 Y92.814 E56.37273
G1 X110.231 Y92.701 E56.39387
G1 X110.518 Y91.812 E56.45601
G1 X111.214 Y90.689 E56.54389
G1 X111.944 Y89.856 E56.61757
G1 X114.413 Y88.058 E56.82075
G1 X115.423 Y87.548 E56.89601
G1 X116.859 Y87.2 E56.9943
G1 X120.076 Y87.2 E57.20829
G1 X121.345 Y87.506 E57.29513
G1 X122.358 Y87.934 E57.36828
G1 X123.452 Y88.729 E57.45824
G1 X125.124 Y88.756 E57.56948
G1 X126.366 Y89.067 E57.65464
G1 X127.358 Y89.498 E57.72659
G1 X129.558 Y91.097 E57.90751
G1 X130.392 Y92.07 E57.99275
G1 X130.98 Y93.056 E58.06912
G1 X131.813 Y95.618 E58.24833
G1 X131.917 Y96.908 E58.33442
G1 X131.85 Y97.752 E58.39074
G1 X133.188 Y98.703 E58.49993
G1 X134.753 Y100.065 E58.63794
G1 X135.849 Y101.22 E58.74386
G1 X137.28 Y103.078 E58.89986
G1 X138.001 Y104.238 E58.99071
G1 X139.054 Y106.397 E59.1505
G1 X139.566 Y107.797 E59.24966
G1 X140.051 Y109.651 E59.37714
G1 X140.271 Y111.011 E59.46879
G1 X140.271 Y94.458 E60.5699
G1 X140.547 Y93.23 E60.65362
G1 X140.796 Y92.523 E60.70348
G1 X141.494 Y91.486 E60.78663
G1 X142.139 Y90.73 E60.85274
G1 X143.207 Y89.976 E60.9397
G1 X144.294 Y89.451 E61.02
G1 X145.441 Y89.25 E61.09746
G1 X152.858 Y89.25 E61.59085
G1 X154.086 Y89.526 E61.67457
G1 X154.793 Y89.775 E61.72443
G1 X155.83 Y90.473 E61.80758
G1 X156.586 Y91.118 E61.87369
G1 X157.34 Y92.186 E61.96065
G1 X157.865 Y93.273 E62.04095
G1 X158.066 Y94.42 E62.11841
G1 X158.066 Y125.542 E64.18866
G1 X157.764 Y126.944 E64.28406
G1 X157.456 Y127.588 E64.33154
G1 X156.861 Y128.53 E64.40566
G1 X156.151 Y129.318 E64.47622
G1 X154.93 Y130.118 E64.57332
G1 X154.071 Y130.545 E64.63713
G1 X152.902 Y130.75 E64.71608
G1 X145.479 Y130.75 E65.20986
G1 X144.251 Y130.474 E65.29358
G1 X143.544 Y130.225 E65.34345
G1 X142.507 Y129.527 E65.4266
G1 X141.751 Y128.882 E65.4927
G1 X140.997 Y127.814 E65.57967
G1 X140.472 Y126.727 E65.65997
G1 X140.271 Y125.58 E65.73743
G1 X140.271 Y114.655 E66.46416
G1 X140.214 Y114.964 E66.48506
G1 X140.048 Y115.513 E66.52322
G1 X139.253 Y116.918 E66.6306
G1 X138.177 Y117.974 E66.73089
G1 X137.039 Y118.607 E66.81751
G1 X136.321 Y118.907 E66.86928
G1 X135.055 Y119.109 E66.95456
G1 X122.878 Y119.109 E67.76457
G1 X121.454 Y118.8 E67.8615
G1 X120.914 Y118.544 E67.90125
G1 X120.17 Y118.075 E67.95976
G1 X119.737 Y118.382 E67.99507
G1 X118.646 Y118.908 E68.07563
G1 X117.501 Y119.109 E68.15297
G1 X107.142 Y119.109 E68.84205
G1 X105.912 Y118.832 E68.92592
G1 X105.235 Y118.594 E68.97365
G1 X103.9 Y117.739 E69.07911
G1 X102.905 Y116.628 E69.17832
G1 X102.283 Y115.334 E69.27383
G1 X102.057 Y114.667 E69.32067
G1 X101.927 Y113.371 E69.40731
G1 X102.065 Y111.206 E69.55162
G1 X102.297 Y109.749 E69.64976
G1 X102.864 Y107.598 E69.79774
G1 X103.329 Y106.35 E69.88633
G1 X104.345 Y104.277 E70.0399
G1 X105.113 Y103.041 E70.1367
G1 X105.544 Y102.472 E70.18418
G1 X105.12 Y101.172 E70.27514
G1 X105.016 Y99.877 E70.36156
G1 X105.107 Y98.739 E70.4375
G1 X105.81 Y96.575 E70.58886
G1 X106.462 Y95.533 E70.67062
G0 F6000 X106.861 Y95.838
G1 F900 X107.682 Y94.932 E70.75195
G1 X110.167 Y93.26 E70.95119
G1 X110.633 Y93.082 E70.98437
G1 X110.976 Y92.022 E71.05848
G1 X111.618 Y90.986 E71.13956
G1 X112.283 Y90.227 E71.20668
G1 X114.675 Y88.485 E71.40352
G1 X115.594 Y88.021 E71.47201
G1 X116.919 Y87.7 E71.5627
G1 X120.017 Y87.7 E71.76877
G1 X121.184 Y87.981 E71.84862
G1 X122.114 Y88.374 E71.91578
G1 X123.286 Y89.227 E72.01221
G1 X125.058 Y89.255 E72.1301
G1 X126.203 Y89.542 E72.20862
G1 X127.108 Y89.935 E72.27425
G1 X129.218 Y91.468 E72.44774
G1 X129.986 Y92.365 E72.52629
G1 X130.52 Y93.26 E72.59562
G1 X131.32 Y95.721 E72.76776
G1 X131.416 Y96.908 E72.84698
G1 X131.327 Y98.02 E72.92118
G1 X131.547 Y98.151 E72.93822
G1 X132.898 Y99.111 E73.04846
G1 X134.39 Y100.409 E73.18001
G1 X135.486 Y101.564 E73.28593
G1 X136.855 Y103.342 E73.4352
G1 X137.576 Y104.502 E73.52605
G1 X138.584 Y106.569 E73.67903
G1 X139.096 Y107.969 E73.77819
G1 X139.557 Y109.731 E73.89934
G1 X139.808 Y111.283 E74.00393
G1 X139.953 Y113.551 E74.1551
G1 X139.735 Y114.82 E74.24075
G1 X139.585 Y115.317 E74.27529
G1 X138.853 Y116.61 E74.37412
G1 X137.875 Y117.57 E74.46528
G1 X136.796 Y118.17 E74.54741
G1 X136.185 Y118.422 E74.59138
G1 X135.014 Y118.609 E74.67026
G1 X122.933 Y118.609 E75.47389
G1 X121.614 Y118.323 E75.56367
G1 X121.181 Y118.121 E75.59545
G1 X120.154 Y117.474 E75.6762
G1 X119.48 Y117.951 E75.73112
G1 X118.494 Y118.427 E75.80395
G1 X117.455 Y118.609 E75.87412
G1 X107.198 Y118.609 E76.55642
G1 X106.078 Y118.36 E76.63274
G1 X105.455 Y118.141 E76.67667
G1 X104.226 Y117.354 E76.77375
G1 X103.325 Y116.348 E76.86358
G1 X102.757 Y115.174 E76.95034
G1 X102.548 Y114.557 E76.99367
G1 X102.428 Y113.365 E77.07336
G1 X102.559 Y111.285 E77.212
G1 X102.791 Y109.828 E77.31014
G1 X103.333 Y107.773 E77.45152
G1 X103.798 Y106.525 E77.54011
G1 X104.794 Y104.498 E77.69034
