;FLAVOR:Marlin
;TIME:3932
;Filament used: 2.01967m
;Layer height: 0.2
;MINX:114.455
;MINY:91.068
;MINZ:0.2
;MAXX:145.545
;MAXY:128.932
;MAXZ:48.2
;POSTPROCESSED
;Generated with Cura_SteamEngine 5.3.1
;
;

M82 ;absolute extrusion mode
START_PRINT EXTRUDER_TEMP=240 BED_TEMP=80 RELATIVE_E_MODE=False PROBE=false PROBE_AREA_START=%MINX%,%MINY% PROBE_AREA_END=%MAXX%,%MAXY%
G92 E0
G92 E0
G1 F1500 E-6.5
;LAYER_COUNT:241
;LAYER:0
M107
G0 F6000 X115.815 Y98.459 Z0.2
;TYPE:SKIRT
G1 F1500 E0
G1 F900 X114.697 Y100.74 E0.10139
G1 X114.482 Y102.525 E0.17315
G1 X114.455 Y107.179 E0.3589
G1 X115.112 Y109.362 E0.44989
G1 X116.366 Y111.236 E0.53988
G1 X117.486 Y112.213 E0.5992
G1 X118.455 Y112.889 E0.64636
G1 X118.455 Y122.172 E1.01686
G1 X119.127 Y124.39 E1.10936
G1 X120.365 Y126.233 E1.19798
G1 X121.523 Y127.241 E1.25925
G1 X122.835 Y128.155 E1.32307
G1 X124.306 Y128.652 E1.38504
G1 X125.579 Y128.932 E1.43706
G1 X131.495 Y128.932 E1.67319
G1 X133.516 Y128.505 E1.75563
G1 X135.467 Y127.338 E1.84636
G1 X136.986 Y125.884 E1.93029
G1 X138.109 Y123.874 E2.02218
G1 X138.565 Y121.819 E2.1062
G1 X138.565 Y118.219 E2.24988
G1 X138.854 Y118.198 E2.26145
G1 X141.003 Y117.547 E2.35107
G1 X142.846 Y116.309 E2.43968
G1 X143.854 Y115.151 E2.50096
G1 X144.768 Y113.839 E2.56478
G1 X145.265 Y112.368 E2.62675
G1 X145.545 Y111.095 E2.67877
G1 X145.545 Y107.14 E2.83662
G1 X144.873 Y104.922 E2.92912
G1 X143.635 Y103.079 E3.01773
G1 X142.477 Y102.071 E3.07901
G1 X141.565 Y101.436 E3.12336
G1 X141.565 Y97.828 E3.26737
G1 X140.893 Y95.61 E3.35987
G1 X139.655 Y93.767 E3.44848
G1 X138.497 Y92.759 E3.50975
G1 X137.185 Y91.845 E3.57357
G1 X135.714 Y91.348 E3.63554
G1 X134.441 Y91.068 E3.68757
G1 X125.394 Y91.068 E4.04865
G1 X123.552 Y91.398 E4.12334
G1 X122.742 Y91.752 E4.15862
G1 X120.829 Y92.857 E4.2468
G1 X115.815 Y98.459 E4.54686
G0 F6000 X116.216 Y98.731
G1 F900 X115.165 Y100.876 E4.6422
G1 X114.959 Y102.583 E4.71082
G1 X114.935 Y107.109 E4.89147
G1 X115.551 Y109.155 E4.97675
G1 X116.729 Y110.915 E5.06128
G1 X117.802 Y111.851 E5.11811
G1 X118.935 Y112.638 E5.17317
G1 X118.935 Y122.102 E5.55089
G1 X119.565 Y124.181 E5.6376
G1 X120.728 Y125.913 E5.72086
G1 X121.797 Y126.847 E5.77752
G1 X123.055 Y127.723 E5.83871
G1 X124.409 Y128.183 E5.89578
G1 X125.632 Y128.452 E5.94576
G1 X131.443 Y128.452 E6.17769
G1 X133.338 Y128.052 E6.25499
G1 X135.174 Y126.953 E6.34039
G1 X136.603 Y125.586 E6.41932
G1 X137.655 Y123.703 E6.50541
G1 X138.085 Y121.765 E6.58464
G1 X138.085 Y117.74 E6.74529
G1 X138.715 Y117.739 E6.77043
G1 X140.794 Y117.109 E6.85713
G1 X142.526 Y115.946 E6.9404
G1 X143.46 Y114.877 E6.99706
G1 X144.336 Y113.619 E7.05824
G1 X144.796 Y112.265 E7.11532
G1 X145.065 Y111.042 E7.1653
G1 X145.065 Y107.21 E7.31824
G1 X144.435 Y105.131 E7.40494
G1 X143.272 Y103.399 E7.48821
G1 X142.203 Y102.465 E7.54487
G1 X141.085 Y101.686 E7.59925
G1 X141.085 Y97.898 E7.75044
G1 X140.455 Y95.819 E7.83714
G1 X139.292 Y94.087 E7.92041
G1 X138.223 Y93.153 E7.97707
G1 X136.965 Y92.277 E8.03825
G1 X135.611 Y91.817 E8.09532
G1 X134.388 Y91.548 E8.1453
G1 X125.434 Y91.548 E8.50268
G1 X123.693 Y91.86 E8.57327
G1 X122.982 Y92.168 E8.6042
G1 X121.135 Y93.235 E8.68933
G1 X116.216 Y98.731 E8.98372
G0 F6000 X116.617 Y99.003
G1 F900 X121.441 Y93.613 E9.27242
G1 X123.222 Y92.584 E9.35451
G1 X123.833 Y92.322 E9.38105
G1 X125.474 Y92.028 E9.44759
G1 X134.335 Y92.028 E9.80125
G1 X135.508 Y92.286 E9.84918
G1 X136.746 Y92.709 E9.9014
G1 X137.907 Y93.515 E9.95781
G1 X138.93 Y94.408 E10.01201
G1 X140.017 Y96.028 E10.08987
G1 X140.605 Y97.968 E10.17078
G1 X140.605 Y101.98 E10.33091
G1 X140.784 Y102.061 E10.33875
G1 X141.887 Y102.827 E10.39235
G1 X142.91 Y103.72 E10.44655
G1 X143.997 Y105.34 E10.52441
G1 X144.585 Y107.28 E10.60532
G1 X144.585 Y110.989 E10.75335
G1 X144.327 Y112.162 E10.80129
G1 X143.904 Y113.4 E10.8535
G1 X143.098 Y114.561 E10.90991
G1 X142.205 Y115.584 E10.96411
G1 X140.585 Y116.671 E11.04198
G1 X138.645 Y117.259 E11.12288
G1 X137.605 Y117.26 E11.16439
G1 X137.605 Y121.711 E11.34204
G1 X137.201 Y123.532 E11.41649
G1 X136.22 Y125.288 E11.49677
G1 X134.88 Y126.57 E11.57079
G1 X133.162 Y127.598 E11.65069
G1 X131.391 Y127.972 E11.72294
G1 X125.685 Y127.972 E11.95068
G1 X124.512 Y127.714 E11.99861
G1 X123.274 Y127.291 E12.05083
G1 X122.113 Y126.485 E12.10724
G1 X121.09 Y125.592 E12.16144
G1 X120.003 Y123.972 E12.2393
G1 X119.415 Y122.032 E12.32021
G1 X119.415 Y112.338 E12.70712
G1 X119.218 Y112.25 E12.71573
G1 X118.118 Y111.489 E12.76911
G1 X117.092 Y110.594 E12.82345
G1 X115.99 Y108.948 E12.90251
G1 X115.415 Y107.039 E12.98209
G1 X115.436 Y102.64 E13.15766
G1 X115.632 Y101.013 E13.22307
G1 X116.617 Y99.003 E13.31241
G0 F6000 X117.018 Y99.275
G1 F900 X121.747 Y93.991 E13.59543
G1 X123.462 Y93 E13.67449
G1 X123.973 Y92.784 E13.69663
G1 X125.514 Y92.508 E13.75911
G1 X134.282 Y92.508 E14.10906
G1 X135.405 Y92.755 E14.15495
G1 X136.528 Y93.142 E14.20236
G1 X137.633 Y93.909 E14.25605
G1 X138.566 Y94.727 E14.30557
G1 X139.579 Y96.237 E14.37814
G1 X140.125 Y98.038 E14.45326
G1 X140.125 Y102.321 E14.6242
G1 X140.51 Y102.455 E14.64047
G1 X141.613 Y103.221 E14.69407
G1 X142.546 Y104.039 E14.74359
G1 X143.559 Y105.549 E14.81617
G1 X144.105 Y107.35 E14.89128
G1 X144.105 Y110.936 E15.0344
G1 X143.858 Y112.059 E15.0803
G1 X143.471 Y113.182 E15.1277
G1 X142.704 Y114.287 E15.18139
G1 X141.886 Y115.22 E15.23091
G1 X140.376 Y116.233 E15.30349
G1 X138.575 Y116.779 E15.3786
G1 X137.125 Y116.78 E15.43647
G1 X137.125 Y121.657 E15.63112
G1 X136.747 Y123.361 E15.70079
G1 X135.837 Y124.99 E15.77526
G1 X134.586 Y126.187 E15.84436
G1 X132.986 Y127.144 E15.91878
G1 X131.339 Y127.492 E15.98596
G1 X125.738 Y127.492 E16.20951
G1 X124.615 Y127.245 E16.2554
G1 X123.492 Y126.858 E16.30281
G1 X122.387 Y126.091 E16.3565
G1 X121.454 Y125.273 E16.40602
G1 X120.441 Y123.763 E16.47859
G1 X119.895 Y121.962 E16.55371
G1 X119.895 Y111.999 E16.95135
G1 X119.49 Y111.855 E16.96851
G1 X118.434 Y111.127 E17.0197
G1 X117.455 Y110.273 E17.07155
G1 X116.429 Y108.741 E17.14514
G1 X115.895 Y106.969 E17.21901
G1 X115.913 Y102.697 E17.38951
G1 X116.099 Y101.15 E17.4517
G1 X117.018 Y99.275 E17.53504
G0 F6000 X117.419 Y99.547
G1 F900 X122.053 Y94.369 E17.81238
G1 X123.702 Y93.416 E17.8884
G1 X124.113 Y93.246 E17.90615
G1 X125.554 Y92.988 E17.96458
G1 X134.229 Y92.988 E18.31082
G1 X135.302 Y93.224 E18.35467
G1 X136.307 Y93.573 E18.39713
G1 X137.316 Y94.27 E18.44607
G1 X138.203 Y95.048 E18.49316
G1 X139.141 Y96.446 E18.56036
G1 X139.645 Y98.108 E18.62967
G1 X139.645 Y102.661 E18.8114
G1 X140.289 Y102.886 E18.83862
G1 X141.296 Y103.582 E18.88748
G1 X142.183 Y104.36 E18.93457
G1 X143.121 Y105.758 E19.00176
G1 X143.625 Y107.42 E19.07108
G1 X143.625 Y110.883 E19.2093
G1 X143.389 Y111.956 E19.25314
G1 X143.04 Y112.961 E19.29561
G1 X142.343 Y113.97 E19.34455
G1 X141.565 Y114.857 E19.39164
G1 X140.167 Y115.795 E19.45884
G1 X138.505 Y116.299 E19.52815
G1 X136.645 Y116.3 E19.60239
G1 X136.645 Y121.603 E19.81404
G1 X136.293 Y123.19 E19.87892
G1 X135.454 Y124.692 E19.94759
G1 X134.293 Y125.802 E20.0117
G1 X132.808 Y126.691 E20.08078
G1 X131.287 Y127.012 E20.14282
G1 X125.791 Y127.012 E20.36218
G1 X124.718 Y126.776 E20.40603
G1 X123.713 Y126.427 E20.44849
G1 X122.704 Y125.73 E20.49743
G1 X121.817 Y124.952 E20.54452
G1 X120.879 Y123.554 E20.61172
G1 X120.375 Y121.892 E20.68103
G1 X120.375 Y111.661 E21.08938
G1 X119.71 Y111.424 E21.11755
G1 X118.749 Y110.765 E21.16406
G1 X117.819 Y109.954 E21.21331
G1 X116.868 Y108.534 E21.28152
G1 X116.375 Y106.898 E21.34972
G1 X116.39 Y102.754 E21.51511
G1 X116.566 Y101.287 E21.57409
G1 X117.419 Y99.547 E21.65143
G0 F6000 X117.82 Y99.819
G1 F900 X122.359 Y94.747 E21.92309
G1 X123.942 Y93.832 E21.99607
G1 X124.245 Y93.71 E22.0091
G1 X125.599 Y93.468 E22.064
G1 X134.176 Y93.468 E22.40633
G1 X135.199 Y93.693 E22.44813
G1 X136.087 Y94.005 E22.4857
G1 X136.999 Y94.631 E22.52985
G1 X137.838 Y95.367 E22.57439
G1 X138.704 Y96.657 E22.63641
G1 X139.165 Y98.178 E22.69984
G1 X139.165 Y103.002 E22.89238
G1 X140.067 Y103.317 E22.93051
G1 X140.979 Y103.943 E22.97466
G1 X141.818 Y104.679 E23.0192
G1 X142.684 Y105.969 E23.08122
G1 X143.145 Y107.49 E23.14465
G1 X143.145 Y110.83 E23.27796
G1 X142.92 Y111.853 E23.31976
G1 X142.608 Y112.741 E23.35733
G1 X141.982 Y113.653 E23.40148
G1 X141.246 Y114.492 E23.44602
G1 X139.956 Y115.358 E23.50803
G1 X138.435 Y115.819 E23.57147
G1 X136.165 Y115.82 E23.66207
G1 X136.165 Y121.549 E23.89073
G1 X135.839 Y123.019 E23.95082
G1 X135.071 Y124.394 E24.01368
G1 X133.999 Y125.419 E24.07288
G1 X132.632 Y126.237 E24.13646
G1 X131.235 Y126.532 E24.19345
G1 X125.844 Y126.532 E24.40861
G1 X124.821 Y126.307 E24.45042
G1 X123.933 Y125.995 E24.48799
G1 X123.021 Y125.369 E24.53213
G1 X122.182 Y124.633 E24.57668
G1 X121.316 Y123.343 E24.63869
G1 X120.855 Y121.822 E24.70213
G1 X120.855 Y111.323 E25.12116
G1 X119.932 Y110.994 E25.16027
G1 X119.021 Y110.369 E25.20437
G1 X118.183 Y109.635 E25.24883
G1 X117.307 Y108.327 E25.31166
G1 X116.855 Y106.827 E25.37419
G1 X116.867 Y102.811 E25.53448
G1 X117.033 Y101.424 E25.59023
G1 X117.82 Y99.819 E25.66157
G0 F6000 X118.221 Y100.091
G1 F900 X117.499 Y101.563 E25.72701
G1 X117.347 Y102.812 E25.77723
G1 X117.335 Y106.756 E25.93464
G1 X117.746 Y108.12 E25.9915
G1 X118.548 Y109.317 E26.04901
G1 X119.293 Y109.973 E26.08863
G1 X120.154 Y110.564 E26.13031
G1 X120.924 Y110.838 E26.16293
G1 X121.335 Y110.928 E26.17972
G1 X121.335 Y121.752 E26.61173
G1 X121.753 Y123.132 E26.66928
G1 X122.548 Y124.316 E26.7262
G1 X123.293 Y124.973 E26.76585
G1 X124.154 Y125.564 E26.80753
G1 X124.924 Y125.838 E26.84015
G1 X125.897 Y126.052 E26.87991
G1 X131.183 Y126.052 E27.09089
G1 X132.456 Y125.783 E27.14282
G1 X133.705 Y125.036 E27.2009
G1 X134.688 Y124.096 E27.25519
G1 X135.385 Y122.848 E27.31224
G1 X135.685 Y121.495 E27.36755
G1 X135.685 Y115.34 E27.61321
G1 X138.365 Y115.339 E27.72018
G1 X139.745 Y114.921 E27.77773
G1 X140.929 Y114.126 E27.83465
G1 X141.586 Y113.381 E27.87429
G1 X142.177 Y112.52 E27.91597
G1 X142.451 Y111.75 E27.94859
G1 X142.665 Y110.777 E27.98836
G1 X142.665 Y107.56 E28.11675
G1 X142.247 Y106.18 E28.1743
G1 X141.452 Y104.996 E28.23122
G1 X140.707 Y104.339 E28.27087
G1 X139.846 Y103.748 E28.31255
G1 X139.076 Y103.474 E28.34517
G1 X138.685 Y103.388 E28.36115
G1 X138.685 Y98.248 E28.5663
G1 X138.267 Y96.868 E28.62385
G1 X137.472 Y95.684 E28.68077
G1 X136.727 Y95.027 E28.72041
G1 X135.866 Y94.436 E28.76209
G1 X135.096 Y94.162 E28.79471
G1 X134.123 Y93.948 E28.83448
G1 X125.639 Y93.948 E29.17309
G1 X124.383 Y94.173 E29.22402
G1 X124.121 Y94.278 E29.23528
G1 X122.666 Y95.124 E29.30246
G1 X118.221 Y100.091 E29.5685
G0 F6000 X118.622 Y100.363
G1 F900 X122.974 Y95.5 E29.82896
G1 X124.362 Y94.693 E29.89304
G1 X124.518 Y94.636 E29.89967
G1 X125.679 Y94.428 E29.94675
G1 X134.07 Y94.428 E30.28165
G1 X134.993 Y94.631 E30.31937
G1 X135.643 Y94.866 E30.34696
G1 X136.455 Y95.423 E30.38626
G1 X137.107 Y96.002 E30.42106
G1 X137.83 Y97.079 E30.47283
G1 X138.205 Y98.318 E30.5245
G1 X138.205 Y103.774 E30.74226
G1 X138.973 Y103.943 E30.77365
G1 X139.623 Y104.178 E30.80123
G1 X140.435 Y104.735 E30.84053
G1 X141.087 Y105.314 E30.87534
G1 X141.81 Y106.391 E30.92711
G1 X142.185 Y107.63 E30.97877
G1 X142.185 Y110.724 E31.10226
G1 X141.982 Y111.647 E31.13998
G1 X141.747 Y112.297 E31.16757
G1 X141.19 Y113.109 E31.20687
G1 X140.611 Y113.761 E31.24167
G1 X139.534 Y114.484 E31.29344
G1 X138.295 Y114.859 E31.34511
G1 X135.205 Y114.86 E31.46844
G1 X135.205 Y121.441 E31.7311
G1 X134.931 Y122.677 E31.78163
G1 X134.305 Y123.798 E31.83288
G1 X133.411 Y124.653 E31.88225
G1 X132.28 Y125.329 E31.93484
G1 X131.131 Y125.572 E31.98171
G1 X125.95 Y125.572 E32.1885
G1 X125.027 Y125.369 E32.22622
G1 X124.377 Y125.134 E32.2538
G1 X123.565 Y124.577 E32.2931
G1 X122.913 Y123.998 E32.32791
G1 X122.19 Y122.921 E32.37968
G1 X121.815 Y121.682 E32.43134
G1 X121.815 Y110.542 E32.87597
G1 X121.027 Y110.369 E32.90817
G1 X120.377 Y110.134 E32.93575
G1 X119.565 Y109.577 E32.97505
G1 X118.912 Y108.997 E33.00991
G1 X118.185 Y107.913 E33.06201
G1 X117.815 Y106.685 E33.11319
G1 X117.827 Y102.813 E33.26774
G1 X117.965 Y101.702 E33.31242
G1 X118.622 Y100.363 E33.37195
G0 F6000 X119.024 Y100.634
G1 F900 X123.282 Y95.876 E33.62679
G1 X124.603 Y95.108 E33.68778
G1 X125.719 Y94.908 E33.73303
G1 X134.017 Y94.908 E34.06422
G1 X134.89 Y95.1 E34.09989
G1 X135.421 Y95.296 E34.12249
G1 X136.184 Y95.819 E34.15941
G1 X136.742 Y96.319 E34.18931
G1 X137.392 Y97.287 E34.23585
G1 X137.725 Y98.388 E34.28176
G1 X137.725 Y104.22 E34.51452
G1 X138.047 Y104.231 E34.52738
G1 X138.87 Y104.412 E34.56102
G1 X139.401 Y104.608 E34.58361
G1 X140.164 Y105.131 E34.62053
G1 X140.722 Y105.631 E34.65043
G1 X141.372 Y106.599 E34.69697
G1 X141.705 Y107.7 E34.74288
G1 X141.705 Y110.671 E34.86146
G1 X141.513 Y111.544 E34.89713
G1 X141.317 Y112.075 E34.91972
G1 X140.794 Y112.838 E34.95664
G1 X140.294 Y113.396 E34.98655
G1 X139.326 Y114.046 E35.03308
G1 X138.225 Y114.379 E35.07899
G1 X134.725 Y114.38 E35.21869
G1 X134.725 Y121.387 E35.49835
G1 X134.477 Y122.506 E35.5441
G1 X133.922 Y123.5 E35.58953
G1 X133.117 Y124.27 E35.634
G1 X132.104 Y124.875 E35.68109
G1 X131.079 Y125.092 E35.7229
G1 X126.003 Y125.092 E35.9255
G1 X125.13 Y124.9 E35.96118
G1 X124.599 Y124.704 E35.98377
G1 X123.836 Y124.181 E36.02069
G1 X123.278 Y123.681 E36.05059
G1 X122.628 Y122.713 E36.09713
G1 X122.295 Y121.612 E36.14304
G1 X122.295 Y110.092 E36.60282
G1 X121.953 Y110.081 E36.61648
G1 X121.13 Y109.9 E36.65011
G1 X120.599 Y109.704 E36.67271
G1 X119.836 Y109.181 E36.70963
G1 X119.278 Y108.681 E36.73953
G1 X118.624 Y107.706 E36.78639
G1 X118.295 Y106.614 E36.83191
G1 X118.307 Y102.815 E36.98353
G1 X118.431 Y101.842 E37.02268
G1 X119.024 Y100.634 E37.07639
G0 F6000 X119.426 Y100.905
G1 F900 X123.59 Y96.252 E37.32561
G1 X124.772 Y95.565 E37.38018
G1 X125.759 Y95.388 E37.4202
G1 X133.964 Y95.388 E37.74768
G1 X134.787 Y95.569 E37.78131
G1 X135.198 Y95.725 E37.79885
G1 X135.912 Y96.215 E37.83342
G1 X136.377 Y96.636 E37.85845
G1 X136.954 Y97.496 E37.89979
G1 X137.245 Y98.458 E37.9399
G1 X137.245 Y104.7 E38.18903
G1 X137.944 Y104.7 E38.21693
G1 X138.767 Y104.881 E38.25056
G1 X139.178 Y105.037 E38.26811
G1 X139.892 Y105.527 E38.30267
G1 X140.357 Y105.948 E38.32771
G1 X140.934 Y106.808 E38.36904
G1 X141.225 Y107.77 E38.40916
G1 X141.225 Y110.618 E38.52283
G1 X141.044 Y111.441 E38.55646
G1 X140.888 Y111.852 E38.574
G1 X140.398 Y112.566 E38.60857
G1 X139.977 Y113.031 E38.6336
G1 X139.117 Y113.608 E38.67494
G1 X138.155 Y113.899 E38.71505
G1 X134.245 Y113.9 E38.87111
G1 X134.245 Y121.333 E39.16777
G1 X134.023 Y122.335 E39.20874
G1 X133.539 Y123.202 E39.24837
G1 X132.823 Y123.887 E39.28792
G1 X131.929 Y124.421 E39.32948
G1 X131.027 Y124.612 E39.36628
G1 X126.056 Y124.612 E39.56468
G1 X125.233 Y124.431 E39.59831
G1 X124.822 Y124.275 E39.61586
G1 X124.108 Y123.785 E39.65042
G1 X123.643 Y123.364 E39.67546
G1 X123.066 Y122.504 E39.71679
G1 X122.775 Y121.542 E39.7569
G1 X122.775 Y109.612 E40.23306
G1 X122.056 Y109.612 E40.26175
G1 X121.233 Y109.431 E40.29539
G1 X120.822 Y109.275 E40.31293
G1 X120.108 Y108.785 E40.34749
G1 X119.643 Y108.364 E40.37253
G1 X119.063 Y107.499 E40.4141
G1 X118.775 Y106.543 E40.45395
G1 X118.787 Y102.817 E40.60266
G1 X118.897 Y101.982 E40.63628
G1 X119.426 Y100.905 E40.68417
G0 F6000 X119.828 Y101.176
G1 F900 X123.898 Y96.628 E40.92776
G1 X124.941 Y96.022 E40.9759
G1 X125.799 Y95.868 E41.01069
G1 X133.911 Y95.868 E41.33446
G1 X134.684 Y96.038 E41.36605
G1 X134.97 Y96.151 E41.37833
G1 X135.64 Y96.611 E41.41076
G1 X136.01 Y96.951 E41.43082
G1 X136.516 Y97.705 E41.46706
G1 X136.765 Y98.528 E41.50138
G1 X136.765 Y105.18 E41.76687
G1 X137.891 Y105.18 E41.81182
G1 X138.664 Y105.35 E41.8434
G1 X138.95 Y105.463 E41.85568
G1 X139.62 Y105.923 E41.88812
G1 X139.99 Y106.263 E41.90817
G1 X140.496 Y107.017 E41.94441
G1 X140.745 Y107.84 E41.97873
G1 X140.745 Y110.565 E42.08749
G1 X140.575 Y111.338 E42.11908
G1 X140.462 Y111.624 E42.13135
G1 X140.002 Y112.294 E42.16379
G1 X139.662 Y112.664 E42.18385
G1 X138.908 Y113.17 E42.22009
G1 X138.085 Y113.419 E42.25441
G1 X133.765 Y113.42 E42.42683
