;FLAVOR:Marlin
;TIME:4018
;Filament used: 1.91756m
;Layer height: 0.2
;MINX:104.569
;MINY:85.224
;MINZ:0.32
;MAXX:155.429
;MAXY:134.768
;MAXZ:16.12
;POSTPROCESSED
;Generated with Cura_SteamEngine 5.3.1
;
;

M82 ;absolute extrusion mode
START_PRINT EXTRUDER_TEMP=250.0 BED_TEMP=100 RELATIVE_E_MODE=False PROBE=false PROBE_AREA_START=%MINX%,%MINY% PROBE_AREA_END=%MAXX%,%MAXY%
G92 E0
G92 E0
G1 F1500 E-6.5
;LAYER_COUNT:80
;LAYER:0
M107
G0 F6000 X126.387 Y89.219 Z0.32
;TYPE:SKIRT
G1 F1500 E0
G1 F900 X126.944 Y88.493 E0.05843
G1 X127.385 Y87.948 E0.10321
G1 X127.68 Y87.646 E0.13016
G1 X128.028 Y87.405 E0.1572
G1 X128.492 Y87.208 E0.18939
G1 X128.804 Y87.116 E0.21016
G1 X129.616 Y86.908 E0.26369
G1 X130.33 Y86.743 E0.31049
G1 X131.046 Y86.593 E0.3572
G1 X131.689 Y86.47 E0.39901
G1 X132.338 Y86.36 E0.44104
G1 X132.825 Y86.29 E0.47246
G1 X133.434 Y86.221 E0.5116
G1 X133.91 Y86.183 E0.5421
G1 X134.333 Y86.189 E0.56911
G1 X134.747 Y86.275 E0.59611
G1 X135.137 Y86.437 E0.62308
G1 X135.517 Y86.691 E0.65227
G1 X135.748 Y86.885 E0.67153
G1 X136.044 Y87.153 E0.69703
G1 X136.33 Y87.466 E0.72411
G1 X136.625 Y87.992 E0.76262
G1 X137.215 Y89.486 E0.8652
G1 X138.283 Y92.051 E1.04263
G1 X139.411 Y94.56 E1.2183
G1 X140.603 Y97.022 E1.39298
G1 X141.891 Y99.5 E1.57132
G1 X143.242 Y101.93 E1.74887
G1 X144.646 Y104.294 E1.92445
G1 X146.128 Y106.635 E2.10139
G1 X147.667 Y108.923 E2.27747
G1 X148.463 Y110.071 E2.36668
G1 X148.67 Y110.44 E2.3937
G1 X148.783 Y110.757 E2.41519
G1 X149.099 Y111.916 E2.49191
G1 X149.87 Y114.588 E2.6695
G1 X150.709 Y117.217 E2.84573
G1 X151.634 Y119.851 E3.02401
G1 X152.624 Y122.438 E3.20089
G1 X153.753 Y125.145 E3.38819
G1 X154.004 Y125.726 E3.42861
G1 X154.174 Y126.174 E3.45921
G1 X154.296 Y126.588 E3.48677
G1 X154.371 Y126.911 E3.50795
G1 X154.418 Y127.195 E3.52633
G1 X154.47 Y127.717 E3.55983
G1 X154.469 Y128.402 E3.60357
G1 X154.427 Y128.783 E3.62805
G1 X154.361 Y129.183 E3.65394
G1 X154.237 Y129.689 E3.68721
G1 X154.004 Y130.31 E3.72957
G1 X153.896 Y130.553 E3.74655
G1 X153.672 Y130.973 E3.77694
G1 X153.439 Y131.337 E3.80454
G1 X153.276 Y131.558 E3.82208
G1 X152.995 Y131.894 E3.85005
G1 X152.696 Y132.204 E3.87756
G1 X152.362 Y132.5 E3.90606
G1 X152.018 Y132.761 E3.93363
G1 X151.66 Y132.994 E3.96091
G1 X151.284 Y133.2 E3.98829
G1 X150.829 Y133.409 E4.02026
G1 X150.288 Y133.589 E4.05667
G1 X149.889 Y133.688 E4.08292
G1 X149.628 Y133.737 E4.09988
G1 X149.101 Y133.797 E4.13375
G1 X148.843 Y133.808 E4.15024
G1 X148.317 Y133.799 E4.18384
G1 X147.333 Y133.727 E4.24684
G1 X146.953 Y133.691 E4.27122
G1 X144.182 Y133.504 E4.44858
G1 X141.445 Y133.398 E4.62349
G1 X138.658 Y133.369 E4.80148
G1 X134.764 Y133.461 E5.05022
G1 X133.74 Y133.506 E5.11567
G1 X133.318 Y133.484 E5.14266
G1 X132.907 Y133.384 E5.16967
G1 X132.415 Y133.142 E5.20468
G1 X131.029 Y132.234 E5.31049
G1 X128.663 Y130.74 E5.48919
G1 X126.285 Y129.33 E5.66573
G1 X123.88 Y127.994 E5.84142
G1 X121.413 Y126.715 E6.01887
G1 X118.909 Y125.504 E6.1965
G1 X116.431 Y124.391 E6.36997
G1 X113.833 Y123.311 E6.54964
G1 X111.261 Y122.327 E6.7255
G1 X107.506 Y121.036 E6.97907
G1 X106.996 Y120.801 E7.01493
G1 X106.56 Y120.484 E7.04935
G1 X106.25 Y120.148 E7.07854
G1 X106.023 Y119.845 E7.10272
G1 X105.803 Y119.484 E7.12972
G1 X105.614 Y118.912 E7.16819
G1 X105.563 Y118.638 E7.18599
G1 X105.525 Y118.217 E7.21298
G1 X105.54 Y117.966 E7.22904
G1 X105.636 Y117.15 E7.28151
G1 X105.726 Y116.54 E7.32088
G1 X105.869 Y115.685 E7.37624
G1 X106.026 Y114.841 E7.43106
G1 X106.183 Y114.079 E7.48075
G1 X106.315 Y113.506 E7.51829
G1 X106.449 Y113.105 E7.54529
G1 X106.775 Y112.557 E7.58601
G1 X107.135 Y112.168 E7.61986
G1 X109.245 Y110.267 E7.80122
G1 X111.234 Y108.368 E7.97684
G1 X113.196 Y106.385 E8.15498
G1 X115.066 Y104.386 E8.32978
G1 X116.908 Y102.3 E8.50749
G1 X118.667 Y100.194 E8.68272
G1 X120.405 Y97.987 E8.86211
G1 X122.014 Y95.82 E9.03447
G1 X123.623 Y93.519 E9.21377
G1 X125.156 Y91.192 E9.39172
G1 X126.387 Y89.219 E9.54023
G0 F6000 X126.006 Y88.927
G1 F900 X126.571 Y88.191 E9.59948
G1 X127.012 Y87.646 E9.64425
G1 X127.371 Y87.276 E9.67718
G1 X127.796 Y86.982 E9.71018
G1 X128.304 Y86.766 E9.74543
G1 X128.685 Y86.651 E9.77084
G1 X129.508 Y86.44 E9.8251
G1 X130.232 Y86.273 E9.87255
G1 X130.956 Y86.122 E9.91978
G1 X131.609 Y85.997 E9.96223
G1 X132.27 Y85.885 E10.00505
G1 X132.771 Y85.813 E10.03737
G1 X133.396 Y85.743 E10.07753
G1 X133.917 Y85.703 E10.1109
G1 X134.386 Y85.71 E10.14085
G1 X134.887 Y85.814 E10.17353
G1 X135.367 Y86.013 E10.20671
G1 X135.826 Y86.323 E10.24208
G1 X136.07 Y86.529 E10.26247
G1 X136.366 Y86.797 E10.28797
G1 X136.723 Y87.184 E10.32159
G1 X137.044 Y87.757 E10.36354
G1 X137.658 Y89.301 E10.46965
G1 X138.721 Y91.854 E10.64625
G1 X139.849 Y94.363 E10.82192
G1 X141.029 Y96.801 E10.99488
G1 X142.311 Y99.267 E11.17237
G1 X143.655 Y101.685 E11.34903
G1 X145.052 Y104.037 E11.52373
G1 X146.534 Y106.378 E11.70066
G1 X148.061 Y108.649 E11.87542
G1 X148.882 Y109.836 E11.96759
G1 X149.108 Y110.238 E11.99704
G1 X149.246 Y110.631 E12.02364
G1 X149.56 Y111.783 E12.09989
G1 X150.327 Y114.442 E12.27661
G1 X151.162 Y117.058 E12.45197
G1 X152.082 Y119.679 E12.62936
G1 X153.067 Y122.253 E12.80536
G1 X154.194 Y124.955 E12.99231
G1 X154.453 Y125.556 E13.0341
G1 X154.623 Y126.004 E13.0647
G1 X154.764 Y126.479 E13.09635
G1 X154.839 Y126.802 E13.11752
G1 X154.896 Y127.147 E13.13985
G1 X154.948 Y127.669 E13.17335
G1 X154.949 Y128.403 E13.22022
G1 X154.901 Y128.861 E13.24963
G1 X154.835 Y129.261 E13.27552
G1 X154.703 Y129.803 E13.31114
G1 X154.443 Y130.505 E13.35895
G1 X154.32 Y130.779 E13.37813
G1 X154.096 Y131.199 E13.40853
G1 X153.843 Y131.596 E13.43859
G1 X153.644 Y131.866 E13.46001
G1 X153.363 Y132.202 E13.48798
G1 X153.014 Y132.563 E13.52004
G1 X152.652 Y132.882 E13.55086
G1 X152.28 Y133.163 E13.58063
G1 X151.891 Y133.415 E13.61023
G1 X151.515 Y133.621 E13.63761
G1 X150.981 Y133.864 E13.67507
G1 X150.404 Y134.055 E13.71388
G1 X149.978 Y134.16 E13.7419
G1 X149.717 Y134.209 E13.75886
G1 X149.121 Y134.277 E13.79717
G1 X148.863 Y134.288 E13.81366
G1 X148.282 Y134.278 E13.85077
G1 X147.288 Y134.205 E13.91441
G1 X146.913 Y134.169 E13.93847
G1 X144.163 Y133.984 E14.11448
G1 X141.426 Y133.878 E14.2894
G1 X138.664 Y133.849 E14.46579
G1 X134.785 Y133.941 E14.71357
G1 X133.761 Y133.986 E14.77902
G1 X133.25 Y133.961 E14.81169
G1 X132.738 Y133.836 E14.84535
G1 X132.152 Y133.544 E14.88716
G1 X130.766 Y132.636 E14.99297
G1 X128.418 Y131.153 E15.17032
G1 X126.052 Y129.75 E15.34597
G1 X123.647 Y128.414 E15.52166
G1 X121.192 Y127.141 E15.69826
G1 X118.712 Y125.942 E15.87417
G1 X116.234 Y124.829 E16.04764
G1 X113.661 Y123.759 E16.22559
G1 X111.105 Y122.781 E16.40036
G1 X107.305 Y121.472 E16.65702
G1 X106.754 Y121.218 E16.69577
G1 X106.238 Y120.843 E16.7365
G1 X105.866 Y120.436 E16.77171
G1 X105.613 Y120.095 E16.79883
G1 X105.364 Y119.686 E16.8294
G1 X105.158 Y119.063 E16.87131
G1 X105.091 Y118.726 E16.89325
G1 X105.047 Y118.26 E16.92314
G1 X105.063 Y117.91 E16.94551
G1 X105.161 Y117.08 E16.99889
G1 X105.253 Y116.461 E17.03885
G1 X105.397 Y115.597 E17.09478
G1 X105.556 Y114.744 E17.15019
G1 X105.715 Y113.971 E17.20059
G1 X105.847 Y113.398 E17.23814
G1 X106.011 Y112.903 E17.27144
G1 X106.387 Y112.269 E17.31851
G1 X106.814 Y111.811 E17.3585
G1 X108.924 Y109.91 E17.53986
G1 X110.893 Y108.03 E17.71371
G1 X112.845 Y106.057 E17.89095
G1 X114.715 Y104.058 E18.06576
G1 X116.548 Y101.982 E18.24261
G1 X118.299 Y99.886 E18.41702
G1 X120.028 Y97.69 E18.5955
G1 X121.629 Y95.534 E18.76699
G1 X123.222 Y93.255 E18.94456
G1 X124.755 Y90.928 E19.12251
G1 X126.006 Y88.927 E19.27321
G0 F6000 X125.625 Y88.635
G1 F900 X126.198 Y87.889 E19.33328
G1 X126.639 Y87.344 E19.37805
G1 X127.062 Y86.906 E19.41693
G1 X127.565 Y86.558 E19.45599
G1 X128.165 Y86.306 E19.49755
G1 X128.566 Y86.186 E19.52428
G1 X129.4 Y85.972 E19.57927
G1 X130.134 Y85.803 E19.62736
G1 X130.866 Y85.651 E19.67511
G1 X131.529 Y85.524 E19.71822
G1 X132.202 Y85.41 E19.7618
G1 X132.718 Y85.336 E19.79509
G1 X133.359 Y85.264 E19.83628
G1 X133.88 Y85.224 E19.86965
G1 X134.439 Y85.231 E19.90535
G1 X135.027 Y85.353 E19.9437
G1 X135.599 Y85.59 E19.98324
G1 X136.136 Y85.956 E20.02474
G1 X136.392 Y86.173 E20.04617
G1 X136.688 Y86.441 E20.07167
G1 X137.115 Y86.901 E20.11175
G1 X137.463 Y87.522 E20.15721
G1 X138.101 Y89.116 E20.26685
G1 X139.159 Y91.657 E20.44262
G1 X140.287 Y94.166 E20.6183
G1 X141.455 Y96.58 E20.78955
G1 X142.731 Y99.034 E20.96618
G1 X144.068 Y101.44 E21.14195
G1 X145.458 Y103.78 E21.31576
G1 X146.94 Y106.121 E21.49269
G1 X148.456 Y108.376 E21.66621
G1 X149.277 Y109.563 E21.75838
G1 X149.548 Y110.042 E21.79353
G1 X149.699 Y110.472 E21.82263
G1 X150.021 Y111.65 E21.90061
G1 X150.784 Y114.296 E22.07647
G1 X151.615 Y116.899 E22.25096
G1 X152.53 Y119.507 E22.42746
G1 X153.51 Y122.068 E22.60257
G1 X154.635 Y124.765 E22.78918
G1 X154.902 Y125.386 E22.83235
G1 X155.083 Y125.867 E22.86517
G1 X155.232 Y126.37 E22.89867
G1 X155.307 Y126.693 E22.91985
G1 X155.374 Y127.099 E22.94612
G1 X155.426 Y127.621 E22.97962
G1 X155.429 Y128.402 E23.0295
G1 X155.375 Y128.939 E23.06396
G1 X155.309 Y129.339 E23.08985
G1 X155.153 Y129.97 E23.13136
G1 X154.881 Y130.702 E23.18123
G1 X154.744 Y131.005 E23.20246
G1 X154.52 Y131.425 E23.23286
G1 X154.248 Y131.854 E23.2653
G1 X154.012 Y132.174 E23.29069
G1 X153.708 Y132.536 E23.32088
G1 X153.359 Y132.897 E23.35294
G1 X152.941 Y133.265 E23.38851
G1 X152.541 Y133.566 E23.42047
G1 X152.122 Y133.836 E23.45231
G1 X151.714 Y134.058 E23.48197
G1 X151.132 Y134.32 E23.52273
G1 X150.555 Y134.511 E23.56154
G1 X150.067 Y134.632 E23.59365
G1 X149.806 Y134.681 E23.6106
G1 X149.141 Y134.757 E23.65335
G1 X148.883 Y134.768 E23.66984
G1 X148.247 Y134.757 E23.71046
G1 X147.242 Y134.683 E23.77481
G1 X146.869 Y134.647 E23.79874
G1 X144.144 Y134.464 E23.97315
G1 X141.407 Y134.358 E24.14807
G1 X138.67 Y134.329 E24.32286
G1 X134.806 Y134.421 E24.56968
G1 X133.782 Y134.466 E24.63514
G1 X133.18 Y134.438 E24.67362
G1 X132.568 Y134.288 E24.71386
G1 X131.889 Y133.946 E24.76241
G1 X130.503 Y133.038 E24.86822
G1 X128.173 Y131.566 E25.04422
G1 X125.819 Y130.17 E25.21899
G1 X123.414 Y128.834 E25.39468
G1 X120.971 Y127.567 E25.57042
G1 X118.515 Y126.38 E25.74462
G1 X116.037 Y125.267 E25.91809
G1 X113.489 Y124.207 E26.09432
G1 X110.949 Y123.235 E26.268
G1 X107.104 Y121.908 E26.52775
G1 X106.512 Y121.635 E26.56938
G1 X105.916 Y121.202 E26.61642
G1 X105.512 Y120.76 E26.65466
G1 X105.203 Y120.345 E26.6877
G1 X104.925 Y119.888 E26.72186
G1 X104.702 Y119.214 E26.7672
G1 X104.62 Y118.82 E26.7929
G1 X104.569 Y118.305 E26.82595
G1 X104.586 Y117.854 E26.85477
G1 X104.686 Y117.009 E26.90911
G1 X104.78 Y116.382 E26.94959
G1 X104.925 Y115.509 E27.00611
G1 X105.086 Y114.647 E27.06211
G1 X105.247 Y113.863 E27.11322
G1 X105.391 Y113.247 E27.15361
G1 X105.571 Y112.703 E27.19021
G1 X106 Y111.981 E27.24384
G1 X106.493 Y111.454 E27.28992
G1 X108.603 Y109.553 E27.47129
G1 X110.552 Y107.692 E27.64337
G1 X112.494 Y105.729 E27.81971
G1 X114.364 Y103.73 E27.99451
G1 X116.188 Y101.664 E28.17051
G1 X117.931 Y99.578 E28.3441
G1 X119.651 Y97.393 E28.52168
G1 X121.244 Y95.248 E28.6923
G1 X122.821 Y92.991 E28.86813
G1 X124.354 Y90.664 E29.04608
G1 X125.625 Y88.635 E29.19897
G1 F1500 E22.69897
;MESH:[a]_guidler_b-beta7.stl
G0 F6000 X132.9 Y93.889
;TYPE:WALL-INNER
G1 F1500 E29.19897
G1 F900 X133.113 Y93.67 E29.21848
G1 X133.304 Y89.688 E29.47306
G1 X132.636 Y89.795 E29.51626
G1 X131.852 Y89.936 E29.56713
G1 X130.684 Y90.187 E29.64342
G1 X129.818 Y90.403 E29.70042
G1 X129.39 Y90.948 E29.74467
G1 X129.141 Y96.242 E30.08312
G1 X129.159 Y96.613 E30.10684
G1 X129.223 Y97.004 E30.13214
G1 X129.295 Y97.265 E30.14943
G1 X129.38 Y97.522 E30.16671
G1 X129.545 Y97.888 E30.19235
G1 X133.122 Y103.581 E30.62171
G1 X133.398 Y104.06 E30.65701
G1 X133.662 Y104.545 E30.69228
G1 X133.913 Y105.039 E30.72766
G1 X134.142 Y105.517 E30.76151
G1 X134.321 Y105.919 E30.78961
G1 X134.458 Y105.51 E30.81715
G1 X134.877 Y104.729 E30.87375
G1 X135.375 Y104.146 E30.92272
G1 X135.827 Y103.744 E30.96134
G1 X136.335 Y103.404 E31.00038
G1 X136.87 Y103.143 E31.03839
G1 X137.362 Y102.975 E31.07159
G1 X138.085 Y102.825 E31.11875
G1 X138.607 Y102.818 E31.15209
G1 X137.747 Y101.854 E31.23458
G1 X137.309 Y101.389 E31.27538
G1 X136.858 Y100.927 E31.31661
G1 X133.745 Y97.91 E31.59344
G1 X133.449 Y97.592 E31.62119
G1 X133.141 Y97.136 E31.65633
G1 X132.845 Y96.487 E31.70188
G1 X132.686 Y95.645 E31.7566
G1 X132.749 Y94.414 E31.83531
G1 X132.795 Y94.14 E31.85305
G1 X132.9 Y93.889 E31.87043
G0 F6000 X133.234 Y94.328
G1 F900 X133.319 Y94.123 E31.8846
G1 X133.584 Y93.852 E31.90881
G1 X133.81 Y89.148 E32.20955
G1 X133.379 Y89.189 E32.2372
G1 X132.552 Y89.322 E32.29069
G1 X131.751 Y89.466 E32.34266
G1 X130.572 Y89.72 E32.41967
G1 X129.937 Y89.874 E32.4614
G1 X129.54 Y89.981 E32.48766
G1 X128.918 Y90.772 E32.55192
G1 X128.658 Y96.19 E32.89831
G1 X128.68 Y96.663 E32.92854
G1 X128.753 Y97.106 E32.95722
G1 X128.835 Y97.404 E32.97695
G1 X128.932 Y97.697 E32.99666
G1 X129.069 Y98 E33.0179
G1 X129.202 Y98.253 E33.03615
G1 X132.424 Y103.363 E33.42192
G1 X132.706 Y103.822 E33.45633
G1 X132.976 Y104.289 E33.49077
G1 X133.234 Y104.764 E33.52529
G1 X133.48 Y105.246 E33.55985
G1 X133.709 Y105.724 E33.5937
G1 X133.932 Y106.222 E33.62854
G1 X134.141 Y106.722 E33.66315
G1 F885.2 X134.413 Y107.42 E33.71178
G1 F840.5 X134.552 Y107.691 E33.73261
G1 F853.8 X134.625 Y106.74 E33.79682
G1 F900 X134.729 Y106.225 E33.83037
G1 X134.899 Y105.7 E33.86561
G1 X135.276 Y105.001 E33.91633
G1 X135.72 Y104.482 E33.95994
G1 X136.147 Y104.107 E33.99623
G1 X136.534 Y103.847 E34.02601
G1 X137.023 Y103.602 E34.06094
G1 X137.526 Y103.431 E34.09486
G1 X138.143 Y103.303 E34.1351
G1 X138.952 Y103.302 E34.18676
G1 X139.753 Y103.465 E34.23896
G1 X139.011 Y102.553 E34.31405
G1 X139.012 Y102.546 E34.3145
G1 X138.097 Y101.525 E34.40205
G1 X137.653 Y101.054 E34.44338
G1 X137.212 Y100.601 E34.48376
G1 X134.079 Y97.566 E34.76231
G1 X133.828 Y97.294 E34.78595
G1 X133.581 Y96.93 E34.81404
G1 X133.315 Y96.363 E34.85403
G1 X133.168 Y95.618 E34.90252
G1 X133.234 Y94.328 E34.98501
G1 F1500 E28.48501
G0 F6000 X134.568 Y107.721
G1 F1500 E34.98501
G1 F795.6 X134.718 Y108.325 E35.02997
G1 F858.8 X134.773 Y108.478 E35.04085
G1 F1500 E28.54085
G0 F6000 X143.273 Y115.737
G1 F1500 E35.04085
G1 F900 X142.772 Y115.294 E35.08356
G1 X142.348 Y114.757 E35.12725
G1 X142.093 Y114.127 E35.17065
G1 X141.993 Y113.687 E35.19947
G1 X141.962 Y113.136 E35.23471
G1 X142.031 Y112.607 E35.26878
G1 X142.188 Y112.109 E35.30212
G1 X142.3 Y111.87 E35.31898
G1 X142.545 Y111.484 E35.34817
G1 X142.902 Y111.077 E35.38275
G1 X143.329 Y110.745 E35.41729
G1 X143.817 Y110.49 E35.45245
G1 X144.25 Y110.366 E35.48121
G1 X143.582 Y109.926 E35.53229
G1 X143.109 Y109.462 E35.5746
G1 X142.701 Y108.896 E35.61916
G1 X142.234 Y109.76 E35.68188
G1 X141.726 Y110.366 E35.73238
G1 X141.271 Y110.769 E35.77119
G1 X140.759 Y111.112 E35.81055
G1 X140.215 Y111.375 E35.84913
G1 X139.574 Y111.588 E35.89227
G1 X138.696 Y111.71 E35.94887
G1 X137.931 Y111.657 E35.99784
G1 X137.361 Y111.531 E36.03512
G1 X137.491 Y112.284 E36.08392
G1 X137.48 Y113.218 E36.14357
G1 X137.346 Y113.902 E36.18808
G1 X137.29 Y114.097 E36.20103
G1 X137.253 Y114.79 E36.24535
G1 X137.567 Y115.788 E36.31216
G1 X137.805 Y116.03 E36.33384
G1 X139.652 Y116.532 E36.45607
G1 X140.31 Y116.799 E36.50141
G1 X140.731 Y117.017 E36.53169
G1 X141.3 Y117.39 E36.57514
G1 X141.573 Y117.605 E36.59733
G1 X141.809 Y117.678 E36.6131
G1 X142.145 Y117.609 E36.63501
G1 X143.329 Y116.914 E36.72268
G1 X144.089 Y116.092 E36.79417
G1 X143.726 Y115.963 E36.81877
G1 X143.273 Y115.737 E36.8511
G0 F6000 X144.426 Y115.693
G1 F900 X143.987 Y115.558 E36.88043
G1 X143.546 Y115.329 E36.91216
G1 X143.151 Y114.989 E36.94545
G1 X142.779 Y114.529 E36.98322
G1 X142.568 Y114.023 E37.01823
G1 X142.475 Y113.641 E37.04334
G1 X142.445 Y113.192 E37.07208
G1 X142.496 Y112.745 E37.10081
G1 X142.666 Y112.189 E37.13794
G1 X142.951 Y111.748 E37.17147
G1 X143.233 Y111.428 E37.19871
G1 X143.591 Y111.149 E37.22769
G1 X144.001 Y110.937 E37.25717
G1 X144.45 Y110.808 E37.287
G1 X144.883 Y110.761 E37.31481
