;FLAVOR:Marlin
;TIME:8860
;Filament used: 5.20996m
;Layer height: 0.2
;MINX:85.112
;MINY:75.043
;MINZ:0.32
;MAXX:173.866
;MAXY:146.1
;MAXZ:24.92
;POSTPROCESSED
;Generated with Cura_SteamEngine 5.3.1
;
;

M82 ;absolute extrusion mode
START_PRINT EXTRUDER_TEMP=250.0 BED_TEMP=90 RELATIVE_E_MODE=False PROBE=alse PROBE_AREA_START=%MINX%,%MINY% PROBE_AREA_END=%MAXX%,%MAXY%
G92 E0
G92 E0
G1 F2100 E-0.5
;LAYER_COUNT:124
;LAYER:0
M107
G0 F6000 X94.505 Y81.704 Z0.32
;TYPE:SKIRT
G1 F2100 E0
G1 F900 X94.811 Y81.411 E0.02818
G1 X95.167 Y81.18 E0.05641
G1 X95.559 Y81.02 E0.08458
G1 X95.951 Y80.939 E0.1112
G1 X96.81 Y80.84 E0.16872
G1 X99.556 Y80.485 E0.35291
G1 X102.254 Y80.059 E0.5346
G1 X105.027 Y79.539 E0.72228
G1 X107.686 Y78.965 E0.90323
G1 X110.357 Y78.305 E1.08625
G1 X113.068 Y77.555 E1.27336
G1 X116.184 Y76.588 E1.49039
G1 X117.471 Y76.165 E1.58051
G1 X117.954 Y76.057 E1.61343
G1 X118.621 Y76.043 E1.65781
G1 X123.797 Y76.043 E2.00212
G1 X125.626 Y76.069 E2.12379
G1 X126.207 Y76.086 E2.16246
G1 X128.989 Y76.086 E2.34752
G1 X130.567 Y76.048 E2.45252
G1 X136.196 Y76.043 E2.82696
G1 X136.861 Y76.052 E2.8712
G1 X137.388 Y76.122 E2.90656
G1 X137.886 Y76.253 E2.94082
G1 X138.604 Y76.482 E2.99095
G1 X139.632 Y76.828 E3.0631
G1 X142.248 Y77.625 E3.24502
G1 X144.92 Y78.358 E3.42933
G1 X147.626 Y79.019 E3.61462
G1 X150.352 Y79.602 E3.80006
G1 X153.024 Y80.096 E3.98081
G1 X155.766 Y80.523 E4.16541
G1 X157.726 Y80.762 E4.29675
G1 X159.126 Y80.942 E4.39065
G1 X159.539 Y81.036 E4.41882
G1 X159.928 Y81.205 E4.44704
G1 X160.278 Y81.444 E4.47523
G1 X160.577 Y81.745 E4.50345
G1 X160.804 Y82.078 E4.53026
G1 X161.229 Y82.84 E4.5883
G1 X162.622 Y85.249 E4.77341
G1 X164.079 Y87.611 E4.95802
G1 X165.604 Y89.937 E5.14303
G1 X167.186 Y92.202 E5.32681
G1 X169.265 Y94.992 E5.55827
G1 X169.481 Y95.345 E5.5858
G1 X169.933 Y96.267 E5.6541
G1 X170.461 Y97.42 E5.73846
G1 X170.624 Y97.811 E5.76664
G1 X171.085 Y99.019 E5.85265
G1 X171.307 Y99.628 E5.89576
G1 X171.478 Y100.153 E5.93249
G1 X171.808 Y101.259 E6.00927
G1 X171.989 Y101.897 E6.05338
G1 X172.096 Y102.32 E6.08241
G1 X172.347 Y103.454 E6.15967
G1 X172.522 Y104.31 E6.21779
G1 X172.577 Y104.626 E6.23912
G1 X172.762 Y105.9 E6.32476
G1 X172.849 Y106.575 E6.37003
G1 X172.866 Y106.921 E6.39308
G1 X172.798 Y109.552 E6.56815
G1 X172.834 Y113.65 E6.84076
G1 X172.866 Y114.78 E6.91596
G1 X172.853 Y115.095 E6.93693
G1 X172.819 Y115.398 E6.95721
G1 X172.624 Y116.755 E7.04841
G1 X172.459 Y117.728 E7.11406
G1 X172.188 Y118.973 E7.19881
G1 X172.015 Y119.713 E7.24936
G1 X171.912 Y120.098 E7.27588
G1 X171.552 Y121.306 E7.35972
G1 X171.327 Y122.02 E7.40952
G1 X171.207 Y122.366 E7.43388
G1 X170.778 Y123.496 E7.51429
G1 X170.486 Y124.228 E7.56671
G1 X170.343 Y124.557 E7.59057
G1 X169.817 Y125.686 E7.67343
G1 X169.516 Y126.31 E7.71951
G1 X169.296 Y126.672 E7.74769
G1 X169.119 Y126.883 E7.76601
G1 X168.491 Y127.543 E7.82661
G1 X166.616 Y129.561 E8.00985
G1 X164.786 Y131.646 E8.19439
G1 X163.012 Y133.788 E8.3794
G1 X161.319 Y135.953 E8.56222
G1 X159.688 Y138.166 E8.74509
G1 X157.382 Y141.534 E9.01661
G1 X156.694 Y142.58 E9.09989
G1 X156.429 Y142.911 E9.1281
G1 X156.106 Y143.186 E9.15632
G1 X155.887 Y143.322 E9.17347
G1 X153.169 Y144.803 E9.37937
G1 X152.781 Y144.974 E9.40757
G1 X152.309 Y145.083 E9.4398
G1 X151.818 Y145.099 E9.47248
G1 X149.746 Y145.1 E9.61031
G1 X149.041 Y145.09 E9.65721
G1 X148.6 Y145.04 E9.68673
G1 X148.126 Y144.938 E9.71898
G1 X145.423 Y144.395 E9.90238
G1 X142.662 Y143.922 E10.08872
G1 X139.979 Y143.54 E10.26899
G1 X137.194 Y143.223 E10.45545
G1 X134.431 Y142.987 E10.63991
G1 X131.7 Y142.832 E10.82187
G1 X128.929 Y142.753 E11.00627
G1 X126.158 Y142.753 E11.1906
G1 X123.387 Y142.83 E11.375
G1 X120.655 Y142.985 E11.55703
G1 X117.894 Y143.219 E11.74135
G1 X115.139 Y143.532 E11.92579
G1 X112.394 Y143.923 E12.11023
G1 X109.673 Y144.389 E12.29387
G1 X106.407 Y145.047 E12.51549
G1 X106.026 Y145.09 E12.54099
G1 X105.643 Y145.1 E12.56648
G1 X103.646 Y145.1 E12.69932
G1 X102.942 Y145.09 E12.74615
G1 X102.521 Y145.044 E12.77433
G1 X102.056 Y144.902 E12.80667
G1 X101.117 Y144.394 E12.87769
G1 X100.242 Y143.906 E12.94433
G1 X99.161 Y143.322 E13.02606
G1 X98.808 Y143.086 E13.05431
G1 X98.507 Y142.788 E13.08248
G1 X98.179 Y142.268 E13.12338
G1 X97.896 Y141.641 E13.16914
G1 X97.302 Y140.278 E13.26804
G1 X96.137 Y137.799 E13.45025
G1 X94.903 Y135.356 E13.63231
G1 X93.562 Y132.878 E13.81974
G1 X92.207 Y130.531 E14.00001
G1 X90.75 Y128.168 E14.18468
G1 X89.817 Y126.748 E14.2977
G1 X89.418 Y126.121 E14.34714
G1 X89.153 Y125.616 E14.38508
G1 X87.805 Y123.13 E14.57319
G1 X86.802 Y121.382 E14.70725
G1 X86.495 Y120.81 E14.75044
G1 X86.331 Y120.42 E14.77858
G1 X86.264 Y120.142 E14.7976
G1 X86.157 Y119.539 E14.83834
G1 X86.122 Y119.17 E14.863
G1 X86.114 Y118.349 E14.91761
G1 X86.129 Y117.6 E14.96744
G1 X86.155 Y117.047 E15.00427
G1 X86.26 Y115.339 E15.1181
G1 X86.351 Y112.57 E15.3024
G1 X86.365 Y109.79 E15.48733
G1 X86.301 Y107.085 E15.66731
G1 X86.125 Y103.851 E15.88276
G1 X86.112 Y102.991 E15.93997
G1 X86.112 Y102.088 E16.00004
G1 X86.125 Y101.396 E16.04608
G1 X86.216 Y100.782 E16.08737
G1 X86.429 Y100.119 E16.13369
G1 X86.548 Y99.823 E16.15491
G1 X87.183 Y98.509 E16.25199
G1 X87.499 Y97.876 E16.29906
G1 X88.682 Y95.322 E16.48629
G1 X89.752 Y92.831 E16.66663
G1 X90.795 Y90.201 E16.85483
G1 X91.727 Y87.641 E17.03606
G1 X92.116 Y86.457 E17.11896
G1 X92.145 Y86.39 E17.12382
G1 X92.581 Y85.096 E17.21465
G1 X92.765 Y84.688 E17.24442
G1 X93.136 Y84.046 E17.29375
G1 X93.986 Y82.525 E17.40965
G1 X94.26 Y82.05 E17.44613
G1 X94.505 Y81.704 E17.47433
G0 F6000 X94.125 Y81.376
G1 F900 X94.497 Y81.019 E17.50863
G1 X94.937 Y80.734 E17.5435
G1 X95.415 Y80.539 E17.57784
G1 X95.894 Y80.442 E17.61035
G1 X96.753 Y80.343 E17.66787
G1 X99.485 Y79.99 E17.85111
G1 X102.176 Y79.565 E18.03234
G1 X104.921 Y79.05 E18.21812
G1 X107.58 Y78.477 E18.39906
G1 X110.224 Y77.823 E18.58024
G1 X112.92 Y77.077 E18.76632
G1 X116.036 Y76.11 E18.98335
G1 X117.362 Y75.677 E19.07614
G1 X117.894 Y75.558 E19.1124
G1 X118.611 Y75.543 E19.16011
G1 X123.804 Y75.543 E19.50555
G1 X125.641 Y75.569 E19.62776
G1 X126.222 Y75.586 E19.66642
G1 X128.977 Y75.586 E19.84968
G1 X130.567 Y75.548 E19.95548
G1 X136.203 Y75.543 E20.33039
G1 X136.927 Y75.556 E20.37856
G1 X137.515 Y75.638 E20.41805
G1 X138.013 Y75.769 E20.4523
G1 X138.763 Y76.008 E20.50467
G1 X139.79 Y76.354 E20.57676
G1 X142.389 Y77.145 E20.75747
G1 X145.039 Y77.872 E20.94026
G1 X147.745 Y78.533 E21.12556
G1 X150.443 Y79.11 E21.30909
G1 X153.115 Y79.604 E21.48984
G1 X155.842 Y80.029 E21.67344
G1 X157.79 Y80.266 E21.80397
G1 X159.237 Y80.454 E21.90104
G1 X159.695 Y80.558 E21.93228
G1 X160.17 Y80.765 E21.96675
G1 X160.599 Y81.057 E22.00127
G1 X160.965 Y81.427 E22.03589
G1 X161.241 Y81.834 E22.0686
G1 X161.666 Y82.596 E22.12664
G1 X163.048 Y84.986 E22.31029
G1 X164.504 Y87.348 E22.49486
G1 X166.014 Y89.651 E22.67805
G1 X167.587 Y91.903 E22.86078
G1 X169.666 Y94.693 E23.09223
G1 X169.93 Y95.125 E23.12591
G1 X170.388 Y96.059 E23.19511
G1 X170.923 Y97.228 E23.28062
G1 X171.091 Y97.633 E23.30979
G1 X171.555 Y98.848 E23.39631
G1 X171.782 Y99.473 E23.44054
G1 X171.957 Y100.01 E23.47811
G1 X172.289 Y101.123 E23.55537
G1 X172.474 Y101.774 E23.60039
G1 X172.584 Y102.212 E23.63043
G1 X172.837 Y103.354 E23.70824
G1 X173.015 Y104.224 E23.76731
G1 X173.072 Y104.554 E23.78959
G1 X173.258 Y105.836 E23.87576
G1 X173.345 Y106.511 E23.92103
G1 X173.366 Y106.934 E23.9492
G1 X173.298 Y109.565 E24.12428
G1 X173.334 Y113.636 E24.39509
G1 X173.366 Y114.801 E24.47262
G1 X173.353 Y115.116 E24.49359
G1 X173.314 Y115.469 E24.51721
G1 X173.117 Y116.839 E24.60928
G1 X172.948 Y117.834 E24.67642
G1 X172.675 Y119.087 E24.76172
G1 X172.498 Y119.842 E24.81331
G1 X172.391 Y120.241 E24.84079
G1 X172.029 Y121.456 E24.92512
G1 X171.799 Y122.184 E24.97591
G1 X171.674 Y122.543 E25.00119
G1 X171.242 Y123.681 E25.08217
G1 X170.945 Y124.427 E25.13558
G1 X170.796 Y124.768 E25.16033
G1 X170.267 Y125.903 E25.24363
G1 X169.943 Y126.57 E25.29296
G1 X169.723 Y126.932 E25.32114
G1 X169.481 Y127.228 E25.34657
G1 X168.853 Y127.888 E25.40717
G1 X166.992 Y129.891 E25.58904
G1 X165.162 Y131.976 E25.77358
G1 X163.397 Y134.107 E25.95765
G1 X161.713 Y136.261 E26.13952
G1 X160.101 Y138.448 E26.32025
G1 X157.795 Y141.816 E26.59177
G1 X157.112 Y142.855 E26.67448
G1 X156.787 Y143.263 E26.70918
G1 X156.43 Y143.567 E26.74037
G1 X156.151 Y143.747 E26.76246
G1 X153.371 Y145.261 E26.97303
G1 X152.943 Y145.45 E27.00416
G1 X152.372 Y145.582 E27.04314
G1 X151.818 Y145.599 E27.08001
G1 X149.739 Y145.6 E27.21831
G1 X148.985 Y145.587 E27.26847
G1 X148.495 Y145.529 E27.30129
G1 X148.021 Y145.427 E27.33354
G1 X145.339 Y144.888 E27.51552
G1 X142.578 Y144.415 E27.70186
G1 X139.922 Y144.037 E27.88031
G1 X137.137 Y143.72 E28.06677
G1 X134.393 Y143.485 E28.24997
G1 X131.686 Y143.332 E28.43033
G1 X128.915 Y143.253 E28.61473
G1 X126.172 Y143.253 E28.79719
G1 X123.401 Y143.33 E28.98159
G1 X120.69 Y143.484 E29.16222
G1 X117.95 Y143.716 E29.34514
G1 X115.2 Y144.028 E29.52924
G1 X112.473 Y144.417 E29.71248
G1 X109.757 Y144.882 E29.89578
G1 X106.463 Y145.544 E30.11928
G1 X106.039 Y145.59 E30.14765
G1 X105.656 Y145.6 E30.17313
G1 X103.639 Y145.6 E30.3073
G1 X102.935 Y145.59 E30.35414
G1 X102.422 Y145.536 E30.38845
G1 X101.86 Y145.365 E30.42753
G1 X100.873 Y144.831 E30.50218
G1 X99.998 Y144.343 E30.56882
G1 X98.883 Y143.738 E30.65321
G1 X98.492 Y143.476 E30.68452
G1 X98.113 Y143.101 E30.71998
G1 X97.723 Y142.474 E30.7691
G1 X97.438 Y141.841 E30.81528
G1 X96.849 Y140.491 E30.91326
G1 X95.685 Y138.012 E31.09544
G1 X94.463 Y135.594 E31.27565
G1 X93.122 Y133.116 E31.46308
G1 X91.774 Y130.781 E31.64243
G1 X90.332 Y128.443 E31.82516
G1 X89.395 Y127.016 E31.93872
G1 X88.975 Y126.353 E31.99092
G1 X88.713 Y125.854 E32.02841
G1 X87.365 Y123.368 E32.21653
G1 X86.361 Y121.618 E32.35074
G1 X86.054 Y121.046 E32.39392
G1 X85.87 Y120.614 E32.42516
G1 X85.778 Y120.259 E32.44955
G1 X85.659 Y119.586 E32.49501
G1 X85.624 Y119.217 E32.51967
G1 X85.614 Y118.339 E32.57808
G1 X85.63 Y117.577 E32.62878
G1 X85.656 Y117.016 E32.66614
G1 X85.76 Y115.323 E32.77897
G1 X85.851 Y112.554 E32.96326
G1 X85.865 Y109.787 E33.14733
G1 X85.801 Y107.097 E33.32632
G1 X85.625 Y103.859 E33.54203
G1 X85.612 Y102.999 E33.59924
G1 X85.612 Y102.079 E33.66044
G1 X85.63 Y101.323 E33.71074
G1 X85.727 Y100.67 E33.75466
G1 X85.965 Y99.932 E33.80624
G1 X86.084 Y99.636 E33.82746
G1 X86.736 Y98.286 E33.92719
G1 X87.045 Y97.666 E33.97327
G1 X88.228 Y95.112 E34.1605
G1 X89.287 Y92.647 E34.33897
G1 X90.33 Y90.017 E34.52717
G1 X91.257 Y87.47 E34.70747
G1 X91.641 Y86.301 E34.78932
G1 X91.678 Y86.21 E34.79585
G1 X92.125 Y84.89 E34.88856
G1 X92.309 Y84.482 E34.91833
G1 X92.703 Y83.796 E34.97096
G1 X93.553 Y82.275 E35.08686
G1 X93.852 Y81.761 E35.12642
G1 X94.125 Y81.376 E35.15781
G0 F6000 X93.745 Y81.048
G1 F900 X94.186 Y80.624 E35.19851
G1 X94.703 Y80.289 E35.23949
G1 X95.27 Y80.058 E35.28021
G1 X95.837 Y79.945 E35.31867
G1 X96.696 Y79.846 E35.37619
G1 X99.414 Y79.495 E35.55849
G1 X102.098 Y79.071 E35.73925
G1 X104.816 Y78.561 E35.92321
G1 X107.475 Y77.988 E36.10414
G1 X110.091 Y77.341 E36.2834
G1 X112.772 Y76.599 E36.46845
G1 X115.888 Y75.633 E36.68546
G1 X117.253 Y75.189 E36.78094
G1 X117.834 Y75.059 E36.82054
G1 X118.601 Y75.043 E36.87158
G1 X123.811 Y75.043 E37.21815
G1 X125.656 Y75.069 E37.34089
G1 X126.237 Y75.086 E37.37955
G1 X128.965 Y75.086 E37.56102
G1 X130.567 Y75.048 E37.66762
G1 X136.212 Y75.043 E38.04312
G1 X136.936 Y75.056 E38.09129
G1 X137.642 Y75.154 E38.13871
G1 X138.14 Y75.285 E38.17296
G1 X138.923 Y75.534 E38.22762
G1 X139.95 Y75.88 E38.29971
G1 X142.53 Y76.665 E38.4791
G1 X145.158 Y77.386 E38.66037
G1 X147.864 Y78.047 E38.84567
G1 X150.534 Y78.618 E39.02729
G1 X153.206 Y79.112 E39.20805
G1 X155.919 Y79.535 E39.3907
G1 X157.854 Y79.77 E39.52036
G1 X159.348 Y79.966 E39.62059
G1 X159.848 Y80.08 E39.65471
G1 X160.411 Y80.325 E39.69555
G1 X160.922 Y80.672 E39.73664
G1 X161.355 Y81.11 E39.77761
G1 X161.678 Y81.59 E39.81609
G1 X162.103 Y82.352 E39.87413
G1 X163.474 Y84.724 E40.05638
G1 X164.93 Y87.086 E40.24095
G1 X166.424 Y89.365 E40.42222
G1 X167.988 Y91.604 E40.6039
G1 X170.093 Y94.432 E40.83841
G1 X170.357 Y94.864 E40.87209
G1 X170.843 Y95.851 E40.94527
G1 X171.385 Y97.036 E41.03195
G1 X171.558 Y97.455 E41.06211
G1 X172.025 Y98.677 E41.14913
G1 X172.257 Y99.318 E41.19448
G1 X172.436 Y99.867 E41.23289
G1 X172.77 Y100.986 E41.31057
G1 X172.959 Y101.652 E41.35662
G1 X173.072 Y102.104 E41.38761
G1 X173.327 Y103.254 E41.46597
G1 X173.508 Y104.139 E41.52606
G1 X173.567 Y104.482 E41.54921
G1 X173.754 Y105.772 E41.63592
G1 X173.841 Y106.447 E41.68119
G1 X173.866 Y106.947 E41.71449
G1 X173.798 Y109.578 E41.88957
G1 X173.834 Y113.622 E42.15859
G1 X173.866 Y114.822 E42.23844
G1 X173.853 Y115.137 E42.25941
G1 X173.809 Y115.54 E42.28638
G1 X173.61 Y116.923 E42.37932
G1 X173.437 Y117.94 E42.44794
G1 X173.162 Y119.201 E42.5338
G1 X172.981 Y119.972 E42.58648
G1 X172.87 Y120.384 E42.61486
G1 X172.506 Y121.607 E42.69974
G1 X172.271 Y122.348 E42.75146
G1 X172.141 Y122.72 E42.77767
G1 X171.707 Y123.866 E42.85918
G1 X171.403 Y124.627 E42.9137
G1 X171.249 Y124.979 E42.93925
G1 X170.717 Y126.121 E43.02306
G1 X170.393 Y126.788 E43.07239
G1 X170.15 Y127.192 E43.10375
G1 X169.843 Y127.573 E43.13629
G1 X169.215 Y128.233 E43.1969
G1 X167.368 Y130.221 E43.37741
G1 X165.538 Y132.306 E43.56194
G1 X163.782 Y134.426 E43.74506
G1 X162.107 Y136.569 E43.92599
G1 X160.514 Y138.73 E44.10458
G1 X158.208 Y142.098 E44.3761
G1 X157.53 Y143.13 E44.45824
G1 X157.149 Y143.612 E44.49911
G1 X156.754 Y143.948 E44.53361
G1 X156.39 Y144.186 E44.56254
G1 X153.61 Y145.7 E44.77311
G1 X153.101 Y145.927 E44.81018
G1 X152.435 Y146.081 E44.85565
G1 X151.833 Y146.099 E44.89572
G1 X149.73 Y146.1 E45.03561
G1 X148.926 Y146.084 E45.0891
G1 X148.436 Y146.026 E45.12192
G1 X145.255 Y145.381 E45.33783
G1 X142.494 Y144.908 E45.52417
G1 X139.865 Y144.534 E45.70081
G1 X137.08 Y144.217 E45.88727
G1 X134.355 Y143.983 E46.0692
G1 X131.672 Y143.832 E46.24796
G1 X128.901 Y143.753 E46.43236
G1 X126.186 Y143.753 E46.61296
G1 X123.415 Y143.83 E46.79736
G1 X120.725 Y143.983 E46.97659
G1 X118.006 Y144.213 E47.1581
G1 X115.261 Y144.524 E47.34187
G1 X112.552 Y144.911 E47.5239
G1 X109.841 Y145.375 E47.70686
G1 X106.517 Y146.041 E47.93237
G1 X106.052 Y146.09 E47.96347
G1 X105.669 Y146.1 E47.98896
G1 X103.632 Y146.1 E48.12446
G1 X102.928 Y146.09 E48.1713
G1 X102.322 Y146.028 E48.21182
G1 X101.664 Y145.828 E48.25757
G1 X100.629 Y145.268 E48.33585
G1 X99.755 Y144.779 E48.40247
G1 X98.605 Y144.153 E48.48956
G1 X98.173 Y143.863 E48.52418
G1 X97.718 Y143.414 E48.5667
G1 X97.298 Y142.738 E48.61964
G1 X96.98 Y142.041 E48.6706
G1 X96.396 Y140.704 E48.76765
G1 X95.232 Y138.225 E48.94983
G1 X94.017 Y135.82 E49.12907
G1 X92.682 Y133.354 E49.3156
G1 X91.341 Y131.031 E49.49403
G1 X89.906 Y128.705 E49.67583
G1 X88.973 Y127.284 E49.78891
G1 X88.532 Y126.585 E49.84389
G1 X88.27 Y126.086 E49.88138
G1 X86.925 Y123.606 E50.06905
G1 X85.92 Y121.854 E50.2034
G1 X85.613 Y121.282 E50.24659
G1 X85.41 Y120.81 E50.28077
G1 X85.294 Y120.384 E50.31014
G1 X85.161 Y119.633 E50.36087
G1 X85.124 Y119.223 E50.38825
G1 X85.114 Y118.329 E50.44773
G1 X85.131 Y117.554 E50.49929
G1 X85.157 Y116.985 E50.53718
G1 X85.26 Y115.307 E50.64901
G1 X85.351 Y112.538 E50.83331
G1 X85.365 Y109.784 E51.01651
G1 X85.301 Y107.109 E51.1945
G1 X85.125 Y103.867 E51.41047
G1 X85.112 Y103.007 E51.46769
G1 X85.112 Y102.067 E51.53022
G1 X85.135 Y101.25 E51.58459
G1 X85.238 Y100.558 E51.63113
G1 X85.501 Y99.745 E51.68797
G1 X85.62 Y99.449 E51.70919
G1 X86.288 Y98.063 E51.81153
G1 X86.597 Y97.443 E51.85762
G1 X87.774 Y94.902 E52.0439
G1 X88.822 Y92.463 E52.22048
G1 X89.865 Y89.833 E52.40869
G1 X90.787 Y87.299 E52.58806
G1 X91.166 Y86.145 E52.66886
G1 X91.669 Y84.684 E52.77164
G1 X91.875 Y84.233 E52.80462
G1 X92.27 Y83.547 E52.85728
G1 X93.121 Y82.024 E52.97333
G1 X93.444 Y81.472 E53.01588
G1 X93.745 Y81.048 E53.05047
G1 F2100 E52.55047
G0 F6000 X96.453 Y83.414
G1 F2100 E53.05047
G1 F900 X97.773 Y83.414 E53.13827
G1 X97.773 Y91.214 E53.65713
G1 X96.452 Y91.214 E53.74501
