;FLAVOR:Marlin
;TIME:760
;Filament used: 0.183156m
;Layer height: 0.16
;MINX:120.956
;MINY:100.946
;MINZ:0.2
;MAXX:139.49
;MAXY:119.434
;MAXZ:9.32
;POSTPROCESSED
;Generated with Cura_SteamEngine 5.3.1
;
;

M82 ;absolute extrusion mode
START_PRINT EXTRUDER_TEMP=250.0 BED_TEMP=90 RELATIVE_E_MODE=False PROBE=alse PROBE_AREA_START=%MINX%,%MINY% PROBE_AREA_END=%MAXX%,%MAXY%
G92 E0
G92 E0
G1 F1500 E-6.5
;LAYER_COUNT:59
;LAYER:0
M107
G0 F6000 X125.163 Y105.619 Z0.2
;TYPE:SKIRT
G1 F1500 E0
G1 F900 X125.575 Y105.202 E0.02437
G1 X125.847 Y104.968 E0.03929
G1 X126.469 Y104.513 E0.07133
G1 X126.997 Y104.197 E0.09691
G1 X127.405 Y104.012 E0.11554
G1 X127.988 Y103.779 E0.14164
G1 X128.629 Y103.596 E0.16935
G1 X129.137 Y103.512 E0.19076
G1 X130.575 Y103.441 E0.25062
G1 X131.075 Y103.472 E0.27145
G1 X131.832 Y103.605 E0.3034
G1 X132.427 Y103.785 E0.32924
G1 X132.894 Y103.961 E0.34999
G1 X133.501 Y104.252 E0.37798
G1 X134.087 Y104.618 E0.4067
G1 X134.641 Y105.055 E0.43604
G1 X134.867 Y105.26 E0.44873
G1 X135.287 Y105.696 E0.47389
G1 X135.464 Y105.904 E0.48525
G1 X135.797 Y106.352 E0.50846
G1 X136.019 Y106.688 E0.5252
G1 X136.309 Y107.23 E0.55076
G1 X136.6 Y107.917 E0.58178
G1 X136.696 Y108.192 E0.59389
G1 X136.793 Y108.549 E0.60927
G1 X136.88 Y108.925 E0.62531
G1 X136.976 Y109.618 E0.6544
G1 X136.99 Y110.075 E0.67341
G1 X136.982 Y110.487 E0.69054
G1 X136.931 Y111.066 E0.7147
G1 X136.887 Y111.337 E0.72612
G1 X136.742 Y111.979 E0.75348
G1 X136.655 Y112.269 E0.76607
G1 X136.484 Y112.712 E0.78581
G1 X136.219 Y113.287 E0.81213
G1 X135.969 Y113.752 E0.83408
G1 X135.664 Y114.198 E0.85655
G1 X135.468 Y114.446 E0.86969
G1 X135.098 Y114.851 E0.8925
G1 X134.693 Y115.245 E0.91599
G1 X134.496 Y115.413 E0.92675
G1 X133.973 Y115.809 E0.95403
G1 X133.444 Y116.132 E0.97979
G1 X133.05 Y116.335 E0.99822
G1 X132.799 Y116.449 E1.00968
G1 X132.558 Y116.542 E1.02042
G1 X131.974 Y116.73 E1.04593
G1 X131.69 Y116.801 E1.0581
G1 X131.155 Y116.899 E1.08071
G1 X130.68 Y116.935 E1.10052
G1 X130.307 Y116.923 E1.11603
G1 X129.162 Y116.86 E1.16371
G1 X128.645 Y116.77 E1.18553
G1 X127.991 Y116.575 E1.2139
G1 X127.368 Y116.321 E1.24187
G1 X127.08 Y116.178 E1.25524
G1 X126.492 Y115.833 E1.28358
G1 X125.989 Y115.468 E1.30942
G1 X125.759 Y115.277 E1.32185
G1 X125.329 Y114.859 E1.34678
G1 X124.927 Y114.412 E1.37178
G1 X124.707 Y114.123 E1.38688
G1 X124.359 Y113.581 E1.41366
G1 X124.214 Y113.318 E1.42614
G1 X123.99 Y112.839 E1.44813
G1 X123.887 Y112.577 E1.45983
G1 X123.707 Y112.019 E1.48421
G1 X123.581 Y111.48 E1.50722
G1 X123.504 Y110.86 E1.53319
G1 X123.452 Y110.032 E1.56769
G1 X123.478 Y109.579 E1.58655
G1 X123.532 Y109.076 E1.60758
G1 X123.655 Y108.494 E1.63231
G1 X123.763 Y108.099 E1.64934
G1 X123.913 Y107.669 E1.66827
G1 X124.162 Y107.084 E1.69471
G1 X124.314 Y106.795 E1.70828
G1 X124.602 Y106.34 E1.73067
G1 X124.813 Y106.046 E1.74571
G1 X125.163 Y105.619 E1.76867
G0 F6000 X124.776 Y105.302
G1 F900 X125.249 Y104.823 E1.79666
G1 X125.552 Y104.564 E1.81323
G1 X126.174 Y104.109 E1.84527
G1 X126.74 Y103.768 E1.87274
G1 X127.219 Y103.548 E1.89466
G1 X127.851 Y103.298 E1.92291
G1 X128.492 Y103.115 E1.95063
G1 X129.055 Y103.019 E1.97437
G1 X130.606 Y102.942 E2.03893
G1 X131.106 Y102.973 E2.05976
G1 X131.977 Y103.126 E2.09653
G1 X132.572 Y103.306 E2.12237
G1 X133.11 Y103.51 E2.14629
G1 X133.766 Y103.828 E2.1766
G1 X134.397 Y104.225 E2.2076
G1 X134.951 Y104.662 E2.23693
G1 X135.227 Y104.913 E2.25244
G1 X135.668 Y105.372 E2.27891
G1 X135.845 Y105.58 E2.29026
G1 X136.214 Y106.076 E2.31596
G1 X136.46 Y106.452 E2.33464
G1 X136.75 Y106.994 E2.3602
G1 X137.072 Y107.752 E2.39444
G1 X137.179 Y108.061 E2.40803
G1 X137.28 Y108.436 E2.42418
G1 X137.375 Y108.856 E2.44208
G1 X137.476 Y109.603 E2.47342
G1 X137.49 Y110.085 E2.49347
G1 X137.482 Y110.497 E2.5106
G1 X137.425 Y111.146 E2.53769
G1 X137.381 Y111.417 E2.5491
G1 X137.221 Y112.123 E2.5792
G1 X137.134 Y112.413 E2.59179
G1 X136.938 Y112.921 E2.61443
G1 X136.659 Y113.524 E2.64205
G1 X136.382 Y114.034 E2.66618
G1 X136.077 Y114.48 E2.68864
G1 X135.837 Y114.783 E2.70471
G1 X135.447 Y115.209 E2.72872
G1 X135.042 Y115.603 E2.75221
G1 X134.798 Y115.812 E2.76557
G1 X134.234 Y116.236 E2.79491
G1 X133.705 Y116.559 E2.82068
G1 X133.257 Y116.79 E2.84163
G1 X133.006 Y116.904 E2.85309
G1 X132.711 Y117.018 E2.86624
G1 X132.127 Y117.206 E2.89175
G1 X131.78 Y117.293 E2.90662
G1 X131.193 Y117.398 E2.93141
G1 X130.718 Y117.434 E2.95122
G1 X130.28 Y117.422 E2.96944
G1 X129.076 Y117.353 E3.01957
G1 X128.559 Y117.263 E3.04139
G1 X127.802 Y117.038 E3.07423
G1 X127.146 Y116.769 E3.1037
G1 X126.858 Y116.626 E3.11707
G1 X126.198 Y116.238 E3.1489
G1 X125.695 Y115.873 E3.17474
G1 X125.41 Y115.636 E3.19015
G1 X124.98 Y115.218 E3.21508
G1 X124.529 Y114.715 E3.24317
G1 X124.286 Y114.393 E3.25994
G1 X123.938 Y113.851 E3.28672
G1 X123.761 Y113.53 E3.30196
G1 X123.537 Y113.051 E3.32394
G1 X123.411 Y112.731 E3.33824
G1 X123.22 Y112.133 E3.36434
G1 X123.094 Y111.594 E3.38735
G1 X123.005 Y110.891 E3.41681
G1 X122.953 Y110.063 E3.45131
G1 X122.981 Y109.526 E3.47366
G1 X123.043 Y108.973 E3.4968
G1 X123.173 Y108.362 E3.52277
G1 X123.291 Y107.934 E3.54123
G1 X123.453 Y107.473 E3.56154
G1 X123.719 Y106.851 E3.58967
G1 X123.871 Y106.562 E3.60324
G1 X124.196 Y106.048 E3.62853
G1 X124.426 Y105.729 E3.64488
G1 X124.776 Y105.302 E3.66783
G0 F6000 X124.389 Y104.985
G1 F900 X124.924 Y104.443 E3.69949
G1 X125.257 Y104.16 E3.71766
G1 X125.879 Y103.705 E3.7497
G1 X126.531 Y103.314 E3.78131
G1 X127.035 Y103.083 E3.80436
G1 X127.714 Y102.817 E3.83468
G1 X128.408 Y102.622 E3.86465
G1 X128.971 Y102.526 E3.88839
G1 X130.637 Y102.443 E3.95774
G1 X131.137 Y102.474 E3.97857
G1 X132.122 Y102.647 E4.02015
G1 X132.749 Y102.838 E4.0474
G1 X133.287 Y103.042 E4.07132
G1 X133.984 Y103.378 E4.10349
G1 X134.707 Y103.832 E4.13898
G1 X135.261 Y104.269 E4.16832
G1 X135.588 Y104.567 E4.18671
G1 X136.049 Y105.048 E4.21441
G1 X136.226 Y105.256 E4.22577
G1 X136.632 Y105.802 E4.25406
G1 X136.901 Y106.216 E4.27458
G1 X137.191 Y106.758 E4.30014
G1 X137.544 Y107.588 E4.33764
G1 X137.662 Y107.931 E4.35272
G1 X137.768 Y108.326 E4.36972
G1 X137.863 Y108.746 E4.38762
G1 X137.976 Y109.588 E4.42294
G1 X137.99 Y110.095 E4.44403
G1 X137.982 Y110.507 E4.46116
G1 X137.919 Y111.226 E4.49117
G1 X137.869 Y111.528 E4.5039
G1 X137.709 Y112.234 E4.53399
G1 X137.613 Y112.557 E4.548
G1 X137.392 Y113.131 E4.57357
G1 X137.113 Y113.734 E4.6012
G1 X136.795 Y114.316 E4.62877
G1 X136.49 Y114.762 E4.65123
G1 X136.206 Y115.121 E4.67026
G1 X135.816 Y115.547 E4.69428
G1 X135.367 Y115.983 E4.7203
G1 X135.098 Y116.212 E4.73498
G1 X134.495 Y116.663 E4.76629
G1 X133.966 Y116.986 E4.79206
G1 X133.464 Y117.245 E4.81554
G1 X133.213 Y117.359 E4.82701
G1 X132.864 Y117.494 E4.84256
G1 X132.249 Y117.691 E4.86941
G1 X131.902 Y117.778 E4.88428
G1 X131.231 Y117.897 E4.91262
G1 X130.704 Y117.934 E4.93458
G1 X130.251 Y117.921 E4.95342
G1 X128.99 Y117.846 E5.00594
G1 X128.473 Y117.756 E5.02776
G1 X127.612 Y117.501 E5.06509
G1 X126.956 Y117.232 E5.09457
G1 X126.605 Y117.057 E5.11088
G1 X125.904 Y116.643 E5.14472
G1 X125.401 Y116.278 E5.17056
G1 X125.061 Y115.995 E5.18895
G1 X124.631 Y115.577 E5.21388
G1 X124.157 Y115.049 E5.24338
G1 X123.865 Y114.663 E5.26351
G1 X123.517 Y114.121 E5.29029
G1 X123.308 Y113.742 E5.30828
G1 X123.084 Y113.263 E5.33026
G1 X122.946 Y112.914 E5.34587
G1 X122.733 Y112.247 E5.37498
G1 X122.607 Y111.708 E5.39799
G1 X122.506 Y110.922 E5.43094
G1 X122.454 Y110.094 E5.46543
G1 X122.484 Y109.47 E5.4914
G1 X122.546 Y108.917 E5.51454
G1 X122.691 Y108.229 E5.54377
G1 X122.819 Y107.768 E5.56366
G1 X122.993 Y107.276 E5.58536
G1 X123.276 Y106.618 E5.61514
G1 X123.428 Y106.329 E5.62871
G1 X123.79 Y105.756 E5.65689
G1 X124.039 Y105.412 E5.67455
G1 X124.389 Y104.985 E5.6975
G0 F6000 X124.002 Y104.668
G1 F900 X124.6 Y104.062 E5.7329
G1 X124.962 Y103.756 E5.7526
G1 X125.584 Y103.301 E5.78464
G1 X126.323 Y102.859 E5.82044
G1 X126.853 Y102.617 E5.84467
G1 X127.532 Y102.351 E5.87498
G1 X128.324 Y102.129 E5.90918
G1 X128.887 Y102.033 E5.93293
G1 X130.668 Y101.944 E6.00706
G1 X131.168 Y101.975 E6.02789
G1 X132.268 Y102.169 E6.07433
G1 X132.926 Y102.37 E6.10293
G1 X133.464 Y102.574 E6.12686
G1 X134.25 Y102.955 E6.16317
G1 X135.017 Y103.439 E6.20088
G1 X135.598 Y103.899 E6.23169
G1 X135.925 Y104.197 E6.25008
G1 X136.43 Y104.724 E6.28043
G1 X136.607 Y104.932 E6.29178
G1 X137.033 Y105.504 E6.32143
G1 X137.342 Y105.98 E6.34503
G1 X137.651 Y106.562 E6.37242
G1 X138.017 Y107.425 E6.41139
G1 X138.145 Y107.801 E6.42791
G1 X138.256 Y108.216 E6.44577
G1 X138.359 Y108.679 E6.46549
G1 X138.472 Y109.521 E6.50081
G1 X138.49 Y110.105 E6.5251
G1 X138.482 Y110.517 E6.54223
G1 X138.417 Y111.27 E6.57365
G1 X138.357 Y111.639 E6.5892
G1 X138.197 Y112.345 E6.61929
G1 X138.08 Y112.737 E6.6363
G1 X137.859 Y113.311 E6.66187
G1 X137.552 Y113.974 E6.69225
G1 X137.234 Y114.556 E6.71982
G1 X136.903 Y115.044 E6.74434
G1 X136.575 Y115.459 E6.76633
G1 X136.185 Y115.885 E6.79034
G1 X135.691 Y116.364 E6.81895
G1 X135.422 Y116.593 E6.83364
G1 X134.756 Y117.09 E6.86819
G1 X134.227 Y117.413 E6.89395
G1 X133.671 Y117.7 E6.91997
G1 X133.42 Y117.814 E6.93143
G1 X133.017 Y117.97 E6.9494
G1 X132.371 Y118.176 E6.97759
G1 X132.024 Y118.263 E6.99246
G1 X131.266 Y118.396 E7.02445
G1 X130.69 Y118.434 E7.04845
G1 X130.221 Y118.42 E7.06796
G1 X128.904 Y118.339 E7.12282
G1 X128.387 Y118.249 E7.14464
G1 X127.422 Y117.964 E7.18647
G1 X126.766 Y117.695 E7.21595
G1 X126.351 Y117.488 E7.23523
G1 X125.61 Y117.048 E7.27106
G1 X125.107 Y116.683 E7.29689
G1 X124.712 Y116.354 E7.31827
G1 X124.282 Y115.936 E7.3432
G1 X123.758 Y115.351 E7.37585
G1 X123.466 Y114.965 E7.39597
G1 X123.096 Y114.391 E7.42437
G1 X122.855 Y113.954 E7.44511
G1 X122.619 Y113.447 E7.46836
G1 X122.481 Y113.098 E7.48397
G1 X122.246 Y112.361 E7.51613
G1 X122.111 Y111.772 E7.54125
G1 X122.01 Y110.986 E7.5742
G1 X121.955 Y110.125 E7.61007
G1 X121.987 Y109.414 E7.63966
G1 X122.049 Y108.861 E7.66279
G1 X122.209 Y108.095 E7.69533
G1 X122.337 Y107.634 E7.71522
G1 X122.534 Y107.078 E7.73974
G1 X122.833 Y106.385 E7.77112
G1 X122.985 Y106.096 E7.7847
G1 X123.367 Y105.489 E7.81451
G1 X123.652 Y105.095 E7.83473
G1 X124.002 Y104.668 E7.85768
G0 F6000 X123.615 Y104.351
G1 F900 X124.277 Y103.68 E7.89687
G1 X124.667 Y103.352 E7.91806
G1 X125.289 Y102.897 E7.9501
G1 X126.115 Y102.404 E7.99009
G1 X126.671 Y102.151 E8.01549
G1 X127.35 Y101.885 E8.04581
G1 X128.24 Y101.636 E8.08423
G1 X128.803 Y101.54 E8.10797
G1 X130.699 Y101.445 E8.1869
G1 X131.199 Y101.476 E8.20773
G1 X132.414 Y101.691 E8.25903
G1 X133.103 Y101.902 E8.28898
G1 X133.641 Y102.106 E8.31291
G1 X134.517 Y102.532 E8.3534
G1 X135.284 Y103.016 E8.39111
G1 X135.935 Y103.529 E8.42557
G1 X136.262 Y103.827 E8.44396
G1 X136.811 Y104.4 E8.47695
G1 X137.008 Y104.633 E8.48964
G1 X137.434 Y105.205 E8.51929
G1 X137.784 Y105.746 E8.54608
G1 X138.093 Y106.328 E8.57348
G1 X138.49 Y107.264 E8.61575
G1 X138.628 Y107.672 E8.63365
G1 X138.744 Y108.107 E8.65237
G1 X138.855 Y108.612 E8.67387
G1 X138.968 Y109.454 E8.70919
G1 X138.99 Y110.115 E8.73668
G1 X138.982 Y110.527 E8.75382
G1 X138.911 Y111.35 E8.78816
G1 X138.845 Y111.75 E8.80501
G1 X138.685 Y112.456 E8.83511
G1 X138.547 Y112.917 E8.85512
G1 X138.326 Y113.491 E8.88069
G1 X137.991 Y114.214 E8.91382
G1 X137.648 Y114.837 E8.94338
G1 X137.317 Y115.325 E8.9679
G1 X136.944 Y115.797 E8.99291
G1 X136.554 Y116.223 E9.01692
G1 X136.015 Y116.745 E9.04812
G1 X135.721 Y116.994 E9.06414
G1 X135.017 Y117.517 E9.1006
G1 X134.488 Y117.84 E9.12637
G1 X133.878 Y118.155 E9.15491
G1 X133.627 Y118.269 E9.16637
G1 X133.169 Y118.446 E9.18679
G1 X132.493 Y118.661 E9.21628
G1 X132.146 Y118.748 E9.23115
G1 X131.299 Y118.895 E9.26689
G1 X130.675 Y118.934 E9.29288
G1 X130.19 Y118.919 E9.31306
G1 X128.818 Y118.832 E9.37021
G1 X128.245 Y118.729 E9.39442
G1 X127.28 Y118.444 E9.43625
G1 X126.576 Y118.158 E9.46784
G1 X126.096 Y117.918 E9.49015
G1 X125.316 Y117.453 E9.52791
G1 X124.813 Y117.088 E9.55375
G1 X124.363 Y116.713 E9.5781
G1 X123.933 Y116.295 E9.60303
G1 X123.359 Y115.653 E9.63884
G1 X123.067 Y115.267 E9.65896
G1 X122.658 Y114.632 E9.69036
G1 X122.417 Y114.195 E9.71111
G1 X122.154 Y113.631 E9.73698
G1 X122.016 Y113.282 E9.75258
G1 X121.759 Y112.473 E9.78788
G1 X121.615 Y111.836 E9.81503
G1 X121.514 Y111.05 E9.84797
G1 X121.456 Y110.157 E9.88518
G1 X121.49 Y109.358 E9.91843
G1 X121.552 Y108.805 E9.94156
G1 X121.727 Y107.961 E9.9774
G1 X121.855 Y107.5 E9.99729
G1 X122.075 Y106.88 E10.02464
G1 X122.39 Y106.152 E10.05762
G1 X122.542 Y105.863 E10.0712
G1 X122.962 Y105.196 E10.10397
G1 X123.265 Y104.778 E10.12543
G1 X123.615 Y104.351 E10.14838
G0 F6000 X123.228 Y104.034
G1 F900 X123.955 Y103.297 E10.19142
G1 X124.345 Y102.969 E10.21261
G1 X124.994 Y102.493 E10.24607
G1 X125.908 Y101.949 E10.29029
G1 X126.489 Y101.685 E10.31682
G1 X127.215 Y101.403 E10.3492
G1 X128.105 Y101.154 E10.38763
G1 X128.719 Y101.047 E10.41354
G1 X130.73 Y100.946 E10.49725
G1 X131.23 Y100.977 E10.51808
G1 X132.56 Y101.213 E10.57424
G1 X133.28 Y101.434 E10.60555
G1 X133.86 Y101.656 E10.63137
G1 X134.736 Y102.082 E10.67187
G1 X135.551 Y102.593 E10.71186
G1 X136.272 Y103.159 E10.74997
G1 X136.599 Y103.457 E10.76836
G1 X137.193 Y104.077 E10.80406
G1 X137.409 Y104.334 E10.81802
G1 X137.854 Y104.933 E10.84904
G1 X138.204 Y105.474 E10.87583
G1 X138.535 Y106.094 E10.90505
G1 X138.964 Y107.104 E10.95067
G1 X139.102 Y107.512 E10.96858
G1 X139.232 Y108 E10.98958
G1 X139.351 Y108.545 E11.01277
G1 X139.464 Y109.387 E11.04809
G1 X139.49 Y110.125 E11.07879
G1 X139.482 Y110.537 E11.09592
G1 X139.409 Y111.393 E11.13164
G1 X139.333 Y111.861 E11.15135
G1 X139.173 Y112.567 E11.18145
G1 X139.014 Y113.097 E11.20445
G1 X138.793 Y113.671 E11.23003
G1 X138.445 Y114.424 E11.26451
G1 X138.062 Y115.118 E11.29747
G1 X137.731 Y115.606 E11.32198
G1 X137.313 Y116.135 E11.35001
G1 X136.923 Y116.561 E11.37403
G1 X136.338 Y117.127 E11.40787
G1 X136.044 Y117.376 E11.42389
G1 X135.278 Y117.944 E11.46353
G1 X134.749 Y118.267 E11.4893
G1 X134.085 Y118.61 E11.52037
G1 X133.834 Y118.724 E11.53183
G1 X133.321 Y118.922 E11.5547
G1 X132.615 Y119.146 E11.58549
G1 X132.231 Y119.241 E11.60194
G1 X131.384 Y119.388 E11.63768
G1 X130.66 Y119.434 E11.66784
G1 X130.158 Y119.418 E11.68872
G1 X128.786 Y119.331 E11.74588
G1 X128.103 Y119.209 E11.77472
G1 X127.138 Y118.924 E11.81655
G1 X126.352 Y118.605 E11.85182
G1 X125.872 Y118.365 E11.87413
G1 X125.022 Y117.858 E11.91528
G1 X124.519 Y117.493 E11.94112
G1 X124.014 Y117.072 E11.96845
G1 X123.584 Y116.654 E11.99338
G1 X122.96 Y115.955 E12.03234
G1 X122.668 Y115.569 E12.05246
G1 X122.22 Y114.873 E12.08688
G1 X121.979 Y114.436 E12.10762
G1 X121.689 Y113.815 E12.13612
G1 X121.539 Y113.433 E12.15318
G1 X121.282 Y112.624 E12.18847
G1 X121.127 Y111.946 E12.21739
G1 X121.018 Y111.114 E12.25227
G1 X120.956 Y110.136 E12.29301
G1 X120.99 Y109.337 E12.32626
G1 X121.062 Y108.703 E12.35279
G1 X121.237 Y107.859 E12.38863
G1 X121.373 Y107.366 E12.40989
G1 X121.616 Y106.681 E12.44011
G1 X121.947 Y105.919 E12.47465
G1 X122.099 Y105.63 E12.48822
G1 X122.557 Y104.903 E12.52395
G1 X122.878 Y104.461 E12.54666
G1 X123.228 Y104.034 E12.56961
G1 F1500 E6.06961
;MESH:E3D_V6_insert_fine_thread.stl
G0 F6000 X126.277 Y106.743
G0 X127.07 Y107.483
G0 X127.898 Y107.718
G0 X127.992 Y107.804
;TYPE:WALL-INNER
G1 F1500 E12.56961
G1 F831.8 X128.479 Y107.438 E12.59702
G1 F830.3 X128.479 Y106.819 E12.62491
G1 X128.119 Y107.037 E12.64388
G1 F827.2 X127.787 Y107.273 E12.66231
G1 F825.7 X127.534 Y107.503 E12.6778
G1 F830.3 X127.247 Y107.812 E12.69681
G1 X126.925 Y108.292 E12.72285
G1 F827.2 X126.709 Y108.759 E12.74613
G1 F825.7 X126.556 Y109.257 E12.76974
G1 X126.48 Y109.824 E12.79566
G1 F815.2 X126.467 Y110.174 E12.81174
G1 F795.1 X126.553 Y110.887 E12.84554
G1 F773.2 X126.638 Y111.223 E12.86231
G1 F751.3 X126.791 Y111.646 E12.88471
G1 F731.7 X126.989 Y112.03 E12.90681
G1 F708.7 X127.278 Y112.445 E12.93351
G1 F693.4 X127.53 Y112.727 E12.95392
G1 F677.7 X127.866 Y113.03 E12.9789
G1 F665.7 X128.153 Y113.24 E12.99889
G1 X128.412 Y113.396 E13.01588
G1 F671.6 X128.412 Y112.596 E13.06045
G1 F683.9 X127.97 Y112.247 E13.09126
