;FLAVOR:Marlin
;TIME:484
;Filament used: 0.098913m
;Layer height: 0.12
;MINX:115.742
;MINY:95.8
;MINZ:0.12
;MAXX:144.258
;MAXY:124.2
;MAXZ:5.76
;POSTPROCESSED
;Generated with Cura_SteamEngine 5.3.1
;
;

M82 ;absolute extrusion mode
START_PRINT EXTRUDER_TEMP=240 BED_TEMP=80 RELATIVE_E_MODE=False PROBE=false PROBE_AREA_START=%MINX%,%MINY% PROBE_AREA_END=%MAXX%,%MAXY%
G92 E0
G92 E0
G1 F1500 E-6.5
;LAYER_COUNT:48
;LAYER:0
M107
G0 F6000 X119.265 Y100.244 Z0.12
;TYPE:SKIRT
G1 F1500 E0
G1 F900 X119.892 Y99.592 E0.02166
G1 X120.575 Y98.997 E0.04335
G1 X121.307 Y98.466 E0.06501
G1 X122.083 Y98.001 E0.08667
G1 X122.897 Y97.606 E0.10834
G1 X123.743 Y97.285 E0.13001
G1 X124.614 Y97.039 E0.15168
G1 X125.503 Y96.872 E0.17335
G1 X126.664 Y96.773 E0.20125
G1 X127.272 Y96.76 E0.21581
G1 X129.932 Y96.76 E0.27951
G1 X130.805 Y96.771 E0.30042
G1 X131.708 Y96.823 E0.32208
G1 X132.603 Y96.955 E0.34374
G1 X133.86 Y97.281 E0.37484
G1 X134.338 Y97.438 E0.38689
G1 X135.185 Y97.758 E0.40857
G1 X135.945 Y98.117 E0.4287
G1 X136.825 Y98.604 E0.45279
G1 X137.209 Y98.842 E0.46361
G1 X137.956 Y99.352 E0.48527
G1 X138.596 Y99.868 E0.50495
G1 X139.244 Y100.45 E0.52581
G1 X139.939 Y101.185 E0.55003
G1 X140.174 Y101.457 E0.55864
G1 X140.818 Y102.286 E0.58378
G1 X140.999 Y102.545 E0.59135
G1 X141.485 Y103.309 E0.61303
G1 X141.876 Y104.045 E0.63299
G1 X142.3 Y104.963 E0.65721
G1 X142.611 Y105.818 E0.67899
G1 X142.732 Y106.196 E0.6885
G1 X142.969 Y107.069 E0.71016
G1 X143.101 Y107.767 E0.72717
G1 X143.158 Y108.139 E0.73618
G1 X143.27 Y109.34 E0.76507
G1 X143.298 Y110.339 E0.789
G1 X143.296 Y112.465 E0.83991
G1 X143.287 Y113.129 E0.85582
G1 X143.235 Y114.032 E0.87748
G1 X143.103 Y114.927 E0.89914
G1 X142.893 Y115.807 E0.92081
G1 X142.606 Y116.666 E0.9425
G1 X142.244 Y117.495 E0.96416
G1 X141.81 Y118.289 E0.98583
G1 X141.308 Y119.042 E1.0075
G1 X140.742 Y119.748 E1.02917
G1 X140.115 Y120.4 E1.05083
G1 X139.433 Y120.995 E1.0725
G1 X138.702 Y121.528 E1.09417
G1 X137.926 Y121.994 E1.11585
G1 X137.112 Y122.389 E1.13751
G1 X136.266 Y122.711 E1.15919
G1 X135.396 Y122.957 E1.18084
G1 X134.506 Y123.126 E1.20253
G1 X133.356 Y123.225 E1.23018
G1 X132.708 Y123.24 E1.2457
G1 X130 Y123.237 E1.31055
G1 X129.328 Y123.229 E1.32664
G1 X128.425 Y123.179 E1.3483
G1 X127.304 Y123.003 E1.37547
G1 X126.884 Y122.913 E1.38576
G1 X126.009 Y122.684 E1.40742
G1 X125.002 Y122.314 E1.43311
G1 X124.586 Y122.136 E1.44394
G1 X123.77 Y121.744 E1.46562
G1 X123.229 Y121.432 E1.48058
G1 X122.878 Y121.215 E1.49046
G1 X122.087 Y120.673 E1.51342
G1 X121.763 Y120.428 E1.52315
G1 X121.066 Y119.851 E1.54482
G1 X120.134 Y118.889 E1.5769
G1 X119.655 Y118.325 E1.59462
G1 X119.1 Y117.61 E1.61629
G1 X118.548 Y116.739 E1.64098
G1 X118.316 Y116.329 E1.65227
G1 X117.905 Y115.523 E1.67393
G1 X117.628 Y114.85 E1.69136
G1 X117.504 Y114.516 E1.69989
G1 X117.153 Y113.368 E1.72864
G1 X117.026 Y112.845 E1.74153
G1 X116.852 Y111.957 E1.7632
G1 X116.74 Y110.672 E1.79409
G1 X116.702 Y108.956 E1.83519
G1 X116.703 Y107.548 E1.86891
G1 X116.713 Y106.86 E1.88539
G1 X116.766 Y105.957 E1.90705
G1 X116.899 Y105.062 E1.92872
G1 X117.11 Y104.182 E1.95039
G1 X117.398 Y103.324 E1.97206
G1 X117.761 Y102.495 E1.99373
G1 X118.195 Y101.701 E2.0154
G1 X118.698 Y100.949 E2.03707
G1 X119.265 Y100.244 E2.05873
G0 F6000 X118.919 Y99.911
G1 F900 X119.546 Y99.259 E2.08039
G1 X120.293 Y98.608 E2.10412
G1 X121.025 Y98.077 E2.12578
G1 X121.873 Y97.569 E2.14945
G1 X122.687 Y97.174 E2.17112
G1 X123.573 Y96.836 E2.19383
G1 X124.525 Y96.567 E2.21752
G1 X125.414 Y96.4 E2.23918
G1 X126.654 Y96.293 E2.26898
G1 X127.262 Y96.28 E2.28355
G1 X129.938 Y96.28 E2.34763
G1 X130.833 Y96.292 E2.36906
G1 X131.778 Y96.348 E2.39173
G1 X132.724 Y96.49 E2.41464
G1 X133.981 Y96.816 E2.44574
G1 X134.508 Y96.989 E2.45902
G1 X135.355 Y97.309 E2.48071
G1 X136.15 Y97.683 E2.50175
G1 X137.078 Y98.196 E2.52714
G1 X137.48 Y98.446 E2.53847
G1 X138.257 Y98.978 E2.56103
G1 X138.917 Y99.511 E2.58134
G1 X139.593 Y100.12 E2.60313
G1 X140.302 Y100.871 E2.62786
G1 X140.553 Y101.163 E2.63708
G1 X141.211 Y102.011 E2.66279
G1 X141.404 Y102.287 E2.67085
G1 X141.89 Y103.051 E2.69254
G1 X142.312 Y103.844 E2.71405
G1 X142.736 Y104.762 E2.73826
G1 X143.068 Y105.672 E2.76146
G1 X143.195 Y106.07 E2.77146
G1 X143.441 Y106.98 E2.79404
G1 X143.575 Y107.694 E2.81144
G1 X143.636 Y108.094 E2.82113
G1 X143.75 Y109.327 E2.85078
G1 X143.778 Y110.339 E2.87502
G1 X143.776 Y112.472 E2.9261
G1 X143.766 Y113.157 E2.94251
G1 X143.71 Y114.102 E2.96518
G1 X143.578 Y114.997 E2.98684
G1 X143.36 Y115.918 E3.00951
G1 X143.046 Y116.858 E3.03324
G1 X142.684 Y117.687 E3.0549
G1 X142.231 Y118.519 E3.07759
G1 X141.683 Y119.342 E3.10127
G1 X141.088 Y120.081 E3.12399
G1 X140.431 Y120.762 E3.14665
G1 X139.749 Y121.357 E3.16832
G1 X138.949 Y121.94 E3.19203
G1 X138.136 Y122.426 E3.21471
G1 X137.283 Y122.838 E3.23739
G1 X136.437 Y123.16 E3.25907
G1 X135.486 Y123.429 E3.28274
G1 X134.596 Y123.598 E3.30443
G1 X133.367 Y123.705 E3.33398
G1 X132.707 Y123.72 E3.34978
G1 X129.994 Y123.717 E3.41475
G1 X129.301 Y123.708 E3.43135
G1 X128.351 Y123.653 E3.45414
G1 X127.203 Y123.472 E3.48197
G1 X126.762 Y123.377 E3.49277
G1 X125.843 Y123.135 E3.51553
G1 X124.836 Y122.765 E3.54122
G1 X124.378 Y122.569 E3.55315
G1 X123.53 Y122.16 E3.5757
G1 X122.977 Y121.84 E3.591
G1 X122.607 Y121.611 E3.60142
G1 X121.797 Y121.056 E3.62493
G1 X121.457 Y120.798 E3.63515
G1 X120.721 Y120.185 E3.65809
G1 X119.768 Y119.2 E3.69091
G1 X119.289 Y118.636 E3.70863
G1 X118.695 Y117.867 E3.7319
G1 X118.13 Y116.975 E3.75719
G1 X117.888 Y116.547 E3.76896
G1 X117.461 Y115.706 E3.79155
G1 X117.178 Y115.017 E3.80939
G1 X117.045 Y114.656 E3.8186
G1 X116.694 Y113.508 E3.84735
G1 X116.555 Y112.937 E3.86142
G1 X116.374 Y111.999 E3.8843
G1 X116.26 Y110.683 E3.91593
G1 X116.222 Y108.956 E3.9573
G1 X116.223 Y107.541 E3.99118
G1 X116.234 Y106.832 E4.00816
G1 X116.291 Y105.886 E4.03086
G1 X116.424 Y104.991 E4.05253
G1 X116.643 Y104.07 E4.0752
G1 X116.958 Y103.131 E4.09891
G1 X117.321 Y102.302 E4.12059
G1 X117.796 Y101.434 E4.14428
G1 X118.324 Y100.648 E4.16696
G1 X118.919 Y99.911 E4.18964
G0 F6000 X118.573 Y99.578
G1 F900 X119.2 Y98.926 E4.2113
G1 X120.011 Y98.219 E4.23707
G1 X120.743 Y97.688 E4.25872
G1 X121.663 Y97.137 E4.2844
G1 X122.477 Y96.742 E4.30607
G1 X123.442 Y96.374 E4.3308
G1 X124.436 Y96.095 E4.35553
G1 X125.325 Y95.928 E4.37719
G1 X126.644 Y95.813 E4.40889
G1 X127.252 Y95.8 E4.42346
G1 X129.944 Y95.8 E4.48792
G1 X130.861 Y95.813 E4.50988
G1 X131.849 Y95.873 E4.53359
G1 X132.845 Y96.025 E4.55772
G1 X134.102 Y96.351 E4.58881
G1 X134.678 Y96.54 E4.60333
G1 X135.525 Y96.86 E4.62501
G1 X136.382 Y97.263 E4.64769
G1 X137.331 Y97.788 E4.67366
G1 X137.751 Y98.05 E4.68552
G1 X138.559 Y98.605 E4.70899
G1 X139.238 Y99.154 E4.7299
G1 X139.942 Y99.79 E4.75262
G1 X140.666 Y100.558 E4.7779
G1 X140.932 Y100.869 E4.7877
G1 X141.604 Y101.736 E4.81397
G1 X141.809 Y102.029 E4.82253
G1 X142.295 Y102.793 E4.84421
G1 X142.748 Y103.643 E4.86728
G1 X143.187 Y104.597 E4.89243
G1 X143.525 Y105.526 E4.9161
G1 X143.658 Y105.945 E4.92663
G1 X143.913 Y106.891 E4.95009
G1 X144.05 Y107.622 E4.9679
G1 X144.111 Y108.022 E4.97759
G1 X144.23 Y109.314 E5.00866
G1 X144.258 Y110.339 E5.03322
G1 X144.256 Y112.479 E5.08447
G1 X144.245 Y113.185 E5.10137
G1 X144.185 Y114.172 E5.12505
G1 X144.053 Y115.067 E5.14672
G1 X143.827 Y116.029 E5.17038
G1 X143.486 Y117.05 E5.19616
G1 X143.106 Y117.917 E5.21883
G1 X142.653 Y118.749 E5.24152
G1 X142.083 Y119.608 E5.2662
G1 X141.462 Y120.382 E5.28997
G1 X140.747 Y121.124 E5.31464
G1 X140.065 Y121.719 E5.33632
G1 X139.232 Y122.328 E5.36103
G1 X138.345 Y122.858 E5.38577
G1 X137.454 Y123.287 E5.40945
G1 X136.608 Y123.609 E5.43113
G1 X135.576 Y123.901 E5.45681
G1 X134.686 Y124.07 E5.47851
G1 X133.378 Y124.185 E5.50995
G1 X132.706 Y124.2 E5.52605
G1 X129.988 Y124.197 E5.59114
G1 X129.273 Y124.187 E5.60826
G1 X128.276 Y124.127 E5.63218
G1 X127.102 Y123.941 E5.66064
G1 X126.64 Y123.841 E5.67196
G1 X125.677 Y123.586 E5.69582
G1 X124.67 Y123.216 E5.72151
G1 X124.169 Y123.001 E5.73457
G1 X123.321 Y122.592 E5.75711
G1 X122.724 Y122.248 E5.77361
G1 X122.336 Y122.007 E5.78455
G1 X121.507 Y121.438 E5.80863
G1 X121.15 Y121.167 E5.81936
G1 X120.376 Y120.519 E5.84354
G1 X119.402 Y119.511 E5.8771
G1 X118.909 Y118.929 E5.89537
G1 X118.315 Y118.16 E5.91864
G1 X117.712 Y117.211 E5.94556
G1 X117.46 Y116.764 E5.95785
G1 X117.017 Y115.888 E5.98136
G1 X116.728 Y115.183 E5.99961
G1 X116.586 Y114.796 E6.00948
G1 X116.228 Y113.622 E6.03887
G1 X116.084 Y113.028 E6.05351
G1 X115.896 Y112.04 E6.07759
G1 X115.78 Y110.694 E6.10994
G1 X115.742 Y108.956 E6.15158
G1 X115.743 Y107.534 E6.18563
G1 X115.755 Y106.803 E6.20314
G1 X115.816 Y105.815 E6.22684
G1 X115.949 Y104.92 E6.24851
G1 X116.188 Y103.917 E6.2732
G1 X116.518 Y102.938 E6.29794
G1 X116.881 Y102.109 E6.31961
G1 X117.398 Y101.166 E6.34537
G1 X117.951 Y100.346 E6.36905
G1 X118.573 Y99.578 E6.39272
G1 F1500 E-0.10728
;MESH:M3_T-slot_nuts_v21.stl
G0 F6000 X127.761 Y109.114
;TYPE:WALL-INNER
G1 F1500 E6.39272
G1 F711.7 X128.02 Y108.562 E6.41118
G1 F710.5 X128.281 Y108.261 E6.42327
G1 X128.802 Y107.912 E6.44229
G1 F735.9 X129.332 Y107.759 E6.45845
G1 X128.86 Y107.784 E6.47229
G1 F710.5 X127.726 Y107.784 E6.50669
G1 F712.9 X127.725 Y109.194 E6.54931
G1 F743.5 X127.701 Y109.574 E6.56035
G1 F742.3 X127.761 Y109.114 E6.57382
G0 F6000 X127.701 Y109.574
G1 F784 X127.694 Y109.72 E6.57784
G1 F786.9 X127.698 Y110.13 E6.58907
G1 F760.6 X127.75 Y110.404 E6.59697
G1 F734.7 X127.829 Y110.7 E6.60596
G1 F707 X127.933 Y110.937 E6.61385
G1 F679.2 X128.121 Y111.257 E6.62563
G1 F660.6 X128.452 Y111.631 E6.64192
G1 F630.7 X128.717 Y111.817 E6.65299
G1 F605.9 X128.937 Y111.951 E6.66215
G1 F595.9 X129.448 Y112.145 E6.68192
G1 F579.1 X130.186 Y112.14 E6.70939
G1 F1500 E0.20939
G0 F6000 X131.81 Y111.642
G1 F1500 E6.70939
G1 F660.6 X131.73 Y111.642 E6.712
G1 X131.689 Y111.712 E6.71464
G1 X131.73 Y111.782 E6.71729
G1 X131.81 Y111.782 E6.7199
G1 X131.851 Y111.712 E6.72255
G0 F6000 X131.018 Y111.65
G1 F900 X130.69 Y111.838 E6.7316
G1 F890.7 X130.522 Y111.913 E6.73605
G1 F690.1 X130.186 Y112.14 E6.74872
G1 X130.569 Y112.273 E6.76138
G1 F890.7 X132.337 Y112.279 E6.80416
G1 F900 X132.337 Y110.825 E6.83898
G1 F955.8 X132.365 Y110.198 E6.85313
G1 F915.3 X132.177 Y109.806 E6.86337
G1 X131.941 Y110.17 E6.87358
G1 F979.6 X131.895 Y110.451 E6.87985
G1 F923.1 X131.774 Y110.786 E6.88817
G1 F900 X131.521 Y111.134 E6.89847
G1 X131.284 Y111.401 E6.90702
G1 X131.018 Y111.65 E6.91574
G1 F1500 E0.41574
G0 F6000 X132.166 Y109.807
G1 F1500 E6.91574
G1 F545.5 X132.111 Y109.421 E6.93115
G1 F558.1 X132.036 Y109.172 E6.94119
G1 F584.6 X131.869 Y108.789 E6.9566
G1 F622.5 X131.503 Y108.327 E6.977
G1 F642.9 X131.132 Y108.062 E6.99229
G1 F675 X130.85 Y107.891 E7.00282
G1 F700.2 X130.522 Y107.789 E7.01339
G1 F728.5 X130.134 Y107.739 E7.02497
G1 F789.8 X129.456 Y107.742 E7.04347
G1 F1500 E0.54347
G0 F6000 X128.554 Y110.899
;TYPE:WALL-OUTER
G1 F1500 E7.04347
G1 F900 X128.334 Y110.519 E7.05399
G1 X128.212 Y110.085 E7.06478
G1 X128.21 Y109.673 E7.07465
G1 X128.289 Y109.27 E7.08448
G1 X128.467 Y108.891 E7.09451
G1 X128.63 Y108.687 E7.10076
G1 X129.03 Y108.414 E7.11236
G1 X129.542 Y108.237 E7.12533
G1 X130.082 Y108.238 E7.13826
G1 X130.598 Y108.38 E7.15108
G1 X131.032 Y108.698 E7.16396
G1 X131.339 Y109.078 E7.17566
G1 X131.478 Y109.464 E7.18549
G1 X131.523 Y109.835 E7.19444
G1 X131.476 Y110.224 E7.20382
G1 X131.343 Y110.562 E7.21252
G1 X131.159 Y110.819 E7.22009
G1 X130.956 Y111.051 E7.22747
G1 X130.732 Y111.261 E7.23482
G1 X130.426 Y111.436 E7.24327
G1 X130.08 Y111.528 E7.25184
G1 X129.608 Y111.542 E7.26315
G1 X129.164 Y111.396 E7.27434
G1 X128.807 Y111.165 E7.28452
G1 X128.554 Y110.899 E7.29331
G1 F1500 E0.79331
G0 F6000 X129.765 Y112.75
M104 S240
G1 F1500 E7.29331
G1 F900 X129.909 Y112.758 E7.29677
G1 X132.817 Y112.759 E7.36641
G1 X132.817 Y109.766 E7.43808
G1 X132.741 Y109.331 E7.44866
G1 X132.616 Y108.934 E7.45862
G1 X132.409 Y108.531 E7.46947
G1 X132.233 Y108.282 E7.47677
G1 X131.906 Y107.925 E7.48837
G1 X131.663 Y107.723 E7.49593
G1 X131.418 Y107.566 E7.5029
G1 X131.068 Y107.385 E7.51234
G1 X130.606 Y107.24 E7.52393
G1 X127.182 Y107.24 E7.60593
G1 X127.182 Y110.164 E7.67595
G1 X127.231 Y110.518 E7.68451
G1 X127.292 Y110.788 E7.69114
G1 X127.428 Y111.169 E7.70083
G1 X127.667 Y111.586 E7.71234
G1 X127.929 Y111.91 E7.72232
G1 X128.139 Y112.123 E7.72948
G1 X128.379 Y112.305 E7.73669
G1 X128.698 Y112.505 E7.74571
G1 X129.133 Y112.684 E7.75697
G1 X129.445 Y112.758 E7.76465
G1 X129.765 Y112.75 E7.77232
G1 F1500 E1.27232
;MESH:NONMESH
G0 F300 X129.765 Y112.75 Z0.24
G0 F6000 X128.191 Y108.32
;TIME_ELAPSED:30.780543
;LAYER:1
M106 S51
;TYPE:WALL-INNER
;MESH:M3_T-slot_nuts_v21.stl
G1 F1500 E7.77232
G1 F598.5 X128.497 Y108.001 E7.78116
G1 X127.828 Y108.001 E7.79454
G1 X127.829 Y108.915 E7.81283
G1 X128.191 Y108.32 E7.82676
G1 F1500 E1.32676
G0 F10500 X128.396 Y111.073
G1 F1500 E7.82676
G1 F436.4 X128.156 Y110.652 E7.84006
G1 F443.6 X128.023 Y110.216 E7.85236
G1 F451.1 X127.999 Y109.676 E7.86671
G1 F484.8 X128.203 Y109.07 E7.8825
G1 F558.1 X128.546 Y108.503 E7.89672
G1 F600 X129.033 Y108.115 E7.90914
G1 X129.43 Y107.935 E7.91784
G1 F589.7 X129.561 Y107.885 E7.92069
G1 F463.3 X129.908 Y107.712 E7.93071
G1 F466.9 X129.51 Y107.601 E7.9413
G1 F595.5 X127.427 Y107.601 E7.98319
G1 F600 X127.429 Y109.178 E8.01466
G1 F520.6 X127.49 Y109.598 E8.02442
G1 F458 X127.493 Y110.177 E8.03955
G1 F453.7 X127.532 Y110.431 E8.04634
G1 F445.3 X127.656 Y110.867 E8.05853
G1 F434 X127.759 Y111.098 E8.0655
G1 F427 X127.911 Y111.354 E8.07385
G1 F456.3 X128.055 Y111.622 E8.08183
G1 F515 X128.247 Y111.895 E8.08959
G1 F568.7 X128.534 Y112.109 E8.09713
G1 F600 X128.845 Y112.302 E8.10444
G1 F591.1 X129.107 Y112.408 E8.11016
G1 F571.4 X129.516 Y112.387 E8.11874
G1 F522.9 X129.796 Y112.353 E8.1252
G1 F494.8 X130 Y112.36 E8.13014
G1 F495.9 X130.483 Y112.356 E8.1418
G1 F515 X130.881 Y112.399 E8.15111
G1 F568.7 X132.572 Y112.4 E8.18671
G1 F594.1 X132.567 Y110.471 E8.22559
G1 F563.4 X132.549 Y110.145 E8.23253
G1 F543 X132.551 Y109.904 E8.23785
G1 F558.1 X132.513 Y109.461 E8.24738
G1 F572.8 X132.398 Y109.082 E8.25566
G1 F592.6 X132.247 Y108.733 E8.26335
G1 F617 X131.977 Y108.332 E8.27273
G1 F634.9 X131.648 Y108 E8.28154
G1 F668.5 X131.401 Y107.812 E8.2871
G1 F679.9 X131.11 Y107.655 E8.29293
G1 F562.1 X130.9 Y107.577 E8.2977
G1 F427 X130.466 Y107.715 E8.31047
G1 F483.9 X130.829 Y107.941 E8.32105
G1 F678 X131.145 Y108.059 E8.32701
G1 F676.1 X131.304 Y108.172 E8.33046
G1 F640 X131.691 Y108.592 E8.34115
G1 F601.5 X131.948 Y109.034 E8.35132
G1 F571.4 X132.1 Y109.556 E8.36272
G1 F556.8 X132.114 Y110.076 E8.3739
G1 F560.7 X132.003 Y110.486 E8.38297
G1 F576.9 X131.813 Y110.905 E8.39252
G1 F592.6 X131.535 Y111.267 E8.40174
G1 F600 X131.175 Y111.559 E8.41099
G1 F583.9 X130.714 Y111.776 E8.42144
G1 F529.8 X130.403 Y111.881 E8.42886
G1 F493.8 X129.885 Y111.88 E8.44142
G1 F533.3 X129.532 Y111.749 E8.44987
G1 F591.1 X128.783 Y111.33 E8.46726
G1 F600 X128.727 Y111.285 E8.46869
G1 F503.1 X128.396 Y111.073 E8.47804
G0 F10500 X128.473 Y111.565
G1 F638.3 X128.603 Y111.686 E8.48137
G1 F592.6 X129.029 Y111.937 E8.49137
G1 F588.2 X129.164 Y112.001 E8.49441
G1 F1500 E1.99441
G0 F10500 X131.495 Y111.839
G1 F1500 E8.49441
G1 F547.9 X131.263 Y111.98 E8.50034
G1 X132.153 Y111.981 E8.51979
G1 X132.153 Y111.148 E8.53799
G1 X131.838 Y111.559 E8.54931
G1 X131.495 Y111.839 E8.55898
G1 F1500 E2.05898
G0 F10500 X130.466 Y107.715
G1 F1500 E8.55898
G1 F387.7 X130.045 Y107.705 E8.57199
G1 F389.6 X129.908 Y107.712 E8.5762
G1 F1500 E2.0762
G0 F10500 X129.015 Y111.004
;TYPE:WALL-OUTER
G1 F1500 E8.5762
G1 F600 X128.777 Y110.767 E8.5829
G1 X128.587 Y110.457 E8.59016
G1 X128.487 Y110.14 E8.59679
G1 X128.461 Y109.764 E8.60431
G1 X128.545 Y109.277 E8.61418
G1 X128.85 Y108.773 E8.62593
G1 X129.246 Y108.458 E8.63603
G1 X129.596 Y108.299 E8.6437
G1 X130.01 Y108.212 E8.65214
G1 X130.464 Y108.23 E8.66121
G1 X130.983 Y108.391 E8.67206
G1 X131.37 Y108.819 E8.68357
G1 X131.563 Y109.164 E8.69146
G1 X131.685 Y109.598 E8.70046
G1 X131.69 Y110.035 E8.70918
G1 X131.614 Y110.374 E8.71611
