;FLAVOR:Marlin
;TIME:7326
;Filament used: 4.62719m
;Layer height: 0.2
;MINX:49.2
;MINY:21.362
;MINZ:0.32
;MAXX:210.8
;MAXY:198.638
;MAXZ:0.92
;POSTPROCESSED
;Generated with Cura_SteamEngine 5.3.1
;
;

M82 ;absolute extrusion mode
START_PRINT EXTRUDER_TEMP=250.0 BED_TEMP=100 RELATIVE_E_MODE=False PROBE=false PROBE_AREA_START=%MINX%,%MINY% PROBE_AREA_END=%MAXX%,%MAXY%
G92 E0
G92 E0
G1 F1500 E-6.5
;LAYER_COUNT:4
;LAYER:0
M107
G0 F6000 X68.794 Y50.203 Z0.32
;TYPE:SKIRT
G1 F1500 E0
G1 F900 X69.252 Y49.61 E0.04785
G1 X69.915 Y48.844 E0.11254
G1 X73.524 Y44.813 E0.45806
G1 X74.041 Y44.257 E0.50654
G1 X74.813 Y43.516 E0.57487
G1 X78.715 Y39.901 E0.91456
G1 X79.25 Y39.424 E0.96033
G1 X80.127 Y38.727 E1.03187
G1 X84.27 Y35.56 E1.36488
G1 X84.846 Y35.138 E1.41048
G1 X85.841 Y34.491 E1.48627
G1 X90.207 Y31.772 E1.81473
G1 X90.785 Y31.428 E1.85768
G1 X91.877 Y30.86 E1.93629
G1 X96.432 Y28.601 E2.26097
G1 X97.144 Y28.264 E2.31128
G1 X97.76 Y28.007 E2.3539
G1 X100.872 Y26.77 E2.56776
G1 X101.618 Y26.489 E2.61866
G1 X102.895 Y26.083 E2.70423
G1 X105.329 Y25.277 E2.86797
G1 X106.467 Y24.975 E2.94316
G1 X111.402 Y23.778 E3.26744
G1 X111.975 Y23.647 E3.30497
G1 X113.31 Y23.426 E3.39139
G1 X118.25 Y22.724 E3.71002
G1 X118.779 Y22.656 E3.74408
G1 X120.082 Y22.567 E3.82748
G1 X125.104 Y22.34 E4.14851
G1 X125.82 Y22.322 E4.19425
G1 X126.961 Y22.358 E4.26715
G1 X132.022 Y22.613 E4.59076
G1 X132.771 Y22.665 E4.6387
G1 X133.894 Y22.808 E4.71099
G1 X139.039 Y23.559 E5.04303
G1 X139.72 Y23.673 E5.08713
G1 X140.83 Y23.923 E5.15979
G1 X145.959 Y25.173 E5.49691
G1 X146.657 Y25.358 E5.54302
G1 X147.701 Y25.697 E5.61312
G1 X152.794 Y27.454 E5.95716
G1 X153.489 Y27.708 E6.00442
G1 X154.455 Y28.124 E6.07158
G1 X159.477 Y30.39 E6.42342
G1 X160.07 Y30.669 E6.46527
G1 X161.055 Y31.2 E6.53673
G1 X165.987 Y33.986 E6.89846
G1 X166.66 Y34.384 E6.94839
G1 X167.378 Y34.861 E7.00344
G1 X172.163 Y38.16 E7.37459
G1 X172.77 Y38.591 E7.42213
G1 X173.49 Y39.162 E7.48081
G1 X178.106 Y42.978 E7.86327
G1 X178.593 Y43.393 E7.90413
G1 X179.265 Y44.03 E7.96326
G1 X183.596 Y48.287 E8.35107
G1 X184.062 Y48.757 E8.39334
G1 X184.675 Y49.447 E8.45228
G1 X188.685 Y54.12 E8.84551
G1 X189.15 Y54.677 E8.89184
G1 X189.634 Y55.326 E8.94354
G1 X193.349 Y60.472 E9.34885
G1 X193.742 Y61.033 E9.39259
G1 X194.211 Y61.782 E9.44902
G1 X197.476 Y67.208 E9.85342
G1 X197.934 Y68.002 E9.91195
G1 X198.242 Y68.606 E9.95525
G1 X201.084 Y74.364 E10.3653
G1 X201.42 Y75.068 E10.41512
G1 X201.741 Y75.838 E10.46839
G1 X204.141 Y81.922 E10.88605
G1 X204.453 Y82.767 E10.94357
G1 X204.627 Y83.319 E10.98053
G1 X206.531 Y89.623 E11.40106
G1 X206.726 Y90.301 E11.44611
G1 X206.91 Y91.092 E11.49798
G1 X208.273 Y97.448 E11.91309
G1 X208.419 Y98.172 E11.96026
G1 X208.537 Y98.956 E12.01089
G1 X209.374 Y105.387 E12.42503
G1 X209.469 Y106.23 E12.47921
G1 X209.513 Y106.941 E12.5247
G1 X209.815 Y113.358 E12.93494
G1 X209.84 Y114.202 E12.98886
G1 X209.826 Y114.883 E13.03236
G1 X209.595 Y121.31 E13.44305
G1 X209.558 Y122.052 E13.49049
G1 X209.478 Y122.838 E13.54094
G1 X208.716 Y129.17 E13.94822
G1 X208.6 Y130.004 E14.00199
G1 X208.458 Y130.739 E14.04979
G1 X207.177 Y136.904 E14.4519
G1 X207.035 Y137.543 E14.4937
G1 X206.789 Y138.422 E14.55199
G1 X205.012 Y144.349 E14.94713
G1 X204.778 Y145.083 E14.99632
G1 X204.534 Y145.737 E15.0409
G1 X202.568 Y150.746 E15.38453
G1 X202.26 Y151.491 E15.43601
G1 X201.946 Y152.15 E15.48263
G1 X199.28 Y157.56 E15.86778
G1 X198.933 Y158.234 E15.91619
G1 X198.476 Y159.008 E15.97359
G1 X195.508 Y163.874 E16.33757
G1 X195.076 Y164.552 E16.38891
G1 X194.492 Y165.368 E16.45299
G1 X191.206 Y169.797 E16.80516
G1 X190.833 Y170.285 E16.84439
G1 X190.096 Y171.143 E16.91662
G1 X186.476 Y175.187 E17.26322
G1 X185.959 Y175.743 E17.3117
G1 X185.187 Y176.484 E17.38004
G1 X181.285 Y180.099 E17.71972
G1 X180.75 Y180.576 E17.76549
G1 X179.873 Y181.273 E17.83703
G1 X175.731 Y184.44 E18.16999
G1 X175.156 Y184.862 E18.21554
G1 X174.197 Y185.486 E18.2886
G1 X169.793 Y188.228 E18.6199
G1 X169.215 Y188.572 E18.66285
G1 X168.123 Y189.14 E18.74145
G1 X163.569 Y191.398 E19.06606
G1 X162.866 Y191.731 E19.11573
G1 X162.24 Y191.993 E19.15907
G1 X159.128 Y193.23 E19.37292
G1 X158.382 Y193.511 E19.42383
G1 X157.109 Y193.916 E19.50914
G1 X154.671 Y194.723 E19.67313
G1 X153.533 Y195.025 E19.74832
G1 X148.598 Y196.222 E20.07261
G1 X148.025 Y196.353 E20.11014
G1 X146.69 Y196.574 E20.19655
G1 X141.75 Y197.276 E20.51519
G1 X141.221 Y197.344 E20.54925
G1 X139.918 Y197.433 E20.63265
G1 X134.896 Y197.66 E20.95368
G1 X134.18 Y197.678 E20.99942
G1 X133.039 Y197.642 E21.07232
G1 X127.978 Y197.387 E21.39592
G1 X127.229 Y197.335 E21.44387
G1 X126.106 Y197.192 E21.51616
G1 X120.961 Y196.441 E21.8482
G1 X120.28 Y196.327 E21.89229
G1 X119.17 Y196.077 E21.96495
G1 X114.041 Y194.827 E22.30207
G1 X113.343 Y194.642 E22.34819
G1 X112.299 Y194.303 E22.41828
G1 X107.206 Y192.546 E22.76233
G1 X106.511 Y192.292 E22.80958
G1 X105.545 Y191.876 E22.87675
G1 X100.514 Y189.605 E23.22924
G1 X99.816 Y189.273 E23.2786
G1 X98.945 Y188.8 E23.34189
G1 X94.013 Y186.014 E23.70362
G1 X93.34 Y185.616 E23.75356
G1 X92.622 Y185.139 E23.8086
G1 X87.835 Y181.839 E24.1799
G1 X87.225 Y181.405 E24.2277
G1 X86.51 Y180.838 E24.28598
G1 X81.92 Y177.044 E24.66626
G1 X81.313 Y176.522 E24.71739
G1 X80.735 Y175.971 E24.76838
G1 X76.401 Y171.71 E25.15651
G1 X75.846 Y171.145 E25.20708
G1 X75.325 Y170.554 E25.2574
G1 X71.313 Y165.877 E25.6509
G1 X70.771 Y165.221 E25.70524
G1 X70.366 Y164.674 E25.7487
G1 X66.652 Y159.529 E26.15392
G1 X66.255 Y158.963 E26.19807
G1 X65.789 Y158.218 E26.25419
G1 X62.524 Y152.791 E26.65864
G1 X62.065 Y151.996 E26.71726
G1 X61.758 Y151.394 E26.76041
G1 X58.916 Y145.635 E27.17052
G1 X58.58 Y144.93 E27.2204
G1 X58.259 Y144.162 E27.27355
G1 X55.859 Y138.078 E27.69121
G1 X55.547 Y137.233 E27.74873
G1 X55.373 Y136.68 E27.78575
G1 X53.469 Y130.376 E28.20628
G1 X53.24 Y129.567 E28.25998
G1 X53.09 Y128.908 E28.30314
G1 X51.725 Y122.543 E28.71884
G1 X51.56 Y121.708 E28.7732
G1 X51.463 Y121.044 E28.81605
G1 X50.626 Y114.612 E29.23026
G1 X50.53 Y113.758 E29.28514
G1 X50.487 Y113.059 E29.32986
G1 X50.185 Y106.642 E29.7401
G1 X50.16 Y105.792 E29.7944
G1 X50.174 Y105.117 E29.83752
G1 X50.405 Y98.69 E30.24821
G1 X50.442 Y97.948 E30.29565
G1 X50.527 Y97.119 E30.34887
G1 X51.284 Y90.831 E30.75331
G1 X51.4 Y89.994 E30.80727
G1 X51.542 Y89.261 E30.85495
G1 X52.823 Y83.096 E31.25706
G1 X52.965 Y82.457 E31.29886
G1 X53.211 Y81.578 E31.35715
G1 X54.988 Y75.651 E31.75229
G1 X55.222 Y74.917 E31.80148
G1 X55.466 Y74.263 E31.84606
G1 X57.43 Y69.258 E32.1894
G1 X57.741 Y68.504 E32.24149
G1 X58.054 Y67.85 E32.28779
G1 X60.72 Y62.44 E32.67294
G1 X61.067 Y61.766 E32.72135
G1 X61.524 Y60.992 E32.77875
G1 X64.492 Y56.126 E33.14273
G1 X64.924 Y55.448 E33.19407
G1 X65.508 Y54.632 E33.25815
G1 X68.794 Y50.203 E33.61033
G0 F6000 X68.414 Y49.91
G1 F900 X68.889 Y49.296 E33.6599
G1 X69.557 Y48.524 E33.7251
G1 X73.172 Y44.486 E34.0712
G1 X73.689 Y43.93 E34.11968
G1 X74.487 Y43.164 E34.19032
G1 X78.396 Y39.543 E34.53059
G1 X78.951 Y39.048 E34.57808
G1 X79.835 Y38.346 E34.65017
G1 X83.986 Y35.173 E34.98382
G1 X84.584 Y34.736 E35.03112
G1 X85.587 Y34.084 E35.10751
G1 X89.962 Y31.36 E35.43663
G1 X90.564 Y31.002 E35.48135
G1 X91.664 Y30.43 E35.56053
G1 X96.227 Y28.167 E35.88579
G1 X96.959 Y27.821 E35.93749
G1 X97.583 Y27.561 E35.98066
G1 X100.703 Y26.321 E36.19506
G1 X101.473 Y26.032 E36.24758
G1 X102.744 Y25.627 E36.33277
G1 X105.178 Y24.821 E36.4965
G1 X106.354 Y24.509 E36.5742
G1 X111.295 Y23.31 E36.89889
G1 X111.897 Y23.173 E36.93831
G1 X113.242 Y22.951 E37.02536
G1 X118.189 Y22.248 E37.34445
G1 X118.746 Y22.177 E37.38031
G1 X120.06 Y22.087 E37.46442
G1 X125.092 Y21.86 E37.78608
G1 X125.835 Y21.842 E37.83355
G1 X126.985 Y21.879 E37.90702
G1 X132.055 Y22.134 E38.2312
G1 X132.804 Y22.186 E38.27915
G1 X133.963 Y22.333 E38.35375
G1 X139.118 Y23.086 E38.68644
G1 X139.825 Y23.205 E38.73222
G1 X140.944 Y23.457 E38.80547
G1 X146.082 Y24.709 E39.14318
G1 X146.805 Y24.901 E39.19095
G1 X147.858 Y25.243 E39.26166
G1 X152.959 Y27.003 E39.60625
G1 X153.679 Y27.267 E39.65522
G1 X154.652 Y27.686 E39.72287
G1 X159.681 Y29.956 E40.07522
G1 X160.298 Y30.246 E40.11876
G1 X161.291 Y30.782 E40.19082
G1 X166.231 Y33.573 E40.55315
G1 X166.926 Y33.984 E40.60471
G1 X167.65 Y34.466 E40.66026
G1 X172.441 Y37.769 E41.03187
G1 X173.068 Y38.215 E41.08101
G1 X173.796 Y38.792 E41.14033
G1 X178.417 Y42.613 E41.52324
G1 X178.923 Y43.045 E41.56572
G1 X179.601 Y43.688 E41.6254
G1 X183.937 Y47.949 E42.01361
G1 X184.421 Y48.438 E42.05755
G1 X185.039 Y49.134 E42.11699
G1 X189.053 Y53.812 E42.51062
G1 X189.535 Y54.39 E42.55868
G1 X190.023 Y55.045 E42.61084
G1 X193.742 Y60.197 E43.01661
G1 X194.149 Y60.778 E43.06191
G1 X194.622 Y61.535 E43.11891
G1 X197.892 Y66.968 E43.52386
G1 X198.362 Y67.784 E43.58399
G1 X198.672 Y68.394 E43.62769
G1 X201.517 Y74.157 E44.03811
G1 X201.863 Y74.883 E44.08947
G1 X202.188 Y75.662 E44.14337
G1 X204.591 Y81.756 E44.56169
G1 X204.911 Y82.623 E44.62071
G1 X205.086 Y83.18 E44.65799
G1 X206.992 Y89.49 E45.07893
G1 X207.194 Y90.192 E45.12558
G1 X207.379 Y90.991 E45.17795
G1 X208.744 Y97.353 E45.59347
G1 X208.894 Y98.101 E45.64219
G1 X209.013 Y98.894 E45.6934
G1 X209.851 Y105.333 E46.10805
G1 X209.948 Y106.2 E46.16377
G1 X209.992 Y106.918 E46.2097
G1 X210.295 Y113.344 E46.62052
G1 X210.32 Y114.212 E46.67597
G1 X210.306 Y114.9 E46.71992
G1 X210.074 Y121.334 E47.13106
G1 X210.036 Y122.101 E47.1801
G1 X209.955 Y122.895 E47.23106
G1 X209.191 Y129.236 E47.63893
G1 X209.071 Y130.095 E47.69431
G1 X208.928 Y130.837 E47.74257
G1 X207.646 Y137.008 E48.14506
G1 X207.504 Y137.647 E48.18686
G1 X207.249 Y138.56 E48.2474
G1 X205.469 Y144.495 E48.64308
G1 X205.228 Y145.251 E48.69375
G1 X204.981 Y145.912 E48.73881
G1 X203.012 Y150.929 E49.08299
G1 X202.704 Y151.674 E49.13447
G1 X202.377 Y152.362 E49.18311
G1 X199.707 Y157.78 E49.56884
G1 X199.36 Y158.454 E49.61725
G1 X198.886 Y159.258 E49.67685
G1 X195.913 Y164.132 E50.04143
G1 X195.481 Y164.81 E50.09277
G1 X194.877 Y165.654 E50.15905
G1 X191.587 Y170.088 E50.51163
G1 X191.197 Y170.598 E50.55263
G1 X190.454 Y171.463 E50.62545
G1 X186.828 Y175.514 E50.97264
G1 X186.311 Y176.07 E51.02113
G1 X185.513 Y176.836 E51.09176
G1 X181.604 Y180.457 E51.43203
G1 X181.049 Y180.952 E51.47952
G1 X180.165 Y181.654 E51.55161
G1 X176.015 Y184.827 E51.88521
G1 X175.418 Y185.264 E51.93246
G1 X174.451 Y185.893 E52.00613
G1 X170.038 Y188.64 E52.33808
G1 X169.436 Y188.998 E52.3828
G1 X168.336 Y189.57 E52.46198
G1 X163.774 Y191.832 E52.78715
G1 X163.051 Y192.174 E52.83823
G1 X162.417 Y192.439 E52.88211
G1 X159.297 Y193.679 E53.09651
G1 X158.528 Y193.968 E53.14897
G1 X157.26 Y194.372 E53.23395
G1 X154.822 Y195.179 E53.39795
G1 X153.646 Y195.491 E53.47565
G1 X148.705 Y196.69 E53.80033
G1 X148.103 Y196.827 E53.83976
G1 X146.758 Y197.049 E53.92681
G1 X141.811 Y197.752 E54.2459
G1 X141.254 Y197.823 E54.28176
G1 X139.94 Y197.913 E54.36587
G1 X134.908 Y198.14 E54.68753
G1 X134.165 Y198.158 E54.73499
G1 X133.015 Y198.121 E54.80847
G1 X127.945 Y197.866 E55.13265
G1 X127.196 Y197.814 E55.18059
G1 X126.037 Y197.667 E55.2552
G1 X120.882 Y196.914 E55.58789
G1 X120.175 Y196.795 E55.63367
G1 X119.056 Y196.543 E55.70692
G1 X113.918 Y195.291 E56.04463
G1 X113.195 Y195.099 E56.0924
G1 X112.142 Y194.757 E56.1631
G1 X107.041 Y192.997 E56.5077
G1 X106.321 Y192.733 E56.55667
G1 X105.348 Y192.313 E56.62434
G1 X100.308 Y190.038 E56.97747
G1 X99.587 Y189.695 E57.02845
G1 X98.709 Y189.218 E57.09226
G1 X93.769 Y186.427 E57.4546
G1 X93.074 Y186.016 E57.50616
G1 X92.35 Y185.534 E57.5617
G1 X87.557 Y182.23 E57.93345
G1 X86.927 Y181.781 E57.98286
G1 X86.204 Y181.208 E58.04177
G1 X81.607 Y177.408 E58.42265
G1 X81 Y176.886 E58.47377
G1 X80.398 Y176.313 E58.52684
G1 X76.059 Y172.046 E58.91547
G1 X75.486 Y171.462 E58.96771
G1 X74.961 Y170.867 E59.01839
G1 X70.943 Y166.183 E59.41248
G1 X70.385 Y165.507 E59.46845
G1 X69.977 Y164.955 E59.51229
G1 X66.259 Y159.805 E59.91791
G1 X65.848 Y159.218 E59.96367
G1 X65.378 Y158.465 E60.02036
G1 X62.108 Y153.031 E60.42536
G1 X61.637 Y152.214 E60.48558
G1 X61.328 Y151.606 E60.52913
G1 X58.483 Y145.842 E60.93961
G1 X58.137 Y145.115 E60.99103
G1 X57.812 Y144.338 E61.04481
G1 X55.409 Y138.244 E61.46314
G1 X55.089 Y137.377 E61.52215
G1 X54.914 Y136.819 E61.5595
G1 X53.007 Y130.507 E61.98057
G1 X52.772 Y129.674 E62.03584
G1 X52.621 Y129.009 E62.07939
G1 X51.254 Y122.636 E62.49562
G1 X51.085 Y121.777 E62.55153
G1 X50.987 Y121.106 E62.59484
G1 X50.149 Y114.666 E63.00956
G1 X50.051 Y113.787 E63.06604
G1 X50.008 Y113.082 E63.11114
G1 X49.705 Y106.656 E63.52196
G1 X49.68 Y105.782 E63.5778
G1 X49.694 Y105.1 E63.62136
G1 X49.926 Y98.666 E64.0325
G1 X49.965 Y97.899 E64.08154
G1 X50.05 Y97.062 E64.13526
G1 X50.809 Y90.765 E64.5403
G1 X50.929 Y89.903 E64.59588
G1 X51.072 Y89.163 E64.64401
G1 X52.354 Y82.992 E65.0465
G1 X52.496 Y82.353 E65.0883
G1 X52.751 Y81.44 E65.14883
G1 X54.531 Y75.505 E65.54452
G1 X54.772 Y74.749 E65.59519
G1 X55.019 Y74.088 E65.64025
G1 X56.986 Y69.075 E65.98414
G1 X57.308 Y68.297 E66.03791
G1 X57.623 Y67.638 E66.08455
G1 X60.293 Y62.22 E66.47028
G1 X60.64 Y61.546 E66.51869
G1 X61.114 Y60.742 E66.57829
G1 X64.087 Y55.868 E66.94287
G1 X64.519 Y55.19 E66.99421
G1 X65.123 Y54.346 E67.06049
G1 X68.414 Y49.91 E67.41321
G0 F6000 X68.034 Y49.616
G1 F900 X68.509 Y49.002 E67.46279
G1 X69.199 Y48.204 E67.53016
G1 X72.82 Y44.159 E67.87685
G1 X73.337 Y43.603 E67.92533
G1 X74.161 Y42.812 E67.99827
G1 X78.077 Y39.185 E68.33913
G1 X78.652 Y38.672 E68.38834
G1 X79.543 Y37.965 E68.46097
G1 X83.703 Y34.785 E68.79536
G1 X84.301 Y34.348 E68.84265
G1 X85.333 Y33.677 E68.92126
G1 X89.717 Y30.947 E69.25107
G1 X90.319 Y30.589 E69.29579
G1 X91.451 Y30 E69.37728
G1 X96.022 Y27.733 E69.70311
G1 X96.774 Y27.378 E69.75622
G1 X97.406 Y27.115 E69.79993
G1 X100.534 Y25.872 E70.01488
G1 X101.327 Y25.575 E70.06895
G1 X102.593 Y25.171 E70.15381
G1 X105.027 Y24.365 E70.31755
G1 X106.241 Y24.043 E70.39776
G1 X111.188 Y22.842 E70.72284
G1 X111.819 Y22.699 E70.76416
G1 X113.174 Y22.476 E70.85186
G1 X118.128 Y21.772 E71.17139
G1 X118.713 Y21.698 E71.20905
G1 X120.038 Y21.607 E71.29386
G1 X125.08 Y21.38 E71.61617
G1 X125.85 Y21.362 E71.66535
G1 X127.009 Y21.4 E71.73941
G1 X132.088 Y21.655 E72.06416
G1 X132.837 Y21.707 E72.1121
G1 X134.032 Y21.858 E72.18902
G1 X139.198 Y22.613 E72.52242
G1 X139.93 Y22.737 E72.56983
G1 X141.058 Y22.991 E72.64367
G1 X146.205 Y24.245 E72.98197
G1 X146.953 Y24.444 E73.0314
G1 X148.015 Y24.789 E73.10271
G1 X153.124 Y26.552 E73.44784
G1 X153.869 Y26.826 E73.49853
G1 X154.849 Y27.249 E73.5667
G1 X159.885 Y29.522 E73.91953
G1 X160.526 Y29.824 E73.96478
G1 X161.527 Y30.364 E74.03742
G1 X166.475 Y33.16 E74.40035
G1 X167.192 Y33.584 E74.45354
G1 X167.922 Y34.071 E74.50958
G1 X172.719 Y37.378 E74.88166
G1 X173.366 Y37.839 E74.93239
G1 X174.102 Y38.422 E74.99235
G1 X178.729 Y42.248 E75.37576
G1 X179.235 Y42.68 E75.41824
G1 X179.937 Y43.346 E75.48004
G1 X184.278 Y47.611 E75.86866
G1 X184.78 Y48.119 E75.91427
G1 X185.403 Y48.821 E75.97421
G1 X189.422 Y53.505 E76.36834
G1 X189.92 Y54.103 E76.41804
G1 X190.412 Y54.764 E76.47066
G1 X194.135 Y59.922 E76.87688
G1 X194.556 Y60.524 E76.9238
G1 X195.033 Y61.287 E76.98126
G1 X198.308 Y66.728 E77.3868
G1 X198.778 Y67.544 E77.44694
G1 X199.102 Y68.182 E77.49263
G1 X201.95 Y73.95 E77.90343
G1 X202.306 Y74.698 E77.95633
G1 X202.635 Y75.486 E78.01086
G1 X205.041 Y81.59 E78.42985
G1 X205.369 Y82.479 E78.49036
G1 X205.545 Y83.041 E78.52797
G1 X207.453 Y89.357 E78.94931
G1 X207.662 Y90.084 E78.99761
G1 X207.848 Y90.89 E79.05044
G1 X209.215 Y97.259 E79.46642
G1 X209.369 Y98.03 E79.51663
G1 X209.489 Y98.832 E79.56841
G1 X210.328 Y105.28 E79.98365
G1 X210.427 Y106.171 E80.0409
G1 X210.471 Y106.895 E80.08722
G1 X210.775 Y113.33 E80.49861
G1 X210.8 Y114.222 E80.5556
G1 X210.786 Y114.917 E80.59999
G1 X210.553 Y121.358 E81.01158
G1 X210.514 Y122.15 E81.06221
G1 X210.432 Y122.952 E81.1137
G1 X209.666 Y129.302 E81.52214
G1 X209.542 Y130.186 E81.57915
G1 X209.398 Y130.935 E81.62785
G1 X208.115 Y137.112 E82.03073
G1 X207.973 Y137.751 E82.07254
