;FLAVOR:Marlin
;TIME:491
;Filament used: 0.2665m
;Layer height: 0.2
;MINX:107.142
;MINY:84.634
;MINZ:0.32
;MAXX:152.86
;MAXY:135.284
;MAXZ:2.52
;POSTPROCESSED
;Generated with Cura_SteamEngine 5.3.1
;
;

M82 ;absolute extrusion mode
START_PRINT EXTRUDER_TEMP=250.0 BED_TEMP=90 RELATIVE_E_MODE=False PROBE=alse PROBE_AREA_START=%MINX%,%MINY% PROBE_AREA_END=%MAXX%,%MAXY%
G92 E0
G92 E0
G1 F2100 E-0.5
;LAYER_COUNT:12
;LAYER:0
M107
G0 F6000 X112.601 Y94.561 Z0.32
;TYPE:SKIRT
G1 F2100 E0
G1 F900 X112.781 Y94.363 E0.0178
G1 X113.041 Y94.098 E0.0425
G1 X113.239 Y93.92 E0.06021
G1 X113.669 Y93.578 E0.09675
G1 X113.931 Y93.398 E0.1179
G1 X114.456 Y93.09 E0.15839
G1 X114.762 Y92.941 E0.18103
G1 X115.45 Y92.673 E0.23014
G1 X116.309 Y92.4 E0.2901
G1 X118.965 Y91.513 E0.47637
G1 X121.554 Y90.567 E0.65973
G1 X124.111 Y89.549 E0.84281
G1 X127.02 Y88.288 E1.05371
G1 X128.042 Y87.827 E1.12829
G1 X128.396 Y87.702 E1.15326
G1 X131.553 Y86.835 E1.37104
G1 X133.306 Y86.296 E1.49304
G1 X133.378 Y86.281 E1.49793
G1 X134.753 Y85.853 E1.59373
G1 X135.424 Y85.713 E1.63933
G1 X135.749 Y85.669 E1.66114
G1 X136.326 Y85.634 E1.69959
G1 X136.657 Y85.638 E1.72161
G1 X137.221 Y85.687 E1.75927
G1 X137.534 Y85.737 E1.78036
G1 X138.104 Y85.869 E1.81928
G1 X138.418 Y85.966 E1.84114
G1 X138.966 Y86.181 E1.8803
G1 X139.257 Y86.32 E1.90175
G1 X139.728 Y86.588 E1.9378
G1 X139.981 Y86.756 E1.958
G1 X140.415 Y87.09 E1.99443
G1 X142.638 Y88.941 E2.18685
G1 X144.81 Y90.653 E2.37082
G1 X147.039 Y92.31 E2.55558
G1 X149.372 Y93.945 E2.74509
G1 X149.85 Y94.317 E2.78538
G1 X150.128 Y94.574 E2.81056
G1 X150.539 Y95.023 E2.85105
G1 X150.794 Y95.361 E2.87922
G1 X150.982 Y95.741 E2.90742
G1 X151.094 Y96.149 E2.93556
G1 X151.129 Y96.567 E2.96347
G1 X151.101 Y99.042 E3.12811
G1 X151.132 Y101.029 E3.26031
G1 X151.132 Y101.602 E3.29842
G1 X151.116 Y102.218 E3.33941
G1 X151.081 Y105.009 E3.52509
G1 X151.127 Y107.782 E3.70957
G1 X151.249 Y110.548 E3.89375
G1 X151.449 Y113.292 E4.07676
G1 X151.682 Y115.453 E4.22134
G1 X151.825 Y116.899 E4.318
G1 X151.86 Y117.475 E4.35639
G1 X151.856 Y117.799 E4.37794
G1 X151.805 Y118.406 E4.41846
G1 X151.753 Y118.734 E4.44055
G1 X151.628 Y119.265 E4.47684
G1 X151.536 Y119.563 E4.49759
G1 X151.328 Y120.099 E4.53583
G1 X151.188 Y120.393 E4.55749
G1 X150.895 Y120.911 E4.59708
G1 X150.713 Y121.185 E4.61896
G1 X150.366 Y121.631 E4.65655
G1 X150.129 Y121.89 E4.67991
G1 X149.686 Y122.304 E4.72024
G1 X149.116 Y122.674 E4.76544
G1 X148.769 Y122.835 E4.79089
G1 X146.224 Y124.069 E4.97904
G1 X143.802 Y125.328 E5.16062
G1 X141.389 Y126.671 E5.34432
G1 X139.021 Y128.079 E5.52758
G1 X136.652 Y129.577 E5.71403
G1 X134.376 Y131.11 E5.89657
G1 X133.284 Y131.879 E5.98541
G1 X132.916 Y132.089 E6.0136
G1 X132.557 Y132.216 E6.03893
G1 X132.129 Y132.328 E6.06836
G1 X129.403 Y133.082 E6.2565
G1 X127.592 Y133.637 E6.3825
G1 X127.533 Y133.649 E6.3865
G1 X126.213 Y134.061 E6.47849
G1 X125.531 Y134.205 E6.52485
G1 X125.202 Y134.25 E6.54694
G1 X124.639 Y134.284 E6.58446
G1 X124.313 Y134.28 E6.60615
G1 X123.71 Y134.229 E6.6464
G1 X123.387 Y134.178 E6.66816
G1 X122.858 Y134.054 E6.7043
G1 X122.553 Y133.959 E6.72555
G1 X122.002 Y133.744 E6.76489
G1 X121.709 Y133.604 E6.78649
G1 X121.195 Y133.312 E6.82582
G1 X120.915 Y133.124 E6.84825
G1 X120.469 Y132.773 E6.88601
G1 X120.196 Y132.519 E6.91081
G1 X119.823 Y132.109 E6.94768
G1 X119.506 Y131.663 E6.98408
G1 X119.03 Y130.78 E7.05081
G1 X117.701 Y128.39 E7.23272
G1 X116.274 Y125.987 E7.41863
G1 X114.595 Y123.343 E7.62697
G1 X113.989 Y122.351 E7.7043
G1 X112.517 Y120.004 E7.88859
G1 X110.996 Y117.725 E8.07085
G1 X109.718 Y115.91 E8.21851
G1 X109.195 Y115.185 E8.27798
G1 X108.854 Y114.602 E8.32291
G1 X108.71 Y114.307 E8.34474
G1 X108.491 Y113.763 E8.38375
G1 X108.391 Y113.45 E8.40561
G1 X108.257 Y112.894 E8.44365
G1 X108.204 Y112.583 E8.46464
G1 X108.149 Y112.012 E8.5028
G1 X108.142 Y111.68 E8.52489
G1 X108.172 Y111.099 E8.56359
G1 X108.212 Y110.777 E8.58517
G1 X108.348 Y110.091 E8.63169
G1 X108.658 Y109.082 E8.70191
G1 X108.872 Y108.424 E8.74794
G1 X109.652 Y105.767 E8.93214
G1 X109.936 Y104.682 E9.00674
G1 X110.161 Y103.864 E9.06318
G1 X110.861 Y101.165 E9.24866
G1 X111.486 Y98.453 E9.43379
G1 X112.061 Y95.626 E9.62569
G1 X112.184 Y95.221 E9.65385
G1 X112.382 Y94.846 E9.68206
G1 X112.601 Y94.561 E9.70597
G0 F6000 X112.231 Y94.225
G1 F900 X112.424 Y94.013 E9.72504
G1 X112.707 Y93.726 E9.75185
G1 X112.905 Y93.548 E9.76956
G1 X113.386 Y93.166 E9.81042
G1 X113.678 Y92.967 E9.83392
G1 X114.237 Y92.64 E9.877
G1 X114.543 Y92.491 E9.89964
G1 X115.299 Y92.196 E9.95363
G1 X116.158 Y91.924 E10.01356
G1 X118.793 Y91.043 E10.19838
G1 X121.382 Y90.097 E10.38174
G1 X123.926 Y89.084 E10.56389
G1 X126.821 Y87.829 E10.77378
G1 X127.836 Y87.371 E10.84786
G1 X128.264 Y87.22 E10.87805
G1 X131.406 Y86.357 E11.09479
G1 X133.159 Y85.818 E11.21679
G1 X133.25 Y85.797 E11.223
G1 X134.604 Y85.376 E11.31733
G1 X135.357 Y85.218 E11.36851
G1 X135.719 Y85.17 E11.3928
G1 X136.332 Y85.134 E11.43364
G1 X136.7 Y85.14 E11.45813
G1 X137.3 Y85.193 E11.49819
G1 X137.613 Y85.243 E11.51928
G1 X138.252 Y85.391 E11.56291
G1 X138.566 Y85.488 E11.58477
G1 X139.182 Y85.73 E11.6288
G1 X139.504 Y85.885 E11.65257
G1 X140.005 Y86.171 E11.69094
G1 X140.258 Y86.339 E11.71115
G1 X140.735 Y86.706 E11.75118
G1 X142.948 Y88.548 E11.94271
G1 X145.12 Y90.261 E12.12672
G1 X147.326 Y91.901 E12.30957
G1 X149.679 Y93.55 E12.50071
G1 X150.157 Y93.922 E12.541
G1 X150.497 Y94.236 E12.57178
G1 X150.908 Y94.685 E12.61228
G1 X151.221 Y95.097 E12.64669
G1 X151.451 Y95.561 E12.68114
G1 X151.588 Y96.062 E12.71569
G1 X151.629 Y96.573 E12.74979
G1 X151.601 Y99.048 E12.91444
G1 X151.632 Y101.021 E13.0457
G1 X151.632 Y101.615 E13.08522
G1 X151.616 Y102.231 E13.12621
G1 X151.581 Y105.015 E13.31141
G1 X151.627 Y107.76 E13.49404
G1 X151.748 Y110.512 E13.67728
G1 X151.948 Y113.256 E13.86029
G1 X152.18 Y115.404 E14.00401
G1 X152.324 Y116.869 E14.10193
G1 X152.36 Y117.481 E14.14271
G1 X152.356 Y117.805 E14.16427
G1 X152.299 Y118.484 E14.20959
G1 X152.24 Y118.849 E14.23419
G1 X152.115 Y119.38 E14.27048
G1 X152.002 Y119.744 E14.29583
G1 X151.794 Y120.28 E14.33407
G1 X151.623 Y120.639 E14.36053
G1 X151.311 Y121.188 E14.40253
G1 X151.108 Y121.492 E14.42685
G1 X150.735 Y121.969 E14.46713
G1 X150.498 Y122.228 E14.49048
G1 X149.994 Y122.7 E14.53641
G1 X149.326 Y123.128 E14.58919
G1 X148.979 Y123.289 E14.61463
G1 X146.455 Y124.513 E14.80123
G1 X144.033 Y125.772 E14.98281
G1 X141.645 Y127.101 E15.1646
G1 X139.277 Y128.509 E15.34787
G1 X136.919 Y130 E15.53345
G1 X134.655 Y131.525 E15.71503
G1 X133.572 Y132.288 E15.80315
G1 X133.126 Y132.545 E15.83739
G1 X132.684 Y132.7 E15.86855
G1 X132.256 Y132.812 E15.89798
G1 X129.55 Y133.56 E16.08474
G1 X127.739 Y134.115 E16.21073
G1 X127.654 Y134.135 E16.21654
G1 X126.316 Y134.55 E16.30973
G1 X125.599 Y134.7 E16.35846
G1 X125.232 Y134.749 E16.38309
G1 X124.633 Y134.784 E16.423
G1 X124.307 Y134.78 E16.44469
G1 X123.632 Y134.723 E16.48975
G1 X123.273 Y134.665 E16.51394
G1 X122.744 Y134.541 E16.55008
G1 X122.371 Y134.425 E16.57607
G1 X121.82 Y134.21 E16.61541
G1 X121.462 Y134.039 E16.6418
G1 X120.948 Y133.747 E16.68113
G1 X120.636 Y133.539 E16.70607
G1 X120.128 Y133.139 E16.74908
G1 X119.855 Y132.885 E16.77388
G1 X119.415 Y132.399 E16.81749
G1 X119.098 Y131.953 E16.85389
G1 X118.59 Y131.017 E16.92473
G1 X117.264 Y128.633 E17.1062
G1 X115.844 Y126.242 E17.29118
G1 X114.168 Y123.604 E17.49909
G1 X113.562 Y122.612 E17.57641
G1 X112.093 Y120.27 E17.76031
G1 X110.58 Y118.003 E17.94161
G1 X109.312 Y116.203 E18.08808
G1 X108.789 Y115.478 E18.14754
G1 X108.422 Y114.854 E18.1957
G1 X108.246 Y114.494 E18.22236
G1 X108.027 Y113.95 E18.26136
G1 X107.905 Y113.567 E18.2881
G1 X107.764 Y112.978 E18.32839
G1 X107.706 Y112.631 E18.35179
G1 X107.651 Y112.06 E18.38995
G1 X107.642 Y111.691 E18.41451
G1 X107.676 Y111.037 E18.45807
G1 X107.716 Y110.715 E18.47965
G1 X107.87 Y109.944 E18.53195
G1 X108.183 Y108.927 E18.60274
G1 X108.392 Y108.283 E18.64777
G1 X109.172 Y105.626 E18.83198
G1 X109.454 Y104.549 E18.90603
G1 X109.679 Y103.731 E18.96247
G1 X110.377 Y101.039 E19.14746
G1 X110.996 Y98.353 E19.33082
G1 X111.571 Y95.526 E19.52272
G1 X111.72 Y95.03 E19.55717
G1 X111.961 Y94.573 E19.59154
G1 X112.231 Y94.225 E19.62084
G0 F6000 X111.861 Y93.888
G1 F900 X112.068 Y93.662 E19.64123
G1 X112.373 Y93.354 E19.67006
G1 X112.594 Y93.156 E19.6898
G1 X113.075 Y92.774 E19.73066
G1 X113.426 Y92.535 E19.75891
G1 X114.018 Y92.19 E19.80449
G1 X114.361 Y92.025 E19.8298
G1 X115.148 Y91.719 E19.88597
G1 X116.007 Y91.447 E19.94591
G1 X118.621 Y90.573 E20.12926
G1 X121.21 Y89.627 E20.31261
G1 X123.741 Y88.619 E20.49384
G1 X126.615 Y87.373 E20.70221
G1 X127.63 Y86.915 E20.77629
G1 X128.098 Y86.748 E20.80934
G1 X131.259 Y85.879 E21.02741
G1 X133.012 Y85.34 E21.14941
G1 X133.123 Y85.313 E21.15701
G1 X134.501 Y84.887 E21.25295
G1 X135.291 Y84.722 E21.30664
G1 X135.653 Y84.674 E21.33093
G1 X136.34 Y84.634 E21.37671
G1 X136.744 Y84.642 E21.40359
G1 X137.379 Y84.699 E21.446
G1 X137.692 Y84.749 E21.46708
G1 X138.4 Y84.913 E21.51542
G1 X138.714 Y85.01 E21.53729
G1 X139.399 Y85.279 E21.58624
G1 X139.721 Y85.434 E21.61001
G1 X140.282 Y85.754 E21.65297
G1 X140.535 Y85.922 E21.67318
G1 X141.055 Y86.322 E21.71682
G1 X143.258 Y88.155 E21.90745
G1 X145.43 Y89.869 E22.0915
G1 X147.613 Y91.492 E22.27245
G1 X149.986 Y93.155 E22.46521
G1 X150.464 Y93.527 E22.5055
G1 X150.866 Y93.898 E22.54189
G1 X151.277 Y94.347 E22.58238
G1 X151.648 Y94.834 E22.62311
G1 X151.92 Y95.381 E22.66374
G1 X152.082 Y95.975 E22.7047
G1 X152.129 Y96.579 E22.745
G1 X152.101 Y99.054 E22.90965
G1 X152.132 Y101.013 E23.03998
G1 X152.132 Y101.628 E23.08089
G1 X152.116 Y102.244 E23.12188
G1 X152.081 Y105.021 E23.30662
G1 X152.127 Y107.738 E23.48738
G1 X152.247 Y110.476 E23.66969
G1 X152.447 Y113.22 E23.8527
G1 X152.678 Y115.355 E23.99555
G1 X152.823 Y116.84 E24.0948
G1 X152.86 Y117.487 E24.13791
G1 X152.856 Y117.811 E24.15947
G1 X152.793 Y118.564 E24.20973
G1 X152.727 Y118.964 E24.2367
G1 X152.593 Y119.528 E24.27526
G1 X152.48 Y119.892 E24.30062
G1 X152.26 Y120.461 E24.3412
G1 X152.058 Y120.886 E24.3725
G1 X151.727 Y121.466 E24.41692
G1 X151.524 Y121.77 E24.44124
G1 X151.104 Y122.307 E24.48659
G1 X150.867 Y122.566 E24.50994
G1 X150.303 Y123.096 E24.56142
G1 X149.596 Y123.549 E24.61728
G1 X146.686 Y124.957 E24.83232
G1 X144.264 Y126.216 E25.0139
G1 X141.901 Y127.531 E25.19379
G1 X139.533 Y128.939 E25.37705
G1 X137.186 Y130.423 E25.56176
G1 X134.934 Y131.94 E25.74239
G1 X133.86 Y132.697 E25.82979
G1 X133.335 Y133.002 E25.87018
G1 X132.811 Y133.184 E25.90708
G1 X132.383 Y133.296 E25.93651
G1 X129.697 Y134.038 E26.12187
G1 X126.464 Y135.028 E26.34679
G1 X125.665 Y135.196 E26.4011
G1 X125.298 Y135.245 E26.42573
G1 X124.627 Y135.284 E26.47044
G1 X124.301 Y135.28 E26.49213
G1 X123.552 Y135.217 E26.54213
G1 X123.193 Y135.159 E26.56632
G1 X122.63 Y135.028 E26.60477
G1 X122.189 Y134.891 E26.63549
G1 X121.638 Y134.676 E26.67483
G1 X121.215 Y134.474 E26.70602
G1 X120.701 Y134.182 E26.74534
G1 X120.327 Y133.932 E26.77526
G1 X119.787 Y133.505 E26.82106
G1 X119.484 Y133.221 E26.84868
G1 X119.007 Y132.689 E26.89621
G1 X118.69 Y132.243 E26.93261
G1 X118.151 Y131.256 E27.00742
G1 X116.827 Y128.876 E27.18859
G1 X115.414 Y126.497 E27.37265
G1 X113.741 Y123.865 E27.58011
G1 X113.135 Y122.873 E27.65743
G1 X111.669 Y120.536 E27.84095
G1 X110.164 Y118.281 E28.02129
G1 X108.906 Y116.496 E28.16655
G1 X108.383 Y115.771 E28.22602
G1 X107.973 Y115.074 E28.27981
G1 X107.782 Y114.681 E28.30888
G1 X107.563 Y114.137 E28.34789
G1 X107.419 Y113.683 E28.37957
G1 X107.271 Y113.06 E28.42216
G1 X107.208 Y112.679 E28.44785
G1 X107.151 Y112.072 E28.48841
G1 X107.142 Y111.703 E28.51296
G1 X107.18 Y110.975 E28.56145
G1 X107.226 Y110.617 E28.58546
G1 X107.392 Y109.797 E28.64112
G1 X107.707 Y108.773 E28.71238
G1 X107.916 Y108.129 E28.75742
G1 X108.692 Y105.485 E28.94072
G1 X108.972 Y104.416 E29.01423
G1 X109.197 Y103.598 E29.07066
G1 X109.893 Y100.914 E29.25511
G1 X110.506 Y98.253 E29.43676
G1 X111.092 Y95.382 E29.63167
G1 X111.254 Y94.842 E29.66918
G1 X111.54 Y94.301 E29.70988
G1 X111.861 Y93.888 E29.74468
G1 F2100 E29.24468
;MESH:Bowden PTFE Coupler Clip 1.25mm.stl(2)
G0 F6000 X114.423 Y94.991
G0 X115.086 Y95.832
G0 X116.566 Y95.396
G0 X117.129 Y95.312
G0 X117.698 Y95.326
G0 X118.256 Y95.436
G0 X118.788 Y95.641
G0 X119.276 Y95.933
G0 X119.707 Y96.306
G0 X120.068 Y96.745
G0 X123.038 Y98.371
;TYPE:WALL-INNER
G1 F2100 E29.74468
G1 F900 X121.952 Y98.374 E29.81692
G1 X121.951 Y98.869 E29.84985
G1 X123.038 Y98.871 E29.92215
G1 X123.038 Y98.371 E29.95541
G0 F6000 X121.38 Y97.871
G1 F900 X121.449 Y98.27 E29.98235
G1 X121.449 Y98.979 E30.02951
G1 X121.381 Y99.371 E30.05598
G1 X123.538 Y99.371 E30.19946
G1 X123.538 Y97.871 E30.29924
G1 X121.38 Y97.871 E30.44279
G0 F6000 X120.726 Y97.371
G1 F900 X120.843 Y97.699 E30.46596
G1 X120.949 Y98.308 E30.50708
G1 X120.949 Y98.935 E30.54879
G1 X120.843 Y99.544 E30.58991
G1 X120.726 Y99.871 E30.61301
G1 X124.038 Y99.871 E30.83332
G1 X124.038 Y97.371 E30.99963
G1 X120.726 Y97.371 E31.21994
G1 F2100 E30.71994
G0 F6000 X120.879 Y97.478
G0 X119.276 Y95.933
G0 X118.788 Y95.641
G0 X118.256 Y95.436
G0 X117.698 Y95.326
G0 X117.129 Y95.312
G0 X116.811 Y95.358
G0 X115.162 Y95.805
G0 X114.748 Y95.959
;TYPE:WALL-OUTER
G1 F2100 E31.21994
G1 F803.6 X115.659 Y95.95 E31.28782
G1 X116.07 Y95.732 E31.32248
G1 F805 X116.552 Y95.561 E31.36051
G1 F803.6 X117.165 Y95.468 E31.40671
G1 F800.7 X117.715 Y95.489 E31.44786
G1 F799.3 X118.2 Y95.587 E31.48492
G1 F802.1 X118.698 Y95.773 E31.5246
G1 F807.9 X119.183 Y96.065 E31.56655
G1 F810.8 X119.588 Y96.412 E31.60593
G1 F816.7 X119.931 Y96.833 E31.64573
G1 F827.2 X120.154 Y97.204 E31.67706
G1 F865.4 X120.362 Y97.848 E31.72388
G1 F900 X120.446 Y98.331 E31.75649
G1 X120.446 Y98.912 E31.79514
G1 X120.362 Y99.395 E31.82775
G1 F868.7 X120.144 Y100.053 E31.87552
G1 F831.8 X119.932 Y100.408 E31.90528
G1 F819.7 X119.617 Y100.806 E31.94236
G1 F813.7 X119.186 Y101.175 E31.9841
G1 F810.8 X118.726 Y101.454 E32.02382
G1 F805 X118.192 Y101.658 E32.06634
G1 F800.7 X117.705 Y101.756 E32.10348
G1 F802.1 X117.164 Y101.774 E32.14388
G1 F805 X116.55 Y101.682 E32.19005
G1 F806.5 X116.1 Y101.525 E32.22543
G1 F807.9 X115.625 Y101.279 E32.26507
G1 F809.4 X114.746 Y101.277 E32.33009
G1 X114.835 Y101.375 E32.33988
G1 X115.254 Y101.703 E32.37925
G1 F803.6 X115.724 Y101.971 E32.41955
G1 F795.1 X116.207 Y102.163 E32.45869
G1 F793.7 X116.75 Y102.291 E32.50078
G1 F795.1 X117.264 Y102.338 E32.53964
G1 F797.9 X117.807 Y102.309 E32.58044
G1 F799.3 X118.339 Y102.202 E32.62109
G1 F797.9 X118.827 Y102.025 E32.66004
G1 F796.5 X119.371 Y101.735 E32.70638
G1 F795.1 X119.743 Y101.449 E32.74171
G1 F796.5 X120.096 Y101.116 E32.77819
G1 F809.4 X120.382 Y100.722 E32.8142
G1 F810.8 X120.556 Y100.46 E32.83743
G1 F827.2 X120.647 Y100.398 E32.8454
G1 F877.2 X120.787 Y100.371 E32.85513
G1 F900 X124.538 Y100.371 E33.10465
G1 X124.538 Y96.871 E33.33747
G1 X120.788 Y96.871 E33.58692
G1 F844.3 X120.569 Y96.802 E33.6032
G1 F807.9 X120.38 Y96.518 E33.62848
G1 F809.4 X120.091 Y96.122 E33.66474
G1 F796.5 X119.738 Y95.789 E33.70122
G1 X119.369 Y95.507 E33.73613
G1 X118.834 Y95.221 E33.78173
G1 F797.9 X118.339 Y95.041 E33.82125
G1 F799.3 X117.807 Y94.934 E33.8619
G1 F797.9 X117.264 Y94.905 E33.9027
G1 F795.1 X116.75 Y94.952 E33.94157
G1 F799.3 X116.477 Y95.011 E33.96249
G1 X116.207 Y95.081 E33.98338
G1 F795.1 X115.721 Y95.274 E34.02275
G1 F800.7 X115.258 Y95.538 E34.0626
G1 F803.6 X114.833 Y95.872 E34.10288
G1 X114.748 Y95.959 E34.11194
G1 F2100 E33.61194
;MESH:Bowden PTFE Coupler Clip 1.00mm.stl
G0 F6000 X115.162 Y95.805
G0 X116.566 Y95.396
G0 X117.129 Y95.312
G0 X117.698 Y95.326
G0 X118.256 Y95.436
G0 X118.788 Y95.641
G0 X119.276 Y95.933
G0 X119.707 Y96.306
G0 X120.068 Y96.745
G0 X120.35 Y97.241
G0 X120.541 Y97.776
G0 X120.638 Y98.338
G0 X120.638 Y98.905
G0 X120.541 Y99.466
G0 X120.35 Y100.002
G0 X120.068 Y100.497
G0 X118.779 Y101.897
G0 X120.073 Y104.394
G0 X119.631 Y105.881
G0 X119.548 Y106.445
G0 X119.561 Y107.013
G0 X119.671 Y107.572
G0 X119.877 Y108.103
G0 X120.168 Y108.591
G0 X120.378 Y108.834
