;FLAVOR:Marlin
;TIME:4521
;Filament used: 3.98805m
;Layer height: 0.2
;MINX:80.301
;MINY:78.951
;MINZ:0.32
;MAXX:179.699
;MAXY:141.049
;MAXZ:24.92
;POSTPROCESSED
;Generated with Cura_SteamEngine 5.3.1
;
;

M82 ;absolute extrusion mode
START_PRINT EXTRUDER_TEMP=250.0 BED_TEMP=100 RELATIVE_E_MODE=False PROBE=false PROBE_AREA_START=%MINX%,%MINY% PROBE_AREA_END=%MAXX%,%MAXY%
G92 E0
G92 E0
G1 F1500 E-6.5
;LAYER_COUNT:124
;LAYER:0
M107
G0 F6000 X82.128 Y80.591 Z0.32
;TYPE:SKIRT
G1 F1500 E0
G1 F900 X82.452 Y80.319 E0.02701
G1 X82.821 Y80.112 E0.05403
G1 X83.222 Y79.978 E0.08103
G1 X83.657 Y79.922 E0.10904
G1 X84.02 Y79.912 E0.13223
G1 X139.95 Y79.911 E3.70389
G1 X140.649 Y79.921 E3.74853
G1 X141.069 Y79.967 E3.77551
G1 X141.474 Y80.091 E3.80256
G1 X141.847 Y80.289 E3.82953
G1 X142.177 Y80.554 E3.85656
G1 X142.451 Y80.876 E3.88356
G1 X142.693 Y81.301 E3.91479
G1 X143.121 Y82.622 E4.00346
G1 X144.028 Y85.3 E4.18402
G1 X144.967 Y87.835 E4.35665
G1 X146.015 Y90.436 E4.53573
G1 X147.12 Y92.966 E4.71203
G1 X148.29 Y95.457 E4.88778
G1 X149.545 Y97.938 E5.06533
G1 X150.859 Y100.366 E5.24163
G1 X152.227 Y102.729 E5.41599
G1 X153.7 Y105.117 E5.59517
G1 X155.207 Y107.415 E5.77066
G1 X156.788 Y109.679 E5.947
G1 X158.439 Y111.906 E6.12403
G1 X160.169 Y114.109 E6.30291
G1 X161.898 Y116.186 E6.47549
G1 X163.754 Y118.292 E6.65475
G1 X165.646 Y120.321 E6.83191
G1 X167.563 Y122.26 E7.00603
G1 X169.569 Y124.181 E7.1834
G1 X171.625 Y126.04 E7.36041
G1 X173.733 Y127.84 E7.53742
G1 X175.875 Y129.567 E7.71313
G1 X177.849 Y131.076 E7.8718
G1 X178.16 Y131.364 E7.89887
G1 X178.41 Y131.704 E7.92582
G1 X178.592 Y132.086 E7.95284
G1 X178.7 Y132.495 E7.97986
G1 X178.728 Y132.787 E7.99859
G1 X178.739 Y133.179 E8.02363
G1 X178.739 Y137.141 E8.27664
G1 X178.73 Y137.868 E8.32307
G1 X178.685 Y138.288 E8.35005
G1 X178.561 Y138.693 E8.37709
G1 X178.364 Y139.067 E8.40409
G1 X178.1 Y139.397 E8.43108
G1 X177.779 Y139.672 E8.45807
G1 X177.412 Y139.882 E8.48507
G1 X177.012 Y140.018 E8.51205
G1 X176.553 Y140.079 E8.54162
G1 X176.169 Y140.089 E8.56615
G1 X136.85 Y140.089 E11.07704
G1 X136.15 Y140.079 E11.12175
G1 X135.73 Y140.033 E11.14873
G1 X135.325 Y139.909 E11.17578
G1 X134.952 Y139.711 E11.20274
G1 X134.622 Y139.446 E11.22977
G1 X134.348 Y139.125 E11.25672
G1 X134.142 Y138.763 E11.28332
G1 X133.747 Y137.891 E11.34445
G1 X133.414 Y137.125 E11.39779
G1 X132.247 Y134.635 E11.5734
G1 X131.003 Y132.166 E11.74995
G1 X129.683 Y129.719 E11.9275
G1 X128.307 Y127.335 E12.10328
G1 X126.873 Y125.002 E12.27816
G1 X125.333 Y122.648 E12.45779
G1 X123.781 Y120.419 E12.63124
G1 X122.1 Y118.144 E12.81188
G1 X120.42 Y116 E12.98582
G1 X118.649 Y113.868 E13.16281
G1 X116.829 Y111.796 E13.33893
G1 X114.917 Y109.741 E13.51818
G1 X113.009 Y107.806 E13.69171
G1 X111.006 Y105.883 E13.86903
G1 X108.947 Y104.017 E14.04648
G1 X106.85 Y102.221 E14.22279
G1 X104.699 Y100.482 E14.39943
G1 X102.504 Y98.808 E14.57571
G1 X100.262 Y97.195 E14.75209
G1 X97.998 Y95.663 E14.92666
G1 X95.612 Y94.144 E15.10728
G1 X93.292 Y92.759 E15.27983
G1 X90.843 Y91.389 E15.45903
G1 X88.393 Y90.107 E15.63561
G1 X85.928 Y88.905 E15.81074
G1 X83.116 Y87.636 E16.00775
G1 X82.62 Y87.421 E16.04227
G1 X82.25 Y87.217 E16.06926
G1 X81.924 Y86.947 E16.09629
G1 X81.655 Y86.621 E16.12328
G1 X81.453 Y86.25 E16.15025
G1 X81.323 Y85.847 E16.1773
G1 X81.272 Y85.435 E16.20381
G1 X81.261 Y85.026 E16.22993
G1 X81.276 Y83.582 E16.32215
G1 X81.305 Y83.199 E16.34668
G1 X81.408 Y82.293 E16.40491
G1 X81.535 Y81.695 E16.44395
G1 X81.662 Y81.292 E16.47093
G1 X81.862 Y80.919 E16.49796
G1 X82.128 Y80.591 E16.52493
G0 F6000 X81.786 Y80.251
G1 F900 X82.177 Y79.922 E16.55756
G1 X82.622 Y79.673 E16.59012
G1 X83.116 Y79.508 E16.62338
G1 X83.644 Y79.442 E16.65736
G1 X84.02 Y79.432 E16.68138
G1 X139.957 Y79.431 E20.25349
G1 X140.656 Y79.441 E20.29813
G1 X141.167 Y79.495 E20.33095
G1 X141.658 Y79.645 E20.36373
G1 X142.113 Y79.887 E20.39664
G1 X142.514 Y80.209 E20.42948
G1 X142.845 Y80.598 E20.4621
G1 X143.135 Y81.107 E20.49951
G1 X143.576 Y82.468 E20.59087
G1 X144.483 Y85.146 E20.77143
G1 X145.417 Y87.668 E20.94317
G1 X146.455 Y90.244 E21.12053
G1 X147.56 Y92.774 E21.29683
G1 X148.718 Y95.24 E21.47081
G1 X149.967 Y97.71 E21.64756
G1 X151.281 Y100.138 E21.82386
G1 X152.636 Y102.477 E21.99648
G1 X154.108 Y104.865 E22.17562
G1 X155.601 Y107.14 E22.34939
G1 X157.174 Y109.393 E22.52486
G1 X158.825 Y111.62 E22.7019
G1 X160.538 Y113.802 E22.87905
G1 X162.267 Y115.879 E23.05163
G1 X164.105 Y117.965 E23.22917
G1 X165.997 Y119.994 E23.40633
G1 X167.895 Y121.913 E23.57869
G1 X169.901 Y123.834 E23.75606
G1 X171.937 Y125.675 E23.93135
G1 X174.034 Y127.466 E24.10746
G1 X176.167 Y129.186 E24.28244
G1 X178.141 Y130.695 E24.44111
G1 X178.52 Y131.043 E24.47397
G1 X178.822 Y131.454 E24.50654
G1 X179.045 Y131.923 E24.5397
G1 X179.174 Y132.411 E24.57194
G1 X179.206 Y132.741 E24.59311
G1 X179.219 Y133.166 E24.62026
G1 X179.219 Y137.147 E24.87449
G1 X179.21 Y137.874 E24.92091
G1 X179.157 Y138.386 E24.95379
G1 X179.007 Y138.878 E24.98663
G1 X178.768 Y139.331 E25.01934
G1 X178.447 Y139.732 E25.05214
G1 X178.057 Y140.066 E25.08493
G1 X177.612 Y140.321 E25.11768
G1 X177.12 Y140.488 E25.15086
G1 X176.616 Y140.555 E25.18333
G1 X176.181 Y140.569 E25.21113
G1 X136.843 Y140.569 E27.72323
G1 X136.143 Y140.559 E27.76794
G1 X135.632 Y140.505 E27.80075
G1 X135.141 Y140.355 E27.83353
G1 X134.686 Y140.113 E27.86644
G1 X134.286 Y139.792 E27.8992
G1 X133.954 Y139.403 E27.93186
G1 X133.705 Y138.961 E27.96425
G1 X133.307 Y138.082 E28.02587
G1 X132.979 Y137.329 E28.07832
G1 X131.812 Y134.839 E28.25393
G1 X130.574 Y132.382 E28.42962
G1 X129.267 Y129.959 E28.60543
G1 X127.891 Y127.575 E28.78121
G1 X126.471 Y125.265 E28.95437
G1 X124.931 Y122.911 E29.134
G1 X123.387 Y120.693 E29.30658
G1 X121.722 Y118.44 E29.48548
G1 X120.042 Y116.296 E29.65942
G1 X118.288 Y114.185 E29.83469
G1 X116.468 Y112.113 E30.01081
G1 X114.575 Y110.078 E30.18829
G1 X112.667 Y108.143 E30.36183
G1 X110.684 Y106.239 E30.53739
G1 X108.635 Y104.382 E30.71398
G1 X106.538 Y102.586 E30.89029
G1 X104.408 Y100.864 E31.0652
G1 X102.213 Y99.19 E31.24149
G1 X99.993 Y97.593 E31.41612
G1 X97.729 Y96.061 E31.59069
G1 X95.354 Y94.549 E31.77049
G1 X93.058 Y93.178 E31.94126
G1 X90.609 Y91.808 E32.12046
G1 X88.17 Y90.532 E32.29624
G1 X85.731 Y89.343 E32.46951
G1 X82.919 Y88.073 E32.66655
G1 X82.388 Y87.841 E32.70356
G1 X81.977 Y87.615 E32.73351
G1 X81.585 Y87.29 E32.76603
G1 X81.252 Y86.886 E32.79946
G1 X81.011 Y86.443 E32.83166
G1 X80.853 Y85.952 E32.8646
G1 X80.792 Y85.448 E32.89702
G1 X80.781 Y85.021 E32.9243
G1 X80.797 Y83.546 E33.0185
G1 X80.828 Y83.145 E33.04418
G1 X80.938 Y82.193 E33.10538
G1 X81.065 Y81.595 E33.14442
G1 X81.217 Y81.106 E33.17712
G1 X81.46 Y80.653 E33.20995
G1 X81.786 Y80.251 E33.243
G0 F6000 X81.442 Y79.914
G1 F900 X81.904 Y79.525 E33.28157
G1 X82.426 Y79.233 E33.31976
G1 X83.01 Y79.038 E33.35908
G1 X83.631 Y78.962 E33.39904
G1 X84.02 Y78.952 E33.42388
G1 X139.964 Y78.951 E36.99644
G1 X140.663 Y78.961 E37.04108
G1 X141.264 Y79.023 E37.07966
G1 X141.843 Y79.2 E37.11833
G1 X142.379 Y79.485 E37.15709
G1 X142.851 Y79.864 E37.19575
G1 X143.239 Y80.32 E37.23398
G1 X143.577 Y80.913 E37.27757
G1 X144.031 Y82.314 E37.37162
G1 X144.938 Y84.992 E37.55218
G1 X145.867 Y87.501 E37.72303
G1 X146.895 Y90.052 E37.89867
G1 X148 Y92.582 E38.07497
G1 X149.146 Y95.023 E38.24717
G1 X150.389 Y97.482 E38.42313
G1 X151.696 Y99.897 E38.59848
G1 X153.045 Y102.225 E38.77031
G1 X154.516 Y104.613 E38.94941
G1 X155.995 Y106.865 E39.12147
G1 X157.56 Y109.107 E39.29607
G1 X159.211 Y111.334 E39.4731
G1 X160.907 Y113.495 E39.64853
G1 X162.636 Y115.572 E39.82111
G1 X164.456 Y117.638 E39.99693
G1 X166.338 Y119.656 E40.17315
G1 X168.227 Y121.566 E40.34469
G1 X170.233 Y123.487 E40.52206
G1 X172.249 Y125.31 E40.69563
G1 X174.335 Y127.092 E40.87083
G1 X176.459 Y128.805 E41.04508
G1 X178.466 Y130.341 E41.20648
G1 X178.878 Y130.719 E41.24218
G1 X179.234 Y131.205 E41.28066
G1 X179.498 Y131.76 E41.3199
G1 X179.648 Y132.328 E41.35742
G1 X179.686 Y132.726 E41.38295
G1 X179.699 Y133.151 E41.4101
G1 X179.699 Y137.153 E41.66567
G1 X179.69 Y137.88 E41.7121
G1 X179.629 Y138.483 E41.7508
G1 X179.452 Y139.064 E41.78959
G1 X179.172 Y139.595 E41.82792
G1 X178.794 Y140.067 E41.86654
G1 X178.337 Y140.459 E41.90499
G1 X177.807 Y140.762 E41.94397
G1 X177.23 Y140.958 E41.98289
G1 X176.631 Y141.035 E42.02146
G1 X176.196 Y141.049 E42.04925
G1 X136.836 Y141.049 E44.56276
G1 X136.136 Y141.039 E44.60746
G1 X135.535 Y140.977 E44.64605
G1 X134.956 Y140.8 E44.68471
G1 X134.423 Y140.517 E44.72325
G1 X133.948 Y140.135 E44.76217
G1 X133.559 Y139.68 E44.8004
G1 X133.287 Y139.197 E44.8358
G1 X132.867 Y138.274 E44.90056
G1 X132.544 Y137.533 E44.95218
G1 X131.377 Y135.043 E45.12778
G1 X130.145 Y132.598 E45.30262
G1 X128.851 Y130.199 E45.47669
G1 X127.475 Y127.815 E45.65247
G1 X126.069 Y125.528 E45.8239
G1 X124.529 Y123.174 E46.00354
G1 X122.993 Y120.967 E46.17525
G1 X121.344 Y118.736 E46.35242
G1 X119.664 Y116.592 E46.52636
G1 X117.927 Y114.502 E46.6999
G1 X116.107 Y112.43 E46.87601
G1 X114.233 Y110.415 E47.05174
G1 X112.325 Y108.48 E47.22527
G1 X110.362 Y106.595 E47.39907
G1 X108.323 Y104.747 E47.5748
G1 X106.226 Y102.951 E47.75111
G1 X104.117 Y101.246 E47.9243
G1 X101.922 Y99.572 E48.10058
G1 X99.724 Y97.991 E48.27349
G1 X97.46 Y96.459 E48.44805
G1 X95.096 Y94.954 E48.62701
G1 X92.824 Y93.597 E48.79601
G1 X90.375 Y92.227 E48.97521
G1 X87.947 Y90.957 E49.15019
G1 X85.533 Y89.78 E49.3217
G1 X82.157 Y88.262 E49.55808
G1 X81.706 Y88.014 E49.59095
G1 X81.246 Y87.633 E49.62909
G1 X80.851 Y87.153 E49.66879
G1 X80.568 Y86.633 E49.70659
G1 X80.381 Y86.053 E49.74551
G1 X80.315 Y85.506 E49.78069
G1 X80.301 Y85.016 E49.812
G1 X80.318 Y83.509 E49.90824
G1 X80.351 Y83.09 E49.93508
G1 X80.468 Y82.093 E49.99918
G1 X80.595 Y81.495 E50.03822
G1 X80.773 Y80.917 E50.07684
G1 X81.058 Y80.386 E50.11533
G1 X81.442 Y79.914 E50.15419
G1 F1500 E43.65419
;MESH:Modified Under-Desk Headphone Holder.stl
G0 F6000 X82.995 Y82.326
G0 X84.049 Y82.566
G0 X85.275 Y83.958
;TYPE:WALL-INNER
G1 F1500 E50.15419
G1 F707 X86.003 Y83.417 E50.22791
G1 X84.806 Y83.416 E50.32522
G1 X84.766 Y83.791 E50.35587
G1 X84.766 Y84.106 E50.38148
G1 X85.126 Y84.105 E50.41074
G1 X85.275 Y83.958 E50.42776
G0 F6000 X85.591 Y84.405
G1 F900 X86.578 Y83.667 E50.50646
G1 X86.819 Y83.46 E50.52674
G1 X87.046 Y83.327 E50.54354
G1 X87.343 Y83.159 E50.56533
G1 F890.7 X88.074 Y82.882 E50.61578
G1 X87.292 Y82.871 E50.66624
G1 F900 X84.315 Y82.871 E50.85635
G1 X84.221 Y83.763 E50.91363
G1 X84.221 Y84.652 E50.9704
G1 X85.334 Y84.65 E51.04147
G1 X85.591 Y84.405 E51.06415
G0 F6000 X85.483 Y84.258
G0 X86.928 Y83.212
G0 X87.581 Y82.968
G0 X88.099 Y82.882
G1 F869.2 X88.226 Y82.877 E51.07255
G1 F874.5 X93.122 Y82.879 E51.39433
G1 F867.5 X98.018 Y82.881 E51.71871
G1 F860.6 X102.914 Y82.883 E52.04569
G1 F853.8 X107.81 Y82.885 E52.37528
G1 F845.4 X112.706 Y82.887 E52.70813
G1 F838.8 X117.602 Y82.889 E53.04359
G1 F832.4 X122.498 Y82.891 E53.38165
G1 F826 X127.394 Y82.893 E53.72231
G1 F819.7 X132.29 Y82.895 E54.06558
G1 F801.5 X132.459 Y82.905 E54.07772
G0 F6000 X132.972 Y82.961
G0 X133.782 Y83.211
G0 X136.504 Y84.918
G1 F900 X136.685 Y85.286 E54.10391
G1 X136.787 Y85.572 E54.1233
G1 X136.839 Y85.66 E54.12983
G1 X136.967 Y85.992 E54.15255
G1 X137.065 Y86.439 E54.18177
G1 X137.222 Y86.857 E54.21029
G1 X137.315 Y87.257 E54.23651
G1 X137.345 Y87.528 E54.25392
G1 X137.374 Y136.648 E57.3907
G1 X175.299 Y136.649 E59.81257
G1 X175.299 Y134.049 E59.97861
G1 X147.682 Y134.047 E61.74221
G1 X146.495 Y133.969 E61.81818
G1 X145.245 Y133.717 E61.89961
G1 X144.046 Y133.3 E61.98067
G1 X142.942 Y132.731 E62.05999
G1 X141.951 Y132.024 E62.13773
G1 X141.074 Y131.158 E62.21643
G1 X140.371 Y130.196 E62.29252
G1 X139.849 Y129.14 E62.36775
G1 X139.535 Y128.035 E62.4411
G1 X139.43 Y126.965 E62.50976
G1 X139.425 Y83.351 E65.29493
G1 X134.722 Y83.352 E65.59526
G1 X135.542 Y83.967 E65.66072
G1 X136.232 Y84.596 E65.72034
G1 X136.504 Y84.918 E65.74726
G0 F6000 X137.04 Y87.404
G0 X136.865 Y87.444
G1 F900 X136.894 Y137.128 E68.92005
G1 X175.779 Y137.129 E71.40323
G1 X175.779 Y133.569 E71.63057
G1 X147.714 Y133.568 E73.42278
G1 X146.562 Y133.492 E73.49651
G1 X145.366 Y133.252 E73.57441
G1 X144.233 Y132.856 E73.65105
G1 X143.19 Y132.317 E73.72602
G1 X142.26 Y131.655 E73.79892
G1 X141.445 Y130.851 E73.87203
G1 X140.785 Y129.951 E73.9433
G1 X140.299 Y128.967 E74.01339
G1 X140.005 Y127.919 E74.0829
G1 X139.908 Y126.92 E74.14699
G1 X139.905 Y82.871 E76.95994
G1 X133.05 Y82.871 E77.39769
G1 F840.5 X132.459 Y82.905 E77.43817
G1 X133.098 Y83.087 E77.48361
G1 F900 X133.459 Y83.207 E77.5079
G1 X133.817 Y83.344 E77.53238
G1 X134.582 Y83.846 E77.59081
G1 X135.307 Y84.396 E77.64893
G1 X135.981 Y85.018 E77.70749
G1 X136.228 Y85.435 E77.73844
G1 X136.351 Y85.782 E77.76195
G1 X136.498 Y86.095 E77.78404
G1 X136.606 Y86.585 E77.81608
G1 X136.74 Y86.903 E77.83812
G1 X136.865 Y87.444 E77.87357
G0 F6000 X137.04 Y87.404
G0 X136.673 Y86.058
G0 X136.029 Y86.199
;TYPE:WALL-OUTER
G1 F900 X136.146 Y86.731 E77.90836
G1 X136.274 Y87.035 E77.92942
G1 X136.385 Y87.499 E77.95989
G1 X136.414 Y137.608 E81.15982
G1 X176.259 Y137.609 E83.7043
G1 X176.259 Y133.089 E83.99295
G1 X147.746 Y133.089 E85.81377
G1 X146.606 Y133.012 E85.88674
G1 X145.511 Y132.792 E85.95806
G1 X144.408 Y132.407 E86.03267
G1 X143.459 Y131.917 E86.10087
G1 X142.583 Y131.295 E86.16948
G1 X141.795 Y130.516 E86.24024
G1 X141.187 Y129.681 E86.3062
G1 X140.758 Y128.813 E86.36803
G1 X140.478 Y127.836 E86.43293
G1 X140.386 Y126.874 E86.49465
G1 X140.385 Y82.391 E89.33531
G1 X83.911 Y82.391 E92.94171
G1 X83.859 Y82.62 E92.9567
G1 X83.741 Y83.738 E93.02849
G1 X83.741 Y85.133 E93.11758
G1 X85.55 Y85.13 E93.2331
G1 X85.652 Y84.994 E93.24395
G1 X85.82 Y84.882 E93.25685
G1 X85.927 Y84.749 E93.26775
G1 X86.866 Y84.052 E93.34243
G1 X87.132 Y83.824 E93.3648
G1 X87.271 Y83.765 E93.37444
G1 X87.509 Y83.61 E93.39258
G1 X88.183 Y83.366 E93.43836
G1 X132.346 Y83.406 E96.25858
G1 X132.923 Y83.536 E96.29635
G1 X133.289 Y83.657 E96.32097
G1 X133.619 Y83.788 E96.34364
G1 X134.331 Y84.257 E96.39809
G1 X134.981 Y84.749 E96.45015
G1 X135.606 Y85.325 E96.50442
G1 X135.78 Y85.607 E96.52558
G1 X135.916 Y85.991 E96.5516
G1 X136.029 Y86.199 E96.56672
G1 F1500 E90.06672
G0 F6000 X136.673 Y86.058
G0 X135.404 Y83.579
G0 X139.213 Y83.563
G0 X139.786 Y126.894
G0 X139.886 Y127.944
G0 X140.189 Y129.011
G0 X141.864 Y132.134
G0 X141.652 Y132.348
;TYPE:SKIN
G1 F1500 E96.56672
G1 F900 X142.724 Y133.112 E96.65078
G1 X143.851 Y133.696 E96.73184
G1 X145.141 Y134.147 E96.81911
G1 X146.43 Y134.405 E96.90305
G1 X147.651 Y134.487 E96.9812
G1 X174.859 Y134.489 E98.71869
G1 X174.859 Y136.209 E98.82853
G1 X137.815 Y136.208 E101.19414
G1 X137.784 Y87.502 E104.30448
G1 X137.748 Y87.177 E104.32536
G1 X137.652 Y86.763 E104.3525
G1 X137.487 Y86.306 E104.38353
G1 X137.396 Y85.895 E104.41041
G1 X137.238 Y85.475 E104.43906
G1 X137.184 Y85.38 E104.44604
G1 X137.09 Y85.113 E104.46412
G1 X136.876 Y84.681 E104.4949
G1 X136.548 Y84.289 E104.52754
G1 X136.011 Y83.791 E104.57431
G1 X138.985 Y83.791 E104.76423
G1 X138.986 Y126.955 E107.52066
G1 X139.102 Y128.126 E107.59581
G1 X139.39 Y129.144 E107.66337
G1 X139.503 Y129.434 E107.68324
G1 X139.985 Y130.412 E107.75287
G1 X140.733 Y131.437 E107.8339
G1 X141.652 Y132.348 E107.91654
G1 F1500 E101.41654
G0 F6000 X141.864 Y132.134
G0 X147.668 Y134.248
G0 X175.087 Y134.261
G0 X175.087 Y136.437
G0 X138.682 Y136.508
G0 X138.683 Y135.968
G1 F1500 E107.91654
G1 F900 X138.053 Y135.338 E107.97343
G0 F6000 X138.052 Y134.658
G1 F900 X139.362 Y135.968 E108.09174
G0 F6000 X140.041 Y135.968
G1 F900 X138.052 Y133.979 E108.27137
G0 F6000 X138.051 Y133.3
G1 F900 X140.719 Y135.968 E108.51232
G0 F6000 X141.398 Y135.968
G1 F900 X138.051 Y132.621 E108.81459
G0 F6000 X138.051 Y131.941
G1 F900 X142.077 Y135.968 E109.17823
G0 F6000 X142.756 Y135.968
G1 F900 X138.05 Y131.262 E109.60323
G0 F6000 X138.05 Y130.583
G1 F900 X143.435 Y135.968 E110.08955
G0 F6000 X144.114 Y135.968
G1 F900 X138.049 Y129.904 E110.63724
G0 F6000 X138.049 Y129.225
G1 F900 X144.792 Y135.968 E111.24621
