;FLAVOR:Marlin
;TIME:3596
;Filament used: 2.20099m
;Layer height: 0.2
;MINX:14.668
;MINY:23.812
;MINZ:0.2
;MAXX:242.642
;MAXY:202.583
;MAXZ:1.4
;POSTPROCESSED
;Generated with Cura_SteamEngine 5.3.1
;
;

M82 ;absolute extrusion mode
START_PRINT EXTRUDER_TEMP=250.0 BED_TEMP=100 RELATIVE_E_MODE=False PROBE=false PROBE_AREA_START=%MINX%,%MINY% PROBE_AREA_END=%MAXX%,%MAXY%
G92 E0
G92 E0
G1 F1500 E-6.5
;LAYER_COUNT:7
;LAYER:0
M107
G0 F6000 X30.438 Y25.655 Z0.2
;TYPE:SKIRT
G1 F1500 E0
G1 F900 X30.725 Y25.345 E0.01686
G1 X31.066 Y25.094 E0.03376
G1 X31.448 Y24.912 E0.05065
G1 X31.857 Y24.804 E0.06753
G1 X32.278 Y24.776 E0.08437
G1 X32.698 Y24.827 E0.10126
G1 X33.101 Y24.956 E0.11815
G1 X33.509 Y25.184 E0.1368
G1 X33.819 Y25.404 E0.15197
G1 X42.618 Y31.973 E0.59023
G1 X43.225 Y32.441 E0.62083
G1 X44.067 Y33.126 E0.66415
G1 X44.615 Y33.586 E0.6927
G1 X46.794 Y35.312 E0.80365
G1 X48.999 Y36.959 E0.9135
G1 X51.272 Y38.561 E1.02449
G1 X53.026 Y39.746 E1.10897
G1 X61.875 Y46.354 E1.54976
G1 X62.454 Y46.801 E1.57896
G1 X63.296 Y47.486 E1.62228
G1 X63.844 Y47.946 E1.65083
G1 X66.023 Y49.672 E1.76178
G1 X68.228 Y51.319 E1.87163
G1 X70.502 Y52.921 E1.98265
G1 X72.256 Y54.107 E2.06716
G1 X81.103 Y60.713 E2.50784
G1 X81.686 Y61.162 E2.53721
G1 X82.572 Y61.885 E2.58285
G1 X83.148 Y62.367 E2.61282
G1 X85.292 Y64.063 E2.72193
G1 X87.51 Y65.718 E2.83239
G1 X89.803 Y67.33 E2.94426
G1 X91.485 Y68.467 E3.02529
G1 X100.331 Y75.072 E3.46591
G1 X100.916 Y75.522 E3.49537
G1 X101.802 Y76.245 E3.54101
G1 X102.378 Y76.727 E3.57099
G1 X104.522 Y78.423 E3.68009
G1 X106.74 Y80.078 E3.79055
G1 X109.017 Y81.679 E3.90164
G1 X110.411 Y82.614 E3.96864
G1 X110.745 Y82.85 E3.98496
G1 X119.537 Y89.414 E4.42288
G1 X120.144 Y89.882 E4.45347
G1 X120.986 Y90.567 E4.49679
G1 X121.534 Y91.027 E4.52535
G1 X123.713 Y92.753 E4.63629
G1 X125.918 Y94.4 E4.74614
G1 X128.191 Y96.002 E4.85713
G1 X129.945 Y97.187 E4.94161
G1 X138.794 Y103.795 E5.38241
G1 X139.373 Y104.242 E5.4116
G1 X140.215 Y104.927 E5.45492
G1 X140.763 Y105.387 E5.48348
G1 X142.942 Y107.113 E5.59442
G1 X145.147 Y108.76 E5.70427
G1 X147.421 Y110.362 E5.81529
G1 X149.175 Y111.548 E5.8998
G1 X158.022 Y118.154 E6.34048
G1 X158.605 Y118.603 E6.36985
G1 X159.491 Y119.326 E6.41549
G1 X160.067 Y119.808 E6.44547
G1 X162.211 Y121.504 E6.55458
G1 X164.429 Y123.159 E6.66503
G1 X166.722 Y124.771 E6.7769
G1 X168.404 Y125.908 E6.85793
G1 X177.25 Y132.513 E7.29855
G1 X177.835 Y132.963 E7.32801
G1 X178.721 Y133.686 E7.37365
G1 X179.297 Y134.168 E7.40363
G1 X181.441 Y135.864 E7.51274
G1 X183.659 Y137.519 E7.62319
G1 X185.936 Y139.12 E7.73429
G1 X187.33 Y140.055 E7.80128
G1 X187.664 Y140.291 E7.8176
G1 X196.456 Y146.855 E8.25552
G1 X197.063 Y147.323 E8.28611
G1 X197.905 Y148.008 E8.32943
G1 X198.453 Y148.468 E8.35799
G1 X200.632 Y150.194 E8.46894
G1 X202.837 Y151.841 E8.57878
G1 X205.11 Y153.443 E8.68977
G1 X206.864 Y154.628 E8.77426
G1 X215.713 Y161.236 E9.21505
G1 X216.292 Y161.683 E9.24424
G1 X217.134 Y162.368 E9.28757
G1 X217.682 Y162.828 E9.31612
G1 X219.861 Y164.554 E9.42707
G1 X222.066 Y166.201 E9.53691
G1 X224.34 Y167.803 E9.64794
G1 X226.094 Y168.989 E9.73244
G1 X234.945 Y175.598 E10.17332
G1 X235.493 Y176.021 E10.20095
G1 X235.802 Y176.31 E10.21784
G1 X236.129 Y176.795 E10.24118
G1 X236.594 Y177.728 E10.28279
G1 X237.857 Y180.174 E10.39266
G1 X239.205 Y182.615 E10.50396
G1 X240.606 Y184.985 E10.61384
G1 X241.351 Y186.207 E10.67096
G1 X241.536 Y186.587 E10.68783
G1 X241.646 Y186.995 E10.7047
G1 X241.678 Y187.417 E10.72159
G1 X241.629 Y187.837 E10.73846
G1 X241.503 Y188.241 E10.75535
G1 X241.269 Y188.664 E10.77465
G1 X241.061 Y188.959 E10.78905
G1 X232.678 Y200.185 E11.34825
G1 X232.245 Y200.747 E11.37657
G1 X231.957 Y201.056 E11.39342
G1 X231.615 Y201.306 E11.41033
G1 X231.233 Y201.486 E11.42719
G1 X230.824 Y201.592 E11.44405
G1 X230.402 Y201.619 E11.46093
G1 X229.898 Y201.545 E11.48126
G1 X227.162 Y200.821 E11.59422
G1 X224.416 Y200.177 E11.70679
G1 X221.74 Y199.628 E11.81582
G1 X219.709 Y199.273 E11.89811
G1 X219.348 Y199.203 E11.91279
G1 X218.942 Y199.084 E11.92967
G1 X218.483 Y198.835 E11.95051
G1 X218.178 Y198.62 E11.96541
G1 X209.343 Y192.024 E12.40546
G1 X208.806 Y191.611 E12.4325
G1 X207.897 Y190.87 E12.47931
G1 X207.337 Y190.401 E12.50846
G1 X205.157 Y188.676 E12.61942
G1 X202.95 Y187.029 E12.72933
G1 X200.689 Y185.438 E12.83967
G1 X199.293 Y184.503 E12.90673
G1 X198.891 Y184.219 E12.92638
G1 X190.113 Y177.663 E13.36365
G1 X189.525 Y177.21 E13.39328
G1 X188.645 Y176.492 E13.43861
G1 X188.062 Y176.004 E13.46895
G1 X185.925 Y174.314 E13.5777
G1 X183.707 Y172.659 E13.68815
G1 X181.43 Y171.058 E13.79924
G1 X180.009 Y170.105 E13.86753
G1 X179.711 Y169.895 E13.88208
G1 X170.884 Y163.303 E14.32179
G1 X170.298 Y162.851 E14.35133
G1 X169.461 Y162.17 E14.39439
G1 X168.913 Y161.71 E14.42295
G1 X166.734 Y159.984 E14.5339
G1 X164.529 Y158.337 E14.64374
G1 X162.286 Y156.756 E14.75327
G1 X160.796 Y155.757 E14.82487
G1 X160.505 Y155.551 E14.8391
G1 X151.652 Y148.942 E15.28004
G1 X151.115 Y148.528 E15.3071
G1 X150.232 Y147.81 E15.35253
G1 X149.684 Y147.35 E15.38108
G1 X147.505 Y145.624 E15.49203
G1 X145.3 Y143.977 E15.60188
G1 X143.057 Y142.396 E15.7114
G1 X141.577 Y141.403 E15.78254
G1 X141.196 Y141.133 E15.80117
G1 X132.424 Y134.582 E16.23814
G1 X131.836 Y134.129 E16.26777
G1 X130.978 Y133.429 E16.31196
G1 X130.418 Y132.96 E16.34112
G1 X128.238 Y131.235 E16.45207
G1 X126.031 Y129.588 E16.56198
G1 X123.77 Y127.997 E16.67232
G1 X122.334 Y127.034 E16.74133
G1 X122.029 Y126.819 E16.75623
G1 X113.194 Y120.222 E17.19631
G1 X112.606 Y119.769 E17.22593
G1 X111.726 Y119.051 E17.27126
G1 X111.143 Y118.563 E17.30161
G1 X109.006 Y116.873 E17.41035
G1 X106.788 Y115.218 E17.5208
G1 X104.511 Y113.617 E17.6319
G1 X103.09 Y112.664 E17.70019
G1 X102.792 Y112.454 E17.71474
G1 X93.965 Y105.862 E18.15444
G1 X93.379 Y105.41 E18.18398
G1 X92.542 Y104.729 E18.22705
G1 X91.994 Y104.269 E18.2556
G1 X89.815 Y102.543 E18.36655
G1 X87.61 Y100.896 E18.47639
G1 X85.367 Y99.315 E18.58592
G1 X83.877 Y98.316 E18.65752
G1 X83.586 Y98.11 E18.67175
G1 X74.733 Y91.501 E19.11269
G1 X74.196 Y91.087 E19.13976
G1 X73.313 Y90.369 E19.18518
G1 X72.765 Y89.909 E19.21373
G1 X70.586 Y88.183 E19.32468
G1 X68.381 Y86.536 E19.43453
G1 X66.138 Y84.955 E19.54405
G1 X64.658 Y83.962 E19.61519
G1 X64.277 Y83.692 E19.63383
G1 X55.505 Y77.141 E20.07079
G1 X54.917 Y76.688 E20.10042
G1 X54.059 Y75.988 E20.14461
G1 X53.499 Y75.519 E20.17377
G1 X51.319 Y73.794 E20.28472
G1 X49.112 Y72.147 E20.39463
G1 X46.851 Y70.556 E20.50498
G1 X45.415 Y69.593 E20.57398
G1 X45.11 Y69.378 E20.58888
G1 X36.275 Y62.781 E21.02896
G1 X35.687 Y62.328 E21.05858
G1 X34.807 Y61.61 E21.10391
G1 X34.224 Y61.122 E21.13426
G1 X32.087 Y59.432 E21.243
G1 X29.869 Y57.777 E21.35345
G1 X27.592 Y56.176 E21.46455
G1 X26.171 Y55.223 E21.53284
G1 X25.873 Y55.013 E21.54739
G1 X17.047 Y48.422 E21.98704
G1 X16.506 Y48.006 E22.01427
G1 X16.196 Y47.717 E22.03119
G1 X15.946 Y47.376 E22.04807
G1 X15.765 Y46.994 E22.06494
G1 X15.659 Y46.585 E22.0818
G1 X15.632 Y46.163 E22.09868
G1 X15.685 Y45.743 E22.11557
G1 X15.815 Y45.341 E22.13244
G1 X16.038 Y44.942 E22.15068
G1 X16.258 Y44.631 E22.16588
G1 X30.033 Y26.185 E23.08474
G1 X30.438 Y25.655 E23.11136
G0 F6000 X30.086 Y25.329
G1 F900 X30.407 Y24.982 E23.13023
G1 X30.813 Y24.683 E23.15035
G1 X31.285 Y24.459 E23.1712
G1 X31.779 Y24.328 E23.1916
G1 X32.288 Y24.294 E23.21196
G1 X32.802 Y24.357 E23.23263
G1 X33.294 Y24.514 E23.25324
G1 X33.743 Y24.765 E23.27377
G1 X34.106 Y25.019 E23.29146
G1 X42.911 Y31.593 E23.73003
G1 X43.528 Y32.069 E23.76113
G1 X44.376 Y32.758 E23.80474
G1 X44.924 Y33.218 E23.83329
G1 X47.081 Y34.927 E23.94313
G1 X49.286 Y36.574 E24.05298
G1 X51.541 Y38.163 E24.16308
G1 X53.313 Y39.361 E24.24845
G1 X62.168 Y45.974 E24.68955
G1 X62.757 Y46.429 E24.71926
G1 X63.605 Y47.118 E24.76287
G1 X64.153 Y47.578 E24.79142
G1 X66.31 Y49.287 E24.90126
G1 X68.515 Y50.934 E25.01111
G1 X70.771 Y52.523 E25.12124
G1 X72.543 Y53.722 E25.20664
G1 X81.396 Y60.333 E25.64763
G1 X81.989 Y60.79 E25.67751
G1 X82.88 Y61.517 E25.7234
G1 X83.446 Y61.991 E25.75287
G1 X85.579 Y63.678 E25.86141
G1 X87.786 Y65.325 E25.97132
G1 X90.072 Y66.932 E26.08285
G1 X91.772 Y68.082 E26.16477
G1 X100.624 Y74.692 E26.6057
G1 X101.219 Y75.15 E26.63567
G1 X102.11 Y75.877 E26.68157
G1 X102.676 Y76.351 E26.71103
G1 X104.809 Y78.038 E26.81957
G1 X107.016 Y79.685 E26.92948
G1 X109.284 Y81.28 E27.04015
G1 X110.688 Y82.222 E27.10763
G1 X111.032 Y82.465 E27.12444
G1 X119.83 Y89.034 E27.56267
G1 X120.447 Y89.51 E27.59377
G1 X121.295 Y90.199 E27.63738
G1 X121.843 Y90.659 E27.66593
G1 X124 Y92.368 E27.77577
G1 X126.205 Y94.015 E27.88562
G1 X128.46 Y95.604 E27.99572
G1 X130.232 Y96.802 E28.08109
G1 X139.087 Y103.415 E28.52219
G1 X139.676 Y103.87 E28.5519
G1 X140.524 Y104.559 E28.59551
G1 X141.072 Y105.019 E28.62406
G1 X143.229 Y106.728 E28.7339
G1 X145.434 Y108.375 E28.84375
G1 X147.69 Y109.964 E28.95388
G1 X149.462 Y111.163 E29.03928
G1 X158.315 Y117.774 E29.48027
G1 X158.908 Y118.231 E29.51015
G1 X159.799 Y118.958 E29.55604
G1 X160.365 Y119.432 E29.58551
G1 X162.498 Y121.119 E29.69405
G1 X164.705 Y122.766 E29.80396
G1 X166.991 Y124.373 E29.91549
G1 X168.691 Y125.523 E29.99741
G1 X177.543 Y132.133 E30.43834
G1 X178.138 Y132.591 E30.46831
G1 X179.029 Y133.318 E30.51421
G1 X179.595 Y133.792 E30.54367
G1 X181.728 Y135.479 E30.65221
G1 X183.935 Y137.126 E30.76212
G1 X186.203 Y138.721 E30.87279
G1 X187.607 Y139.663 E30.94027
G1 X187.951 Y139.906 E30.95708
G1 X196.749 Y146.475 E31.39531
G1 X197.366 Y146.951 E31.42641
G1 X198.214 Y147.64 E31.47002
G1 X198.762 Y148.1 E31.49857
G1 X200.919 Y149.809 E31.60841
G1 X203.124 Y151.456 E31.71826
G1 X205.379 Y153.045 E31.82836
G1 X207.151 Y154.243 E31.91373
G1 X216.006 Y160.856 E32.35483
G1 X216.595 Y161.311 E32.38454
G1 X217.443 Y162 E32.42815
G1 X217.991 Y162.46 E32.4567
G1 X220.148 Y164.169 E32.56654
G1 X222.353 Y165.816 E32.67639
G1 X224.609 Y167.405 E32.78652
G1 X226.381 Y168.604 E32.87192
G1 X235.238 Y175.218 E33.31311
G1 X235.821 Y175.67 E33.34255
G1 X236.169 Y175.996 E33.36158
G1 X236.559 Y176.581 E33.38964
G1 X237.023 Y177.514 E33.43123
G1 X238.277 Y179.942 E33.5403
G1 X239.618 Y182.371 E33.65104
G1 X241.016 Y184.735 E33.76066
G1 X241.783 Y185.997 E33.8196
G1 X241.986 Y186.414 E33.83811
G1 X242.122 Y186.918 E33.85894
G1 X242.16 Y187.426 E33.87928
G1 X242.101 Y187.935 E33.89973
G1 X241.946 Y188.432 E33.92051
G1 X241.661 Y188.941 E33.94379
G1 X241.446 Y189.246 E33.95868
G1 X233.058 Y200.478 E34.51819
G1 X232.625 Y201.04 E34.5465
G1 X232.276 Y201.418 E34.56704
G1 X231.862 Y201.72 E34.58749
G1 X231.396 Y201.94 E34.60806
G1 X230.901 Y202.068 E34.62846
G1 X230.38 Y202.101 E34.6493
G1 X229.775 Y202.009 E34.67372
G1 X227.039 Y201.285 E34.78668
G1 X224.31 Y200.645 E34.89856
G1 X221.657 Y200.101 E35.00665
G1 X219.618 Y199.744 E35.08927
G1 X219.213 Y199.664 E35.10574
G1 X218.759 Y199.531 E35.12463
G1 X218.254 Y199.257 E35.14756
G1 X217.891 Y199.005 E35.16519
G1 X209.05 Y192.404 E35.60556
G1 X208.503 Y191.983 E35.63311
G1 X207.589 Y191.238 E35.68017
G1 X207.029 Y190.769 E35.70933
G1 X204.87 Y189.061 E35.8192
G1 X202.663 Y187.414 E35.92911
G1 X200.413 Y185.831 E36.03891
G1 X199.016 Y184.895 E36.10603
G1 X198.604 Y184.604 E36.12616
G1 X189.82 Y178.043 E36.56375
G1 X189.222 Y177.582 E36.59389
G1 X188.337 Y176.86 E36.63947
G1 X187.754 Y176.372 E36.66982
G1 X185.638 Y174.699 E36.77748
G1 X183.42 Y173.044 E36.88793
G1 X181.154 Y171.451 E36.99849
G1 X179.733 Y170.497 E37.0668
G1 X179.424 Y170.28 E37.08187
G1 X170.591 Y163.683 E37.52189
G1 X169.995 Y163.223 E37.55193
G1 X169.152 Y162.538 E37.59529
G1 X168.604 Y162.078 E37.62384
G1 X166.447 Y160.369 E37.73368
G1 X164.242 Y158.722 E37.84353
G1 X162.009 Y157.148 E37.95257
G1 X160.519 Y156.149 E38.02417
G1 X160.218 Y155.936 E38.03888
G1 X151.359 Y149.322 E38.48014
G1 X150.812 Y148.9 E38.50771
G1 X149.923 Y148.178 E38.55342
G1 X149.375 Y147.718 E38.58198
G1 X147.218 Y146.009 E38.69181
G1 X145.013 Y144.362 E38.80166
G1 X142.78 Y142.788 E38.9107
G1 X141.299 Y141.795 E38.98187
G1 X140.909 Y141.518 E39.00096
G1 X132.131 Y134.962 E39.43824
G1 X131.533 Y134.501 E39.46837
G1 X130.67 Y133.797 E39.51282
G1 X130.11 Y133.328 E39.54198
G1 X127.951 Y131.62 E39.65185
G1 X125.744 Y129.973 E39.76176
G1 X123.494 Y128.39 E39.87156
G1 X122.057 Y127.426 E39.94063
G1 X121.742 Y127.204 E39.95601
G1 X112.901 Y120.602 E40.3964
G1 X112.303 Y120.141 E40.42654
G1 X111.418 Y119.419 E40.47212
G1 X110.835 Y118.931 E40.50247
G1 X108.719 Y117.258 E40.61013
G1 X106.501 Y115.603 E40.72058
G1 X104.235 Y114.01 E40.83114
G1 X102.814 Y113.056 E40.89945
G1 X102.505 Y112.839 E40.91452
G1 X93.672 Y106.242 E41.35453
G1 X93.076 Y105.782 E41.38458
G1 X92.233 Y105.097 E41.42794
G1 X91.685 Y104.637 E41.45649
G1 X89.528 Y102.928 E41.56633
G1 X87.323 Y101.281 E41.67618
G1 X85.09 Y99.707 E41.78522
G1 X83.6 Y98.708 E41.85681
G1 X83.299 Y98.495 E41.87153
G1 X74.44 Y91.881 E42.31279
G1 X73.893 Y91.459 E42.34036
G1 X73.004 Y90.737 E42.38607
G1 X72.456 Y90.277 E42.41462
G1 X70.299 Y88.568 E42.52446
G1 X68.094 Y86.921 E42.63431
G1 X65.861 Y85.347 E42.74335
G1 X64.38 Y84.354 E42.81451
G1 X63.99 Y84.077 E42.83361
G1 X55.212 Y77.521 E43.27089
G1 X54.614 Y77.06 E43.30102
G1 X53.751 Y76.356 E43.34547
G1 X53.191 Y75.887 E43.37463
G1 X51.032 Y74.179 E43.4845
G1 X48.825 Y72.532 E43.59441
G1 X46.575 Y70.949 E43.70421
G1 X45.138 Y69.985 E43.77328
G1 X44.823 Y69.763 E43.78866
G1 X35.982 Y63.161 E44.22905
G1 X35.384 Y62.7 E44.25919
G1 X34.499 Y61.978 E44.30477
G1 X33.916 Y61.49 E44.33512
G1 X31.8 Y59.817 E44.44278
G1 X29.582 Y58.162 E44.55323
G1 X27.316 Y56.569 E44.66379
G1 X25.895 Y55.615 E44.7321
G1 X25.586 Y55.398 E44.74717
G1 X16.754 Y48.803 E45.1871
G1 X16.213 Y48.387 E45.21434
G1 X15.835 Y48.036 E45.23493
G1 X15.531 Y47.621 E45.25546
G1 X15.312 Y47.16 E45.27583
G1 X15.183 Y46.662 E45.29636
G1 X15.15 Y46.149 E45.31688
G1 X15.215 Y45.635 E45.33756
G1 X15.372 Y45.149 E45.35794
G1 X15.646 Y44.665 E45.38014
G1 X15.873 Y44.344 E45.39583
G1 X29.652 Y25.894 E46.31491
G1 X30.086 Y25.329 E46.34334
G0 F6000 X29.705 Y25.037
G1 F900 X30.085 Y24.623 E46.36577
G1 X30.568 Y24.267 E46.38972
G1 X31.117 Y24.007 E46.41397
G1 X31.701 Y23.852 E46.43808
G1 X32.298 Y23.812 E46.46196
G1 X32.906 Y23.887 E46.48641
G1 X33.487 Y24.072 E46.51075
G1 X33.977 Y24.346 E46.53316
G1 X34.393 Y24.634 E46.55335
G1 X43.204 Y31.213 E46.99223
G1 X43.831 Y31.696 E47.02382
G1 X44.685 Y32.39 E47.06774
G1 X45.233 Y32.85 E47.0963
G1 X47.368 Y34.542 E47.20503
G1 X49.573 Y36.189 E47.31487
G1 X51.81 Y37.765 E47.42409
G1 X53.6 Y38.976 E47.51035
G1 X62.461 Y45.594 E47.95176
G1 X63.06 Y46.056 E47.98195
G1 X63.914 Y46.75 E48.02587
G1 X64.462 Y47.21 E48.05443
G1 X66.597 Y48.902 E48.16316
G1 X68.802 Y50.549 E48.273
G1 X71.04 Y52.125 E48.38225
G1 X72.83 Y53.337 E48.46853
G1 X81.689 Y59.953 E48.90983
G1 X82.292 Y60.418 E48.94022
G1 X83.188 Y61.149 E48.98638
G1 X83.744 Y61.615 E49.01533
G1 X85.866 Y63.293 E49.12331
G1 X88.062 Y64.932 E49.23267
G1 X90.341 Y66.534 E49.34386
G1 X92.059 Y67.697 E49.42666
G1 X100.917 Y74.312 E49.86791
G1 X101.522 Y74.778 E49.89839
G1 X102.418 Y75.509 E49.94454
G1 X102.974 Y75.975 E49.97349
G1 X105.096 Y77.653 E50.08147
G1 X107.292 Y79.292 E50.19083
G1 X109.551 Y80.881 E50.30107
G1 X110.965 Y81.83 E50.36904
G1 X111.319 Y82.08 E50.38633
G1 X120.123 Y88.654 E50.82487
G1 X120.75 Y89.137 E50.85646
G1 X121.604 Y89.831 E50.90038
G1 X122.152 Y90.291 E50.92894
G1 X124.287 Y91.983 E51.03767
G1 X126.492 Y93.63 E51.14751
G1 X128.729 Y95.206 E51.25673
G1 X130.519 Y96.417 E51.34298
G1 X139.38 Y103.035 E51.7844
G1 X139.979 Y103.497 E51.81459
G1 X140.833 Y104.191 E51.85851
G1 X141.381 Y104.651 E51.88707
G1 X143.516 Y106.343 E51.99579
G1 X145.721 Y107.99 E52.10564
G1 X147.959 Y109.566 E52.21489
G1 X149.749 Y110.778 E52.30117
G1 X158.608 Y117.394 E52.74247
G1 X159.211 Y117.859 E52.77286
G1 X160.107 Y118.59 E52.81902
G1 X160.663 Y119.056 E52.84797
G1 X162.785 Y120.734 E52.95594
G1 X164.981 Y122.373 E53.06531
G1 X167.26 Y123.975 E53.1765
G1 X168.978 Y125.138 E53.2593
G1 X177.836 Y131.753 E53.70054
G1 X178.441 Y132.219 E53.73102
