;FLAVOR:Marlin
;TIME:8233
;Filament used: 8.02739m
;Layer height: 0.32
;MINX:88.392
;MINY:74.957
;MINZ:0.32
;MAXX:171.608
;MAXY:144.029
;MAXZ:24.96
;POSTPROCESSED
;Generated with Cura_SteamEngine 5.3.1
;
;

M82 ;absolute extrusion mode
START_PRINT EXTRUDER_TEMP=250.0 BED_TEMP=90 RELATIVE_E_MODE=False PROBE=alse PROBE_AREA_START=%MINX%,%MINY% PROBE_AREA_END=%MAXX%,%MAXY%
G92 E0
G92 E0
G1 F1500 E-6.5
;LAYER_COUNT:78
;LAYER:0
M107
G0 F6000 X92.967 Y77.649 Z0.32
;TYPE:SKIRT
G1 F1500 E0
G1 F900 X93.289 Y77.374 E0.02817
G1 X93.832 Y77.094 E0.06881
G1 X94.979 Y76.688 E0.14975
G1 X95.576 Y76.467 E0.19209
G1 X96.634 Y76.094 E0.26672
G1 X97.045 Y75.991 E0.2949
G1 X97.319 Y75.967 E0.3132
G1 X97.703 Y75.957 E0.33875
G1 X137.598 Y75.957 E2.99258
G1 X138.297 Y75.967 E3.03908
G1 X138.718 Y76.013 E3.06725
G1 X139.02 Y76.098 E3.08812
G1 X141.823 Y77.097 E3.28606
G1 X142.207 Y77.276 E3.31425
G1 X142.551 Y77.524 E3.34246
G1 X142.777 Y77.753 E3.36386
G1 X143.065 Y78.089 E3.3933
G1 X144.921 Y80.193 E3.57993
G1 X146.798 Y82.207 E3.76306
G1 X148.731 Y84.163 E3.94599
G1 X150.753 Y86.099 E4.13221
G1 X152.795 Y87.945 E4.31532
G1 X154.918 Y89.757 E4.50099
G1 X157.043 Y91.471 E4.68259
G1 X159.223 Y93.128 E4.86474
G1 X161.491 Y94.755 E5.05042
G1 X163.794 Y96.31 E5.23526
G1 X166.124 Y97.788 E5.41881
G1 X168.5 Y99.203 E5.60277
G1 X169.473 Y99.765 E5.67751
G1 X169.819 Y100.01 E5.70571
G1 X170.112 Y100.316 E5.7339
G1 X170.343 Y100.672 E5.76213
G1 X170.502 Y101.064 E5.79026
G1 X170.597 Y101.644 E5.82936
G1 X170.608 Y102.037 E5.85551
G1 X170.608 Y121.032 E7.11907
G1 X170.598 Y121.734 E7.16577
G1 X170.552 Y122.155 E7.19394
G1 X170.428 Y122.561 E7.22218
G1 X170.23 Y122.935 E7.25033
G1 X169.965 Y123.266 E7.27853
G1 X169.762 Y123.452 E7.29685
G1 X169.24 Y123.874 E7.3415
G1 X167.089 Y125.663 E7.52761
G1 X165.01 Y127.495 E7.71193
G1 X162.994 Y129.374 E7.89526
G1 X161.045 Y131.295 E8.07729
G1 X159.09 Y133.336 E8.2653
G1 X157.251 Y135.368 E8.4476
G1 X155.465 Y137.458 E8.63048
G1 X153.739 Y139.595 E8.81321
G1 X152.024 Y141.835 E9.00087
G1 X151.735 Y142.146 E9.02911
G1 X151.523 Y142.313 E9.04706
G1 X151.2 Y142.538 E9.07325
G1 X150.831 Y142.747 E9.10146
G1 X150.512 Y142.861 E9.12399
G1 X150.193 Y142.949 E9.14601
G1 X149.776 Y143.023 E9.17418
G1 X149.517 Y143.029 E9.19141
G1 X146.87 Y142.937 E9.3676
G1 X144.123 Y142.911 E9.55034
G1 X141.317 Y142.965 E9.73703
G1 X139.776 Y143.027 E9.83962
G1 X139.315 Y142.998 E9.87034
G1 X136.217 Y142.482 E10.07926
G1 X133.485 Y142.109 E10.26268
G1 X130.735 Y141.814 E10.44666
G1 X127.971 Y141.595 E10.6311
G1 X125.201 Y141.455 E10.8156
G1 X122.465 Y141.394 E10.99764
G1 X119.694 Y141.411 E11.18197
G1 X116.925 Y141.506 E11.36628
G1 X114.156 Y141.679 E11.55083
G1 X111.396 Y141.931 E11.73519
G1 X108.671 Y142.257 E11.91775
G1 X105.014 Y142.818 E12.16386
G1 X103.976 Y142.997 E12.23393
G1 X103.516 Y143.029 E12.2646
G1 X100.87 Y142.937 E12.44072
G1 X98.123 Y142.911 E12.62346
G1 X95.317 Y142.965 E12.81015
G1 X93.776 Y143.027 E12.91274
G1 X93.352 Y143.004 E12.94099
G1 X93.082 Y142.947 E12.95934
G1 X92.769 Y142.86 E12.98095
G1 X92.374 Y142.708 E13.00911
G1 X92.09 Y142.541 E13.03102
G1 X91.764 Y142.315 E13.05741
G1 X91.44 Y142.042 E13.08559
G1 X91.156 Y141.686 E13.11589
G1 X90.845 Y141.202 E13.15415
G1 X90.477 Y140.582 E13.20212
G1 X90.354 Y140.344 E13.21994
G1 X90.194 Y139.982 E13.24626
G1 X89.87 Y139.175 E13.30411
G1 X89.727 Y138.656 E13.33992
G1 X89.544 Y137.857 E13.39445
G1 X89.5 Y137.588 E13.41258
G1 X89.45 Y137.08 E13.44653
G1 X89.395 Y136.079 E13.51322
G1 X89.392 Y122.307 E14.42934
G1 X89.404 Y121.594 E14.47677
G1 X89.462 Y121.126 E14.50814
G1 X90.123 Y118.264 E14.70354
G1 X90.672 Y115.536 E14.88864
G1 X91.145 Y112.776 E15.07491
G1 X91.526 Y110.099 E15.25478
G1 X91.843 Y107.314 E15.44124
G1 X92.08 Y104.538 E15.62657
G1 X92.234 Y101.82 E15.80766
G1 X92.313 Y99.044 E15.9924
G1 X92.323 Y97.63 E16.08646
G1 X92.323 Y79.846 E17.26946
G1 X92.333 Y79.181 E17.3137
G1 X92.38 Y78.76 E17.34188
G1 X92.504 Y78.355 E17.37005
G1 X92.702 Y77.98 E17.39826
G1 X92.967 Y77.649 E17.42647
G0 F6000 X92.609 Y77.298
G1 F900 X93.008 Y76.956 E17.46142
G1 X93.665 Y76.623 E17.51042
G1 X94.805 Y76.219 E17.59087
G1 X95.41 Y75.995 E17.63379
G1 X96.468 Y75.622 E17.70841
G1 X96.96 Y75.496 E17.7422
G1 X97.306 Y75.467 E17.76529
G1 X97.69 Y75.457 E17.79085
G1 X137.605 Y75.457 E20.446
G1 X138.304 Y75.467 E20.49251
G1 X138.811 Y75.52 E20.52642
G1 X139.188 Y75.627 E20.55248
G1 X141.991 Y76.626 E20.75043
G1 X142.462 Y76.843 E20.78493
G1 X142.877 Y77.143 E20.81899
G1 X143.157 Y77.428 E20.84557
G1 X143.44 Y77.758 E20.87448
G1 X145.287 Y79.852 E21.06022
G1 X147.164 Y81.866 E21.24335
G1 X149.077 Y83.802 E21.4244
G1 X151.098 Y85.737 E21.61052
G1 X153.12 Y87.565 E21.79185
G1 X155.232 Y89.368 E21.97657
G1 X157.346 Y91.073 E22.15723
G1 X159.526 Y92.73 E22.33938
G1 X161.771 Y94.341 E22.52319
G1 X164.062 Y95.888 E22.70708
G1 X166.38 Y97.358 E22.88966
G1 X168.756 Y98.773 E23.07362
G1 X169.723 Y99.332 E23.14792
G1 X170.146 Y99.629 E23.1823
G1 X170.504 Y100.002 E23.21669
G1 X170.789 Y100.441 E23.25151
G1 X170.987 Y100.929 E23.28654
G1 X171.097 Y101.63 E23.33374
G1 X171.108 Y102.023 E23.3599
G1 X171.108 Y121.039 E24.62485
G1 X171.098 Y121.741 E24.67155
G1 X171.044 Y122.254 E24.70586
G1 X170.892 Y122.754 E24.74062
G1 X170.65 Y123.21 E24.77496
G1 X170.303 Y123.635 E24.81146
G1 X170.1 Y123.821 E24.82978
G1 X169.554 Y124.263 E24.87651
G1 X167.42 Y126.038 E25.06115
G1 X165.341 Y127.87 E25.24547
G1 X163.335 Y129.74 E25.4279
G1 X161.396 Y131.651 E25.609
G1 X159.461 Y133.672 E25.79512
G1 X157.622 Y135.704 E25.97743
G1 X155.845 Y137.783 E26.15936
G1 X154.128 Y139.909 E26.34114
G1 X152.421 Y142.139 E26.52795
G1 X152.073 Y142.516 E26.56208
G1 X151.809 Y142.723 E26.5844
G1 X151.486 Y142.948 E26.61058
G1 X151.038 Y143.204 E26.64491
G1 X150.645 Y143.343 E26.67264
G1 X150.326 Y143.431 E26.69465
G1 X149.788 Y143.523 E26.73096
G1 X149.5 Y143.529 E26.75012
G1 X146.853 Y143.437 E26.9263
G1 X144.128 Y143.411 E27.10758
G1 X141.337 Y143.465 E27.29327
G1 X139.796 Y143.527 E27.39586
G1 X139.284 Y143.497 E27.42998
G1 X136.138 Y142.975 E27.64211
G1 X133.432 Y142.606 E27.82378
G1 X130.682 Y142.311 E28.00776
G1 X127.942 Y142.094 E28.1906
G1 X125.19 Y141.955 E28.3739
G1 X122.457 Y141.894 E28.55574
G1 X119.711 Y141.911 E28.73841
G1 X116.942 Y142.006 E28.92271
G1 X114.197 Y142.177 E29.10566
G1 X111.441 Y142.429 E29.28976
G1 X108.747 Y142.751 E29.47024
G1 X105.099 Y143.311 E29.71575
G1 X104.011 Y143.496 E29.78916
G1 X103.499 Y143.529 E29.82329
G1 X100.853 Y143.437 E29.99941
G1 X98.128 Y143.411 E30.18069
G1 X95.337 Y143.465 E30.36638
G1 X93.796 Y143.527 E30.46897
G1 X93.325 Y143.503 E30.50034
G1 X92.948 Y143.429 E30.5259
G1 X92.589 Y143.327 E30.55072
G1 X92.159 Y143.162 E30.58136
G1 X91.805 Y142.952 E30.60874
G1 X91.479 Y142.726 E30.63513
G1 X91.078 Y142.391 E30.66989
G1 X90.765 Y141.998 E30.70331
G1 X90.415 Y141.457 E30.74617
G1 X90.033 Y140.812 E30.79603
G1 X89.91 Y140.574 E30.81386
G1 X89.73 Y140.168 E30.8434
G1 X89.388 Y139.308 E30.90496
G1 X89.24 Y138.768 E30.94221
G1 X89.057 Y137.969 E30.99673
G1 X89.002 Y137.637 E31.01912
G1 X88.952 Y137.129 E31.05308
G1 X88.895 Y136.079 E31.12302
G1 X88.892 Y122.299 E32.03967
G1 X88.904 Y121.586 E32.08711
G1 X88.975 Y121.013 E32.12552
G1 X89.636 Y118.151 E32.32091
G1 X90.182 Y115.437 E32.50506
G1 X90.652 Y112.692 E32.69032
G1 X91.029 Y110.042 E32.86837
G1 X91.346 Y107.257 E33.05483
G1 X91.582 Y104.495 E33.23923
G1 X91.734 Y101.806 E33.41838
G1 X91.813 Y99.03 E33.60312
G1 X91.823 Y97.626 E33.69652
G1 X91.823 Y79.838 E34.87978
G1 X91.836 Y79.126 E34.92715
G1 X91.888 Y78.659 E34.95841
G1 X92.04 Y78.164 E34.99285
G1 X92.282 Y77.706 E35.02731
G1 X92.609 Y77.298 E35.06209
G0 F6000 X92.248 Y76.949
G1 F900 X92.728 Y76.537 E35.10417
G1 X93.439 Y76.177 E35.15718
G1 X95.244 Y75.523 E35.28489
G1 X96.302 Y75.15 E35.35951
G1 X96.877 Y75.001 E35.39903
G1 X97.293 Y74.967 E35.42679
G1 X97.677 Y74.957 E35.45234
G1 X137.612 Y74.957 E38.10883
G1 X138.311 Y74.967 E38.15533
G1 X138.908 Y75.028 E38.19525
G1 X139.325 Y75.146 E38.22408
G1 X142.159 Y76.155 E38.42419
G1 X142.715 Y76.409 E38.46485
G1 X143.205 Y76.763 E38.50506
G1 X143.537 Y77.103 E38.53667
G1 X143.815 Y77.427 E38.56507
G1 X145.653 Y79.511 E38.74992
G1 X147.53 Y81.525 E38.93305
G1 X149.423 Y83.441 E39.11222
G1 X151.443 Y85.375 E39.29824
G1 X153.445 Y87.185 E39.47778
G1 X155.546 Y88.979 E39.66155
G1 X157.649 Y90.675 E39.84127
G1 X159.818 Y92.324 E40.02251
G1 X162.063 Y93.935 E40.20632
G1 X164.33 Y95.466 E40.38829
G1 X166.636 Y96.928 E40.56992
G1 X169.012 Y98.343 E40.75388
G1 X169.973 Y98.899 E40.82773
G1 X170.474 Y99.249 E40.86839
G1 X170.896 Y99.688 E40.90889
G1 X171.234 Y100.21 E40.95026
G1 X171.473 Y100.797 E40.99242
G1 X171.597 Y101.616 E41.04752
G1 X171.608 Y102.009 E41.07367
G1 X171.608 Y121.046 E42.34002
G1 X171.598 Y121.748 E42.38672
G1 X171.536 Y122.352 E42.42711
G1 X171.355 Y122.949 E42.46861
G1 X171.069 Y123.488 E42.5092
G1 X170.641 Y124.004 E42.55379
G1 X170.415 Y124.21 E42.57413
G1 X169.869 Y124.651 E42.62082
G1 X167.751 Y126.413 E42.80409
G1 X165.672 Y128.245 E42.98842
G1 X163.676 Y130.106 E43.16995
G1 X161.747 Y132.007 E43.35011
G1 X159.832 Y134.008 E43.53435
G1 X157.993 Y136.04 E43.71666
G1 X156.225 Y138.108 E43.89764
G1 X154.517 Y140.223 E44.07848
G1 X152.818 Y142.443 E44.26444
G1 X152.412 Y142.886 E44.30441
G1 X152.095 Y143.133 E44.33114
G1 X151.734 Y143.382 E44.36032
G1 X151.247 Y143.66 E44.39762
G1 X150.778 Y143.825 E44.43069
G1 X150.41 Y143.924 E44.45604
G1 X149.872 Y144.016 E44.49235
G1 X149.483 Y144.029 E44.51824
G1 X146.836 Y143.937 E44.69442
G1 X144.133 Y143.911 E44.87424
G1 X141.357 Y143.965 E45.05893
G1 X139.816 Y144.027 E45.16152
G1 X139.202 Y143.99 E45.20244
G1 X136.059 Y143.469 E45.41437
G1 X133.379 Y143.103 E45.59429
G1 X130.629 Y142.808 E45.77827
G1 X127.913 Y142.593 E45.95951
G1 X125.179 Y142.455 E46.14161
G1 X122.449 Y142.394 E46.32325
G1 X119.728 Y142.411 E46.50426
G1 X116.959 Y142.506 E46.68856
G1 X114.241 Y142.675 E46.86971
G1 X111.487 Y142.927 E47.05367
G1 X108.823 Y143.245 E47.23214
G1 X105.183 Y143.804 E47.47711
G1 X104.095 Y143.989 E47.55053
G1 X103.482 Y144.029 E47.59139
G1 X100.836 Y143.937 E47.76751
G1 X98.133 Y143.911 E47.94732
G1 X95.357 Y143.965 E48.13202
G1 X93.816 Y144.027 E48.23461
G1 X93.229 Y143.994 E48.27372
G1 X92.811 Y143.91 E48.30208
G1 X92.41 Y143.794 E48.32985
G1 X91.941 Y143.614 E48.36326
G1 X91.52 Y143.363 E48.39587
G1 X91.158 Y143.11 E48.42525
G1 X90.721 Y142.745 E48.46312
G1 X90.345 Y142.27 E48.50342
G1 X89.985 Y141.712 E48.54759
G1 X89.589 Y141.042 E48.59937
G1 X89.453 Y140.777 E48.61918
G1 X89.265 Y140.353 E48.65003
G1 X88.923 Y139.493 E48.7116
G1 X88.753 Y138.88 E48.75391
G1 X88.564 Y138.051 E48.81047
G1 X88.504 Y137.686 E48.83508
G1 X88.454 Y137.178 E48.86903
G1 X88.395 Y136.079 E48.94225
G1 X88.392 Y122.291 E49.85943
G1 X88.404 Y121.578 E49.90686
G1 X88.488 Y120.9 E49.95231
G1 X89.149 Y118.038 E50.1477
G1 X89.692 Y115.338 E50.3309
G1 X90.159 Y112.608 E50.51514
G1 X90.532 Y109.985 E50.69138
G1 X90.849 Y107.2 E50.87783
G1 X91.084 Y104.452 E51.0613
G1 X91.234 Y101.792 E51.23852
G1 X91.313 Y99.016 E51.42326
G1 X91.323 Y97.622 E51.51599
G1 X91.323 Y79.829 E52.69958
G1 X91.336 Y79.117 E52.74696
G1 X91.396 Y78.558 E52.78435
G1 X91.576 Y77.972 E52.82513
G1 X91.862 Y77.431 E52.86584
G1 X92.248 Y76.949 E52.90692
G1 F1500 E46.40692
G0 F6000 X97.623 Y78.457
G1 F1500 E52.90692
G1 F900 X138.023 Y78.457 E55.59433
G1 X138.023 Y120.657 E58.40149
G1 X136.971 Y120.657 E58.47147
G1 X136.837 Y120.696 E58.48075
G1 X136.823 Y120.712 E58.48217
G1 X106.452 Y120.713 E60.50245
G1 X106.392 Y120.671 E60.50733
G1 X106.312 Y120.658 E60.51272
G1 X97.623 Y120.657 E61.09071
G1 X97.623 Y78.457 E63.89787
G0 F6000 X98.123 Y78.957
G1 F900 X137.523 Y78.957 E66.51877
G1 X137.523 Y120.157 E69.2594
G1 X136.971 Y120.157 E69.29612
G1 X136.73 Y120.197 E69.31237
G1 X136.702 Y120.212 E69.31448
G1 X106.537 Y120.213 E71.32107
G1 X106.312 Y120.158 E71.33648
G1 X98.123 Y120.157 E71.88121
G1 X98.123 Y78.957 E74.62185
G0 F6000 X98.623 Y79.457
G1 F900 X137.023 Y79.457 E77.17622
G1 X137.023 Y119.657 E79.85034
G1 X136.971 Y119.657 E79.8538
G1 X136.658 Y119.697 E79.87479
G1 X136.62 Y119.712 E79.87751
G1 X106.649 Y119.713 E81.87118
G1 X106.556 Y119.682 E81.87771
G1 X106.312 Y119.658 E81.89402
G1 X98.623 Y119.657 E82.40549
G1 X98.623 Y79.457 E85.0796
G0 F6000 X99.123 Y79.957
G1 F900 X136.523 Y79.957 E87.56746
G1 X136.523 Y119.212 E90.17872
G1 X106.715 Y119.213 E92.16155
G1 X106.623 Y119.186 E92.16793
G1 X106.312 Y119.158 E92.1887
G1 X99.123 Y119.157 E92.66692
G1 X99.123 Y79.957 E95.27451
G0 F6000 X99.623 Y80.457
G1 F900 X136.023 Y80.457 E97.69585
G1 X136.023 Y118.712 E100.24058
G1 X106.763 Y118.713 E102.18696
G1 X106.63 Y118.681 E102.19606
G1 X106.312 Y118.658 E102.21727
G1 X99.623 Y118.657 E102.66223
G1 X99.623 Y80.457 E105.2033
G0 F6000 X100.123 Y80.957
G1 F900 X135.523 Y80.957 E107.55812
G1 X135.523 Y118.212 E110.03633
G1 X106.807 Y118.213 E111.94653
G1 X106.579 Y118.171 E111.96195
G1 X106.312 Y118.158 E111.97973
G1 X100.123 Y118.157 E112.39142
G1 X100.123 Y80.957 E114.86598
G0 F6000 X100.623 Y81.457
G1 F900 X135.023 Y81.457 E117.15428
G1 X135.023 Y117.712 E119.56597
G1 X106.844 Y117.713 E121.44044
G1 X106.312 Y117.658 E121.47602
G1 X100.623 Y117.657 E121.85445
G1 X100.623 Y81.457 E124.26249
G0 F6000 X101.123 Y81.957
G1 F900 X134.523 Y81.957 E126.48427
G1 X134.523 Y117.212 E128.82944
G1 X106.925 Y117.213 E130.66526
G1 X106.862 Y117.199 E130.66956
G1 X106.312 Y117.158 E130.70624
G1 X101.123 Y117.157 E131.05142
G1 X101.123 Y81.957 E133.39293
G1 F1500 E126.89293
G0 F6000 X108.21 Y90.394
G1 F1500 E133.39293
G1 F900 X108.035 Y90.558 E133.40889
G1 X107.873 Y90.72 E133.42413
G1 X107.712 Y90.892 E133.4398
G1 X107.354 Y91.298 E133.4758
G1 X107.228 Y91.449 E133.48889
G1 X106.56 Y92.292 E133.56043
G1 X106.316 Y92.638 E133.5886
G1 X105.974 Y93.187 E133.63162
G1 X105.884 Y93.34 E133.64343
G1 X105.467 Y94.086 E133.70028
G1 X105.391 Y94.229 E133.71105
G1 X105.125 Y94.757 E133.75038
G1 X104.941 Y95.187 E133.7815
G1 X104.507 Y96.407 E133.86763
G1 X104.38 Y96.845 E133.89797
G1 X104.233 Y97.502 E133.94275
G1 X104.2 Y97.672 E133.95427
G1 X103.988 Y98.878 E134.03573
G1 X103.936 Y99.34 E134.06665
G1 X103.89 Y100.259 E134.12786
G1 X103.889 Y100.621 E134.15194
G1 X103.932 Y101.54 E134.21314
G1 X103.985 Y102.017 E134.24507
G1 X104.203 Y103.251 E134.32842
G1 X104.236 Y103.417 E134.33968
G1 X104.352 Y103.936 E134.37506
G1 X104.411 Y104.164 E134.39072
G1 X104.479 Y104.398 E134.40693
G1 X104.556 Y104.635 E134.42351
G1 X104.896 Y105.569 E134.48963
G1 X104.973 Y105.762 E134.50345
G1 X105.122 Y106.11 E134.52863
G1 X105.196 Y106.272 E134.54048
G1 X105.383 Y106.657 E134.56895
G1 X105.47 Y106.826 E134.58159
G1 X105.882 Y107.575 E134.63846
G1 X105.978 Y107.74 E134.65116
G1 X106.14 Y108.002 E134.67165
G1 X106.251 Y108.171 E134.6851
G1 X106.486 Y108.509 E134.71248
G1 X106.661 Y108.74 E134.73176
G1 X107.482 Y109.745 E134.81808
G1 X107.673 Y109.962 E134.83731
G1 X107.882 Y110.181 E134.85745
G1 X108.01 Y110.308 E134.86945
G1 X108.321 Y110.604 E134.89801
G1 X108.444 Y110.717 E134.90912
G1 X109.03 Y111.227 E134.96079
G1 X109.217 Y111.379 E134.97682
G1 X109.656 Y111.714 E135.01356
G1 X109.858 Y111.858 E135.03006
G1 X110.283 Y112.14 E135.06399
G1 X110.426 Y112.23 E135.07523
G1 X111.004 Y112.577 E135.12007
G1 X111.177 Y112.675 E135.1333
G1 X111.541 Y112.868 E135.16071
G1 X111.762 Y112.976 E135.17707
G1 X112.241 Y113.191 E135.21199
G1 X112.428 Y113.269 E135.22547
G1 X113.014 Y113.495 E135.26725
G1 X113.193 Y113.559 E135.2799
G1 X113.805 Y113.76 E135.32275
G1 X114.049 Y113.831 E135.33965
G1 X114.704 Y113.998 E135.38461
G1 X114.889 Y114.04 E135.39723
G1 X115.603 Y114.184 E135.44569
G1 X115.817 Y114.221 E135.46013
G1 X116.345 Y114.296 E135.49561
G1 X116.768 Y114.332 E135.52385
G1 X117.6 Y114.355 E135.57921
G1 X117.781 Y114.355 E135.59125
G1 X118.556 Y114.339 E135.64282
G1 X118.773 Y114.328 E135.65727
G1 X119.142 Y114.299 E135.68189
G1 X119.36 Y114.276 E135.69647
G1 X120.165 Y114.165 E135.75053
G1 X120.385 Y114.128 E135.76537
G1 X120.787 Y114.048 E135.79264
