;FLAVOR:Marlin
;TIME:5303
;Filament used: 4.6014m
;Layer height: 0.2
;MINX:85.065
;MINY:64.023
;MINZ:0.2
;MAXX:174.737
;MAXY:160.686
;MAXZ:15
;POSTPROCESSED
;Generated with Cura_SteamEngine 5.2.1
;
;

M82 ;absolute extrusion mode
START_PRINT EXTRUDER_TEMP=200 BED_TEMP=50 RELATIVE_E_MODE=False PROBE=false PROBE_AREA_START=%MINX%,%MINY% PROBE_AREA_END=%MAXX%,%MAXY%
G92 E0
G92 E0
G1 F1500 E-6.5
;LAYER_COUNT:75
;LAYER:0
M106 S63.8
G0 F6000 X88.277 Y69.446 Z0.2
;TYPE:SKIRT
G1 F1500 E0
G1 F1200 X88.87 Y68.719 E0.0312
G1 X89.322 Y68.242 E0.05306
G1 X89.601 Y67.964 E0.06616
G1 X90.293 Y67.331 E0.09735
G1 X90.74 Y66.975 E0.11636
G1 X91.082 Y66.717 E0.13061
G1 X91.854 Y66.184 E0.16181
G1 X92.423 Y65.85 E0.18375
G1 X92.779 Y65.655 E0.19726
G1 X93.62 Y65.24 E0.22845
G1 X94.186 Y65.009 E0.24878
G1 X94.579 Y64.861 E0.26275
G1 X95.47 Y64.568 E0.29394
G1 X96.061 Y64.419 E0.31422
G1 X96.469 Y64.328 E0.32812
G1 X97.393 Y64.163 E0.35934
G1 X98.062 Y64.093 E0.38171
G1 X98.486 Y64.062 E0.39585
G1 X99.005 Y64.037 E0.41313
G1 X99.677 Y64.023 E0.43549
G1 X160.216 Y64.025 E2.44902
G1 X161.067 Y64.041 E2.47733
G1 X161.802 Y64.079 E2.50181
G1 X162.058 Y64.101 E2.51036
G1 X162.988 Y64.221 E2.54155
G1 X163.874 Y64.404 E2.57164
G1 X164.781 Y64.642 E2.60282
G1 X165.349 Y64.835 E2.62278
G1 X165.733 Y64.977 E2.63639
G1 X166.598 Y65.339 E2.66758
G1 X167.149 Y65.617 E2.68811
G1 X167.519 Y65.817 E2.7021
G1 X168.324 Y66.298 E2.73329
G1 X168.871 Y66.681 E2.7555
G1 X169.199 Y66.926 E2.76911
G1 X169.926 Y67.519 E2.80032
G1 X170.355 Y67.921 E2.81987
G1 X170.652 Y68.215 E2.83377
G1 X171.289 Y68.903 E2.86496
G1 X171.673 Y69.381 E2.88535
G1 X171.916 Y69.701 E2.89871
G1 X172.451 Y70.471 E2.9299
G1 X172.777 Y71.02 E2.95114
G1 X172.971 Y71.37 E2.96445
G1 X173.39 Y72.209 E2.99564
G1 X173.627 Y72.782 E3.01626
G1 X173.788 Y73.204 E3.03128
G1 X174.085 Y74.094 E3.06249
G1 X174.247 Y74.73 E3.08432
G1 X174.334 Y75.12 E3.09761
G1 X174.499 Y76.043 E3.12879
G1 X174.566 Y76.681 E3.15013
G1 X174.599 Y77.115 E3.16461
G1 X174.628 Y77.677 E3.18332
G1 X174.641 Y78.354 E3.20585
G1 X174.64 Y104.73 E4.08312
G1 X174.618 Y106.308 E4.1356
G1 X174.618 Y108.892 E4.22155
G1 X174.711 Y112.018 E4.32557
G1 X174.724 Y112.867 E4.35381
G1 X174.725 Y142.566 E5.3416
G1 X174.737 Y147.475 E5.50487
G1 X174.723 Y148.391 E5.53534
G1 X174.667 Y149.327 E5.56653
G1 X174.532 Y150.255 E5.59772
G1 X174.318 Y151.169 E5.62894
G1 X174.027 Y152.06 E5.66012
G1 X173.502 Y153.243 E5.70317
G1 X173.319 Y153.598 E5.71645
G1 X172.854 Y154.413 E5.74766
G1 X172.445 Y155.018 E5.77195
G1 X172.289 Y155.233 E5.78078
G1 X171.707 Y155.968 E5.81197
G1 X171.35 Y156.361 E5.82962
G1 X171.067 Y156.658 E5.84327
G1 X170.391 Y157.309 E5.87448
G1 X169.796 Y157.8 E5.90014
G1 X169.526 Y158.007 E5.91146
G1 X168.758 Y158.545 E5.94265
G1 X168.217 Y158.87 E5.96364
G1 X167.923 Y159.035 E5.97485
G1 X167.086 Y159.458 E6.00604
G1 X166.501 Y159.704 E6.02715
G1 X166.198 Y159.821 E6.03795
G1 X165.31 Y160.121 E6.06913
G1 X164.749 Y160.268 E6.08842
G1 X164.357 Y160.36 E6.10181
G1 X163.436 Y160.535 E6.13299
G1 X162.628 Y160.623 E6.16002
G1 X161.826 Y160.671 E6.18674
G1 X161.163 Y160.686 E6.2088
G1 X99.001 Y160.683 E8.27632
G1 X98.186 Y160.668 E8.30343
G1 X97.306 Y160.622 E8.33274
G1 X96.268 Y160.488 E8.36755
G1 X95.462 Y160.322 E8.39492
G1 X94.556 Y160.081 E8.4261
G1 X94.023 Y159.9 E8.44482
G1 X93.673 Y159.771 E8.45723
G1 X92.808 Y159.41 E8.4884
G1 X92.196 Y159.1 E8.51122
G1 X91.942 Y158.961 E8.52085
G1 X90.767 Y158.217 E8.56711
G1 X90.469 Y158.001 E8.57935
G1 X89.734 Y157.419 E8.61053
G1 X89.147 Y156.873 E8.6372
G1 X88.887 Y156.613 E8.64942
G1 X88.253 Y155.922 E8.68062
G1 X87.781 Y155.327 E8.70588
G1 X87.241 Y154.56 E8.73707
G1 X86.923 Y154.033 E8.75755
G1 X86.716 Y153.667 E8.77153
G1 X86.29 Y152.832 E8.80271
G1 X85.982 Y152.088 E8.82949
G1 X85.87 Y151.787 E8.84017
G1 X85.58 Y150.895 E8.87137
G1 X85.438 Y150.322 E8.89101
G1 X85.357 Y149.955 E8.90351
G1 X85.194 Y149.031 E8.93471
G1 X85.123 Y148.332 E8.95808
G1 X85.079 Y147.574 E8.98333
G1 X85.065 Y146.943 E9.00433
G1 X85.066 Y140.795 E9.20881
G1 X85.076 Y140.096 E9.23206
G1 X85.103 Y139.473 E9.2528
G1 X85.171 Y138.519 E9.28461
G1 X85.32 Y135.906 E9.37166
G1 X85.391 Y133.421 E9.45435
G1 X85.391 Y130.897 E9.5383
G1 X85.316 Y128.212 E9.62763
G1 X85.283 Y127.323 E9.65722
G1 X85.276 Y126.921 E9.6706
G1 X85.277 Y112.804 E10.14013
G1 X85.287 Y112.084 E10.16408
G1 X85.384 Y108.82 E10.27269
G1 X85.384 Y106.269 E10.35753
G1 X85.361 Y105.12 E10.39576
G1 X85.359 Y78.657 E11.27592
G1 X85.377 Y77.604 E11.31095
G1 X85.417 Y76.853 E11.33596
G1 X85.441 Y76.579 E11.34511
G1 X85.651 Y75.197 E11.3916
G1 X85.741 Y74.784 E11.40566
G1 X85.98 Y73.877 E11.43686
G1 X86.168 Y73.321 E11.45638
G1 X86.3 Y72.963 E11.46907
G1 X86.662 Y72.097 E11.50029
G1 X86.882 Y71.653 E11.51677
G1 X87.08 Y71.276 E11.53093
G1 X87.552 Y70.465 E11.56214
G1 X88.01 Y69.803 E11.58892
G1 X88.277 Y69.446 E11.60374
G0 F6000 X88.597 Y69.685
G1 F1200 X89.18 Y68.973 E11.63435
G1 X89.604 Y68.525 E11.65487
G1 X89.883 Y68.247 E11.66797
G1 X90.563 Y67.626 E11.6986
G1 X90.981 Y67.294 E11.71635
G1 X91.323 Y67.036 E11.7306
G1 X92.082 Y66.514 E11.76124
G1 X92.615 Y66.201 E11.7818
G1 X92.971 Y66.006 E11.7953
G1 X93.797 Y65.6 E11.82591
G1 X94.327 Y65.383 E11.84496
G1 X94.72 Y65.235 E11.85892
G1 X95.595 Y64.948 E11.88955
G1 X96.148 Y64.809 E11.90852
G1 X96.556 Y64.718 E11.92242
G1 X97.463 Y64.557 E11.95306
G1 X98.091 Y64.492 E11.97406
G1 X98.515 Y64.461 E11.9882
G1 X99.016 Y64.437 E12.00488
G1 X99.677 Y64.423 E12.02687
G1 X160.208 Y64.425 E14.04014
G1 X161.059 Y64.441 E14.06845
G1 X161.768 Y64.478 E14.09206
G1 X162.024 Y64.5 E14.10061
G1 X163.371 Y64.704 E14.14592
G1 X163.789 Y64.795 E14.16015
G1 X164.679 Y65.029 E14.19076
G1 X165.21 Y65.21 E14.20942
G1 X165.594 Y65.352 E14.22303
G1 X166.443 Y65.709 E14.25367
G1 X166.958 Y65.969 E14.27285
G1 X167.328 Y66.169 E14.28684
G1 X168.119 Y66.642 E14.3175
G1 X168.631 Y67.002 E14.33831
G1 X168.959 Y67.247 E14.35193
G1 X169.672 Y67.829 E14.38254
G1 X170.073 Y68.206 E14.40085
G1 X170.37 Y68.5 E14.41475
G1 X170.996 Y69.175 E14.44537
G1 X171.355 Y69.622 E14.46444
G1 X171.598 Y69.942 E14.4778
G1 X172.122 Y70.699 E14.50842
G1 X172.427 Y71.214 E14.52833
G1 X172.621 Y71.564 E14.54164
G1 X173.032 Y72.388 E14.57227
G1 X173.254 Y72.925 E14.59159
G1 X173.415 Y73.347 E14.60662
G1 X173.705 Y74.22 E14.63721
G1 X173.857 Y74.817 E14.6577
G1 X173.944 Y75.207 E14.67099
G1 X174.105 Y76.114 E14.70163
G1 X174.167 Y76.711 E14.72159
G1 X174.2 Y77.145 E14.73607
G1 X174.228 Y77.687 E14.75412
G1 X174.241 Y78.354 E14.77631
G1 X174.24 Y104.725 E15.65341
G1 X174.218 Y106.303 E15.7059
G1 X174.218 Y108.904 E15.79241
G1 X174.311 Y112.024 E15.89623
G1 X174.324 Y112.873 E15.92447
G1 X174.325 Y142.566 E16.91206
G1 X174.337 Y147.476 E17.07537
G1 X174.323 Y148.384 E17.10558
G1 X174.268 Y149.303 E17.1362
G1 X174.132 Y150.214 E17.16683
G1 X173.919 Y151.11 E17.19746
G1 X173.628 Y151.983 E17.22807
G1 X173.147 Y153.06 E17.2673
G1 X172.964 Y153.415 E17.28059
G1 X172.507 Y154.214 E17.3112
G1 X172.121 Y154.783 E17.33407
G1 X171.965 Y154.998 E17.3429
G1 X171.393 Y155.719 E17.37351
G1 X171.06 Y156.085 E17.38997
G1 X170.777 Y156.382 E17.40362
G1 X170.114 Y157.021 E17.43424
G1 X169.552 Y157.482 E17.45842
G1 X169.282 Y157.689 E17.46974
G1 X168.528 Y158.217 E17.50035
G1 X168.021 Y158.521 E17.52001
G1 X167.727 Y158.686 E17.53123
G1 X166.905 Y159.101 E17.56185
G1 X166.357 Y159.33 E17.58161
G1 X166.054 Y159.447 E17.59241
G1 X165.182 Y159.741 E17.62302
G1 X164.658 Y159.879 E17.64104
G1 X164.266 Y159.971 E17.65443
G1 X163.361 Y160.142 E17.68506
G1 X162.599 Y160.224 E17.71055
G1 X161.814 Y160.271 E17.73671
G1 X161.163 Y160.286 E17.75837
G1 X99.008 Y160.283 E19.82565
G1 X98.193 Y160.268 E19.85276
G1 X97.34 Y160.224 E19.88117
G1 X96.319 Y160.091 E19.91542
G1 X95.548 Y159.931 E19.94161
G1 X94.659 Y159.694 E19.97221
G1 X94.161 Y159.525 E19.9897
G1 X93.811 Y159.396 E20.00211
G1 X92.962 Y159.04 E20.03273
G1 X92.388 Y158.749 E20.05413
G1 X92.134 Y158.61 E20.06376
G1 X91.002 Y157.894 E20.10831
G1 X90.704 Y157.678 E20.12055
G1 X89.983 Y157.105 E20.15118
G1 X89.43 Y156.59 E20.17632
G1 X89.17 Y156.33 E20.18855
G1 X88.265 Y155.3 E20.23415
G1 X88.098 Y155.083 E20.24326
G1 X87.568 Y154.33 E20.27388
G1 X87.271 Y153.836 E20.29306
G1 X87.064 Y153.47 E20.30704
G1 X86.646 Y152.65 E20.33765
G1 X86.356 Y151.949 E20.36289
G1 X86.244 Y151.648 E20.37357
G1 X85.961 Y150.772 E20.40419
G1 X85.828 Y150.236 E20.42255
G1 X85.747 Y149.869 E20.43505
G1 X85.588 Y148.962 E20.46568
G1 X85.523 Y148.305 E20.48764
G1 X85.479 Y147.562 E20.5124
G1 X85.465 Y146.943 E20.53299
G1 X85.466 Y140.8 E20.73731
G1 X85.476 Y140.101 E20.76056
G1 X85.502 Y139.501 E20.78053
G1 X85.568 Y138.567 E20.81167
G1 X85.718 Y135.941 E20.89916
G1 X85.791 Y133.397 E20.98381
G1 X85.791 Y130.886 E21.06732
G1 X85.716 Y128.201 E21.15666
G1 X85.683 Y127.309 E21.18635
G1 X85.676 Y126.921 E21.19926
G1 X85.677 Y112.81 E21.66859
G1 X85.687 Y112.09 E21.69254
G1 X85.784 Y108.831 E21.80098
G1 X85.784 Y106.26 E21.88649
G1 X85.761 Y105.12 E21.92442
G1 X85.759 Y78.657 E22.80458
G1 X85.777 Y77.612 E22.83934
G1 X85.815 Y76.888 E22.86346
G1 X85.839 Y76.614 E22.8726
G1 X86.042 Y75.282 E22.91742
G1 X86.132 Y74.869 E22.93148
G1 X86.367 Y73.979 E22.96209
G1 X86.544 Y73.459 E22.98036
G1 X86.676 Y73.101 E22.99305
G1 X87.031 Y72.252 E23.02366
G1 X87.435 Y71.462 E23.05317
G1 X87.898 Y70.667 E23.08377
G1 X88.33 Y70.042 E23.10904
G1 X88.597 Y69.685 E23.12387
G0 F6000 X88.918 Y69.925
G1 F1200 X89.49 Y69.226 E23.15391
G1 X89.886 Y68.809 E23.17304
G1 X90.165 Y68.531 E23.18614
G1 X90.833 Y67.922 E23.2162
G1 X91.222 Y67.613 E23.23273
G1 X91.564 Y67.355 E23.24697
G1 X92.309 Y66.844 E23.27702
G1 X92.807 Y66.552 E23.29622
G1 X93.163 Y66.357 E23.30972
G1 X93.973 Y65.959 E23.33974
G1 X94.468 Y65.757 E23.35752
G1 X94.861 Y65.609 E23.37149
G1 X95.72 Y65.329 E23.40154
G1 X96.236 Y65.2 E23.41923
G1 X96.644 Y65.109 E23.43313
G1 X97.533 Y64.951 E23.46317
G1 X98.12 Y64.891 E23.48279
G1 X98.544 Y64.86 E23.49693
G1 X99.026 Y64.836 E23.51298
G1 X99.677 Y64.823 E23.53464
G1 X160.201 Y64.825 E25.54768
G1 X161.052 Y64.841 E25.57598
G1 X161.733 Y64.876 E25.59866
G1 X161.989 Y64.898 E25.60721
G1 X163.286 Y65.094 E25.65084
G1 X163.704 Y65.185 E25.66507
G1 X164.577 Y65.416 E25.6951
G1 X165.072 Y65.585 E25.7125
G1 X165.456 Y65.727 E25.72612
G1 X166.288 Y66.078 E25.75615
G1 X166.768 Y66.321 E25.77404
G1 X167.138 Y66.521 E25.78803
G1 X167.913 Y66.985 E25.81808
G1 X168.392 Y67.322 E25.83756
G1 X168.72 Y67.567 E25.85117
G1 X169.419 Y68.139 E25.88121
G1 X169.792 Y68.49 E25.89825
G1 X170.089 Y68.784 E25.91215
G1 X170.702 Y69.447 E25.94218
G1 X171.036 Y69.864 E25.95995
G1 X171.279 Y70.184 E25.97332
G1 X171.793 Y70.927 E26.00336
G1 X172.077 Y71.408 E26.02194
G1 X172.271 Y71.758 E26.03525
G1 X172.674 Y72.567 E26.06531
G1 X172.88 Y73.067 E26.0833
G1 X173.041 Y73.489 E26.09832
G1 X173.325 Y74.346 E26.12835
G1 X173.466 Y74.904 E26.14749
G1 X173.553 Y75.294 E26.16078
G1 X173.711 Y76.183 E26.19082
G1 X173.769 Y76.742 E26.20951
G1 X173.802 Y77.176 E26.22398
G1 X173.828 Y77.697 E26.24133
G1 X173.841 Y78.354 E26.26319
G1 X173.84 Y104.719 E27.14009
G1 X173.818 Y106.297 E27.19258
G1 X173.818 Y108.916 E27.27969
G1 X173.911 Y112.03 E27.38331
G1 X173.924 Y112.879 E27.41155
G1 X173.925 Y142.566 E28.39895
G1 X173.936 Y147.677 E28.56894
G1 X173.924 Y148.378 E28.59226
G1 X173.868 Y149.279 E28.62228
G1 X173.733 Y150.172 E28.65232
G1 X173.52 Y151.049 E28.68234
G1 X173.23 Y151.905 E28.7124
G1 X172.791 Y152.877 E28.74787
G1 X172.608 Y153.232 E28.76116
G1 X172.159 Y154.015 E28.79118
G1 X171.798 Y154.548 E28.81259
G1 X171.642 Y154.763 E28.82142
G1 X171.08 Y155.47 E28.85146
G1 X170.487 Y156.106 E28.88038
G1 X169.836 Y156.732 E28.91042
G1 X169.309 Y157.165 E28.93311
G1 X169.039 Y157.372 E28.94442
G1 X168.299 Y157.889 E28.97445
G1 X167.825 Y158.172 E28.99281
G1 X167.531 Y158.337 E29.00402
G1 X166.725 Y158.744 E29.03405
G1 X166.213 Y158.957 E29.0525
G1 X165.91 Y159.074 E29.0633
G1 X165.054 Y159.362 E29.09334
G1 X164.567 Y159.489 E29.11008
G1 X164.175 Y159.581 E29.12347
G1 X163.287 Y159.748 E29.15352
G1 X162.571 Y159.825 E29.17748
G1 X161.802 Y159.871 E29.2031
G1 X161.163 Y159.886 E29.22436
G1 X99.015 Y159.883 E31.29141
G1 X98.2 Y159.868 E31.31852
G1 X97.35 Y159.824 E31.34683
G1 X95.952 Y159.611 E31.39386
G1 X95.634 Y159.541 E31.40469
G1 X94.762 Y159.308 E31.43471
G1 X93.95 Y159.021 E31.46336
G1 X93.117 Y158.671 E31.49341
G1 X92.58 Y158.398 E31.51345
G1 X92.326 Y158.259 E31.52308
G1 X91.237 Y157.57 E31.56594
G1 X90.939 Y157.354 E31.57818
G1 X90.232 Y156.792 E31.60822
G1 X89.713 Y156.307 E31.63184
G1 X89.453 Y156.047 E31.64407
G1 X88.582 Y155.056 E31.68796
G1 X88.415 Y154.839 E31.69706
G1 X87.896 Y154.099 E31.72713
G1 X87.62 Y153.639 E31.74497
G1 X87.413 Y153.273 E31.75895
G1 X87.003 Y152.468 E31.789
G1 X86.731 Y151.809 E31.81271
G1 X86.619 Y151.508 E31.82339
G1 X86.342 Y150.649 E31.85341
G1 X86.219 Y150.149 E31.87054
G1 X86.138 Y149.782 E31.88304
G1 X85.982 Y148.893 E31.91306
G1 X85.922 Y148.278 E31.93361
G1 X85.879 Y147.549 E31.9579
G1 X85.865 Y146.943 E31.97806
G1 X85.866 Y140.806 E32.18218
G1 X85.876 Y140.107 E32.20543
G1 X85.901 Y139.53 E32.22464
G1 X85.97 Y138.553 E32.25722
G1 X86.118 Y135.973 E32.34317
G1 X86.191 Y133.409 E32.42848
G1 X86.191 Y130.875 E32.51276
G1 X86.076 Y126.921 E32.64433
G1 X86.077 Y112.815 E33.1135
G1 X86.095 Y111.8 E33.14726
G1 X86.111 Y111.436 E33.15938
G1 X86.184 Y108.842 E33.24569
G1 X86.184 Y106.296 E33.33037
G1 X86.163 Y105.344 E33.36204
G1 X86.159 Y78.657 E34.24965
G1 X86.177 Y77.619 E34.28418
G1 X86.214 Y76.923 E34.30737
G1 X86.238 Y76.649 E34.31651
G1 X86.433 Y75.367 E34.35964
G1 X86.523 Y74.954 E34.3737
G1 X86.754 Y74.081 E34.40374
G1 X86.919 Y73.597 E34.42075
G1 X87.051 Y73.239 E34.43344
G1 X87.591 Y72.025 E34.47763
G1 X87.789 Y71.648 E34.49179
G1 X88.244 Y70.868 E34.52183
G1 X88.651 Y70.282 E34.54556
G1 X88.918 Y69.925 E34.56038
G1 F1500 E28.06038
;MESH:radxa_zero_v11_head.stl
G0 F6000 X106.607 Y83.145
G0 X108.126 Y84.529
;TYPE:WALL-INNER
G1 F1500 E34.56038
G1 F1200 X107.739 Y84.38 E34.57418
G1 X107.396 Y84.152 E34.58788
G1 X107.12 Y83.856 E34.60134
G1 X106.906 Y83.501 E34.61512
G1 X106.781 Y83.094 E34.62928
G1 X106.75 Y82.705 E34.64226
G1 X106.799 Y82.303 E34.65573
G1 X106.95 Y81.905 E34.66989
G1 X107.173 Y81.575 E34.68314
G1 X109.391 Y78.937 E34.79777
G1 X109.683 Y78.653 E34.81132
G1 X110.04 Y78.442 E34.82511
G1 X110.449 Y78.317 E34.83933
G1 X110.825 Y78.285 E34.85189
G1 X111.246 Y78.335 E34.86599
G1 X111.64 Y78.486 E34.88002
G1 X111.971 Y78.709 E34.8933
G1 X112.259 Y79.007 E34.90708
G1 X112.468 Y79.358 E34.92067
G1 X112.594 Y79.755 E34.93452
G1 X112.629 Y80.154 E34.94784
G1 X112.567 Y80.585 E34.96232
G1 X112.433 Y80.937 E34.97485
G1 X112.39 Y81.014 E34.97778
G1 X112.202 Y81.291 E34.98892
G1 X109.938 Y83.978 E35.10578
G1 F1014.8 X109.665 Y84.313 E35.12278
G1 F874.3 X109.381 Y84.48 E35.13782
G1 F1010.5 X109.006 Y84.529 E35.15276
G1 F1200 X108.941 Y84.545 E35.15498
G1 X108.538 Y84.584 E35.16845
G1 X108.126 Y84.529 E35.18227
G0 F6000 X108.25 Y84.142
;TYPE:WALL-OUTER
G1 F1200 X107.905 Y84.01 E35.19456
G1 X107.644 Y83.831 E35.20509
G1 X107.438 Y83.614 E35.21504
G1 X107.28 Y83.348 E35.22533
G1 X107.175 Y83.025 E35.23662
G1 X107.151 Y82.693 E35.2477
G1 X107.188 Y82.418 E35.25692
G1 X107.3 Y82.111 E35.26779
G1 X107.479 Y81.833 E35.27879
G1 X109.713 Y79.178 E35.3942
G1 X109.948 Y78.961 E35.40484
G1 X110.184 Y78.821 E35.41396
G1 X110.518 Y78.711 E35.42566
G1 X110.852 Y78.686 E35.4368
G1 X111.126 Y78.723 E35.446
G1 X111.472 Y78.855 E35.45831
G1 X111.697 Y79.006 E35.46733
G1 X111.922 Y79.234 E35.47798
G1 X112.101 Y79.525 E35.48934
G1 X112.202 Y79.857 E35.50088
G1 X112.225 Y80.173 E35.51142
G1 X112.182 Y80.475 E35.52157
G1 X112.056 Y80.793 E35.53295
G1 X111.896 Y81.033 E35.54254
G1 X109.663 Y83.688 E35.65792
G1 X109.463 Y83.877 E35.66708
G1 X109.176 Y84.052 E35.67826
G1 X108.863 Y84.153 E35.6892
G1 X108.568 Y84.18 E35.69905
G1 X108.25 Y84.142 E35.7097
G0 F6000 X108.185 Y84.639
G0 X109.534 Y84.708
G0 X108.296 Y86.302
G0 X107.093 Y88.353
G0 X106.96 Y88.704
G0 X106.909 Y89.075
