;FLAVOR:Marlin
;TIME:2580
;Filament used: 2.10138m
;Layer height: 0.2
;MINX:114.19
;MINY:94.188
;MINZ:0.2
;MAXX:145.781
;MAXY:124.948
;MAXZ:23
;POSTPROCESSED
;Generated with Cura_SteamEngine 5.2.1
;
;

M82 ;absolute extrusion mode
START_PRINT EXTRUDER_TEMP=200 BED_TEMP=60 RELATIVE_E_MODE=False PROBE=false PROBE_AREA_START=%MINX%,%MINY% PROBE_AREA_END=%MAXX%,%MAXY%
G92 E0
G92 E0
G1 F1500 E-6.5
;LAYER_COUNT:115
;LAYER:0
M107
;MESH:bidet.stl
G0 F6000 X140.142 Y119.116 Z0.2
;TYPE:WALL-INNER
G1 F1500 E0
G1 F1200 X140.678 Y118.481 E0.02764
G1 X141.176 Y117.814 E0.05532
G1 X141.63 Y117.119 E0.08293
G1 X142.044 Y116.396 E0.11065
G1 X142.412 Y115.649 E0.13834
G1 X142.74 Y114.868 E0.16652
G1 X143.006 Y114.098 E0.19361
G1 X143.232 Y113.294 E0.22139
G1 X143.408 Y112.482 E0.24902
G1 X143.535 Y111.659 E0.27672
G1 X143.611 Y110.833 E0.30431
G1 X143.624 Y110.406 E0.31852
G1 X143.636 Y110 E0.33203
G1 X143.611 Y109.169 E0.35968
G1 X143.535 Y108.339 E0.3874
G1 X143.408 Y107.518 E0.41503
G1 X143.232 Y106.703 E0.44276
G1 X143.008 Y105.904 E0.47036
G1 X142.734 Y105.119 E0.49802
G1 X142.412 Y104.353 E0.52565
G1 X142.043 Y103.604 E0.55342
G1 X141.632 Y102.882 E0.58106
G1 X141.176 Y102.184 E0.60879
G1 X140.68 Y101.519 E0.63638
G1 X140.142 Y100.882 E0.66411
G1 X139.568 Y100.282 E0.69173
G1 X138.957 Y99.715 E0.71945
G1 X138.316 Y99.19 E0.74701
G1 X137.641 Y98.704 E0.77468
G1 X136.938 Y98.258 E0.80237
G1 X136.207 Y97.856 E0.83011
G1 X135.457 Y97.5 E0.85773
G1 X134.67 Y97.184 E0.88593
G1 X133.895 Y96.93 E0.91306
G1 X133.088 Y96.716 E0.94083
G1 X132.273 Y96.552 E0.96848
G1 X131.447 Y96.437 E0.99622
G1 X130.621 Y96.374 E1.02377
G1 X129.791 Y96.362 E1.05138
G1 X128.959 Y96.4 E1.07908
G1 X128.131 Y96.488 E1.10677
G1 X127.312 Y96.627 E1.1344
G1 X126.5 Y96.818 E1.16215
G1 X125.715 Y97.051 E1.18938
G1 X124.92 Y97.339 E1.21751
G1 X124.158 Y97.672 E1.24516
G1 X123.419 Y98.05 E1.27277
G1 X122.704 Y98.474 E1.30042
G1 X122.014 Y98.94 E1.32811
G1 X121.354 Y99.449 E1.35583
G1 X120.726 Y99.995 E1.38351
G1 X120.134 Y100.579 E1.41117
G1 X119.578 Y101.197 E1.43882
G1 X119.06 Y101.849 E1.46652
G1 X118.584 Y102.53 E1.49415
G1 X118.148 Y103.241 E1.52189
G1 X117.76 Y103.974 E1.54948
G1 X117.418 Y104.727 E1.57698
G1 X117.116 Y105.508 E1.60483
G1 X116.862 Y106.315 E1.63297
G1 X116.666 Y107.108 E1.66014
G1 X116.515 Y107.928 E1.68787
G1 X116.414 Y108.753 E1.71552
G1 X116.362 Y109.585 E1.74324
G1 X116.362 Y110.415 E1.77085
G1 X116.414 Y111.245 E1.79851
G1 X116.515 Y112.072 E1.82622
G1 X116.663 Y112.878 E1.85348
G1 X116.866 Y113.698 E1.88157
G1 X117.117 Y114.497 E1.90943
G1 X117.415 Y115.266 E1.93686
G1 X117.76 Y116.026 E1.96462
G1 X118.148 Y116.759 E1.9922
G1 X118.584 Y117.468 E2.01989
G1 X119.06 Y118.151 E2.04758
G1 X119.576 Y118.801 E2.07518
G1 X120.134 Y119.421 E2.10292
G1 X120.724 Y120.003 E2.13049
G1 X121.354 Y120.551 E2.15826
G1 X122.014 Y121.06 E2.18598
G1 X122.702 Y121.526 E2.21362
G1 X123.415 Y121.948 E2.24117
G1 X124.158 Y122.328 E2.26893
G1 X124.934 Y122.668 E2.29711
G1 X125.7 Y122.945 E2.3242
G1 X126.5 Y123.182 E2.35195
G1 X127.31 Y123.373 E2.37963
G1 X128.131 Y123.512 E2.40733
G1 X128.957 Y123.6 E2.43496
G1 X129.791 Y123.638 E2.46272
G1 X130.619 Y123.626 E2.49027
G1 X131.448 Y123.563 E2.51792
G1 X132.274 Y123.449 E2.54565
G1 X133.077 Y123.288 E2.57289
G1 X133.895 Y123.072 E2.60103
G1 X134.689 Y122.81 E2.62884
G1 X135.454 Y122.5 E2.65629
G1 X136.208 Y122.144 E2.68403
G1 X136.936 Y121.744 E2.71165
G1 X137.637 Y121.299 E2.73927
G1 X138.313 Y120.81 E2.76702
G1 X138.957 Y120.283 E2.7947
G1 X139.566 Y119.718 E2.82233
G1 X140.142 Y119.116 E2.85004
G1 F1500 E-3.64996
G0 F6000 X140.071 Y119.044
G0 X141.494 Y117.035
G0 X142.266 Y115.582
G0 X142.853 Y114.049
G0 X143.25 Y112.453
G0 X143.451 Y110.823
G0 X143.451 Y109.179
G0 X143.25 Y107.547
G0 X142.855 Y105.953
G0 X142.266 Y104.42
G0 X141.495 Y102.967
G0 X140.555 Y101.619
G0 X139.456 Y100.397
G0 X138.218 Y99.318
G0 X136.856 Y98.397
G0 X135.392 Y97.648
G0 X133.849 Y97.084
G0 X132.245 Y96.711
G0 X130.613 Y96.535
G0 X128.971 Y96.561
G0 X127.345 Y96.784
G0 X125.748 Y97.238
G0 X124.201 Y97.763
G1 F1500 E2.85004
G0 F6000 X123.986 Y97.31
;TYPE:WALL-OUTER
G1 F1200 X123.226 Y97.7 E2.87845
G1 X122.49 Y98.136 E2.9069
G1 X121.78 Y98.616 E2.93541
G1 X121.1 Y99.139 E2.96394
G1 X120.454 Y99.701 E2.99242
G1 X119.844 Y100.303 E3.02092
G1 X119.272 Y100.939 E3.04937
G1 X118.739 Y101.61 E3.07788
G1 X118.249 Y102.311 E3.10632
G1 X117.8 Y103.043 E3.13488
G1 X117.401 Y103.798 E3.16329
G1 X117.049 Y104.572 E3.19157
G1 X116.738 Y105.376 E3.22024
G1 X116.476 Y106.207 E3.24922
G1 X116.275 Y107.024 E3.2772
G1 X116.119 Y107.868 E3.30575
G1 X116.016 Y108.717 E3.3342
G1 X115.962 Y109.573 E3.36272
G1 X115.962 Y110.427 E3.39113
G1 X116.016 Y111.281 E3.41959
G1 X116.119 Y112.132 E3.4481
G1 X116.272 Y112.962 E3.47617
G1 X116.481 Y113.806 E3.50509
G1 X116.739 Y114.629 E3.53378
G1 X117.046 Y115.421 E3.56203
G1 X117.401 Y116.202 E3.59056
G1 X117.8 Y116.957 E3.61896
G1 X118.249 Y117.687 E3.64747
G1 X118.739 Y118.39 E3.67597
G1 X119.27 Y119.059 E3.70438
G1 X119.844 Y119.697 E3.73292
G1 X120.452 Y120.297 E3.76133
G1 X121.1 Y120.861 E3.78991
G1 X121.78 Y121.384 E3.81844
G1 X122.488 Y121.864 E3.84689
G1 X123.222 Y122.298 E3.87525
G1 X123.986 Y122.69 E3.90381
G1 X124.786 Y123.04 E3.93285
G1 X125.575 Y123.325 E3.96075
G1 X126.397 Y123.569 E3.98927
G1 X127.231 Y123.765 E4.01777
G1 X128.077 Y123.908 E4.04631
G1 X128.927 Y123.999 E4.07474
G1 X129.785 Y124.038 E4.1033
G1 X130.637 Y124.026 E4.13165
G1 X131.49 Y123.961 E4.1601
G1 X132.34 Y123.843 E4.18864
G1 X133.167 Y123.678 E4.21669
G1 X134.009 Y123.456 E4.24565
G1 X134.827 Y123.186 E4.2743
G1 X135.615 Y122.866 E4.30259
G1 X136.39 Y122.5 E4.3311
G1 X137.14 Y122.088 E4.35956
G1 X137.861 Y121.63 E4.38797
G1 X138.557 Y121.127 E4.41653
G1 X139.22 Y120.585 E4.44501
G1 X139.847 Y120.003 E4.47346
G1 X140.44 Y119.384 E4.50197
G1 X140.992 Y118.73 E4.53044
G1 X141.504 Y118.043 E4.55894
G1 X141.972 Y117.328 E4.58736
G1 X142.397 Y116.584 E4.61586
G1 X142.776 Y115.815 E4.64437
G1 X143.114 Y115.011 E4.67338
G1 X143.388 Y114.218 E4.70129
G1 X143.62 Y113.391 E4.72985
G1 X143.802 Y112.555 E4.75831
G1 X143.932 Y111.708 E4.78681
G1 X144.011 Y110.857 E4.81524
G1 X144.024 Y110.418 E4.82985
G1 X144.036 Y110 E4.84375
G1 X144.011 Y109.145 E4.8722
G1 X143.932 Y108.29 E4.90076
G1 X143.802 Y107.445 E4.9292
G1 X143.62 Y106.607 E4.95772
G1 X143.39 Y105.784 E4.98614
G1 X143.108 Y104.975 E5.01464
G1 X142.776 Y104.187 E5.04308
G1 X142.397 Y103.416 E5.07165
G1 X141.974 Y102.674 E5.10006
G1 X141.504 Y101.955 E5.12863
G1 X140.994 Y101.27 E5.15703
G1 X140.44 Y100.614 E5.18559
G1 X139.849 Y99.997 E5.21401
G1 X139.22 Y99.413 E5.24256
G1 X138.56 Y98.873 E5.27092
G1 X137.865 Y98.372 E5.29941
G1 X137.142 Y97.914 E5.32788
G1 X136.389 Y97.5 E5.35646
G1 X135.617 Y97.134 E5.38488
G1 X134.807 Y96.808 E5.41392
G1 X134.009 Y96.546 E5.44185
G1 X133.179 Y96.326 E5.47041
G1 X132.34 Y96.158 E5.49887
G1 X131.49 Y96.039 E5.52742
G1 X130.639 Y95.974 E5.55581
G1 X129.785 Y95.962 E5.58421
G1 X128.929 Y96.001 E5.61271
G1 X128.077 Y96.092 E5.64121
G1 X127.233 Y96.235 E5.66968
G1 X126.397 Y96.431 E5.69824
G1 X125.59 Y96.671 E5.72625
G1 X124.772 Y96.967 E5.75518
G1 X123.986 Y97.31 E5.7837
G0 F6000 X124.201 Y97.763
G0 X126.541 Y96.973
G0 X128.154 Y96.647
G0 X129.794 Y96.523
G0 X131.43 Y96.597
G0 X133.052 Y96.873
G0 X134.614 Y97.335
G0 X136.134 Y97.999
G0 X137.551 Y98.836
G0 X138.852 Y99.836
G0 X140.022 Y100.99
G0 X141.543 Y102.931
G0 X141.325 Y103.072
;TYPE:SKIN
G1 F1200 X140.88 Y102.391 E5.81076
G1 X140.398 Y101.743 E5.83762
G1 X139.874 Y101.124 E5.86459
G1 X139.315 Y100.54 E5.89148
G1 X138.72 Y99.987 E5.9185
G1 X138.096 Y99.477 E5.9453
G1 X137.44 Y99.004 E5.9722
G1 X136.755 Y98.571 E5.99916
G1 X136.042 Y98.177 E6.02625
G1 X135.311 Y97.831 E6.05315
G1 X134.549 Y97.523 E6.08049
G1 X133.794 Y97.277 E6.1069
G1 X133.006 Y97.068 E6.13401
G1 X132.212 Y96.909 E6.16094
G1 X131.406 Y96.795 E6.18802
G1 X130.605 Y96.734 E6.21474
G1 X129.797 Y96.723 E6.24161
G1 X128.988 Y96.76 E6.26855
G1 X128.182 Y96.845 E6.29551
G1 X127.385 Y96.981 E6.3224
G1 X126.593 Y97.167 E6.34946
G1 X125.829 Y97.393 E6.37596
G1 X125.056 Y97.674 E6.40331
G1 X124.313 Y97.998 E6.43027
G1 X123.594 Y98.367 E6.45715
G1 X122.897 Y98.778 E6.48406
G1 X122.225 Y99.233 E6.51106
G1 X121.584 Y99.727 E6.53797
G1 X121.266 Y100.006 E6.55204
G1 X121.251 Y100.009 E6.55255
G1 X120.972 Y100.259 E6.56501
G1 X120.394 Y100.827 E6.59196
G1 X119.854 Y101.43 E6.61889
G1 X119.349 Y102.066 E6.6459
G1 X118.886 Y102.728 E6.67277
G1 X118.46 Y103.421 E6.69982
G1 X118.084 Y104.133 E6.7266
G1 X117.753 Y104.861 E6.7532
G1 X117.455 Y105.627 E6.78054
G1 X117.202 Y106.425 E6.80838
G1 X117.019 Y107.183 E6.83432
G1 X116.871 Y107.984 E6.86141
G1 X116.774 Y108.787 E6.88831
G1 X116.722 Y109.596 E6.91528
G1 X116.722 Y110.404 E6.94215
G1 X116.774 Y111.211 E6.96905
G1 X116.871 Y112.015 E6.99598
G1 X117.016 Y112.802 E7.0226
G1 X117.212 Y113.601 E7.04996
G1 X117.457 Y114.383 E7.07722
G1 X117.747 Y115.124 E7.10368
G1 X118.084 Y115.867 E7.13082
G1 X118.46 Y116.579 E7.1576
G1 X118.885 Y117.269 E7.18455
G1 X119.35 Y117.935 E7.21157
G1 X119.85 Y118.566 E7.23835
G1 X120.394 Y119.171 E7.26541
G1 X120.97 Y119.738 E7.29229
G1 X121.581 Y120.271 E7.31926
G1 X122.228 Y120.767 E7.34637
G1 X122.896 Y121.223 E7.37327
G1 X123.587 Y121.63 E7.39995
G1 X124.312 Y122.002 E7.42705
G1 X125.082 Y122.34 E7.45502
G1 X125.813 Y122.601 E7.48083
G1 X126.591 Y122.833 E7.50784
G1 X127.382 Y123.019 E7.53486
G1 X128.183 Y123.155 E7.56188
G1 X128.983 Y123.24 E7.58864
G1 X129.799 Y123.277 E7.61581
G1 X130.601 Y123.266 E7.64249
G1 X131.407 Y123.205 E7.66937
G1 X132.211 Y123.092 E7.69638
G1 X132.994 Y122.936 E7.72293
G1 X133.778 Y122.73 E7.74989
G1 X134.565 Y122.473 E7.77743
G1 X135.309 Y122.169 E7.80416
G1 X136.044 Y121.823 E7.83118
G1 X136.751 Y121.433 E7.85803
G1 X137.433 Y121 E7.8849
G1 X138.094 Y120.523 E7.91202
G1 X138.72 Y120.012 E7.93889
G1 X139.311 Y119.461 E7.96577
G1 X139.874 Y118.874 E7.99282
G1 X140.395 Y118.257 E8.01968
G1 X140.881 Y117.606 E8.0467
G1 X141.322 Y116.932 E8.07349
G1 X141.724 Y116.227 E8.10048
G1 X142.084 Y115.5 E8.12746
G1 X142.409 Y114.725 E8.15541
G1 X142.66 Y113.991 E8.18121
G1 X142.881 Y113.206 E8.20834
G1 X143.053 Y112.416 E8.23523
G1 X143.177 Y111.616 E8.26216
G1 X143.252 Y110.809 E8.28911
G1 X143.275 Y110 E8.31603
G1 X143.252 Y109.191 E8.34295
G1 X143.177 Y108.384 E8.36991
G1 X143.053 Y107.584 E8.39683
G1 X142.881 Y106.791 E8.42382
G1 X142.667 Y106.026 E8.45024
G1 X142.398 Y105.248 E8.47762
G1 X142.084 Y104.503 E8.50451
G1 X141.724 Y103.773 E8.53158
G1 X141.325 Y103.072 E8.55841
G0 F6000 X141.543 Y102.931
G0 X140.312 Y101.36
G0 X139.145 Y100.027
G0 X138.831 Y100.364
G1 F1200 X139.724 Y101.257 E8.60041
G0 F6000 X140.077 Y100.961
G0 X141.654 Y103.124
G0 X141.254 Y103.353
G1 F1200 X136.634 Y98.733 E8.81772
G0 F6000 X136.857 Y98.329
G0 X135.653 Y97.705
G0 X135.456 Y98.121
G1 F1200 X141.882 Y104.547 E9.11998
G0 F6000 X142.296 Y104.344
G0 X142.444 Y104.686
G0 X142.274 Y105.504
G1 F1200 X134.48 Y97.71 E9.48659
G0 F6000 X133.65 Y97.446
G1 F1200 X142.547 Y106.343 E9.90508
G0 F6000 X142.744 Y107.106
G1 F1200 X132.886 Y97.248 E10.36877
G0 F6000 X132.179 Y97.106
G1 F1200 X142.885 Y107.812 E10.87234
G0 F6000 X142.983 Y108.476
G1 F1200 X131.52 Y97.013 E11.41153
G0 F6000 X130.898 Y96.957
G1 F1200 X143.042 Y109.1 E11.98272
G0 F6000 X143.066 Y109.69
G1 F1200 X130.306 Y96.93 E12.58291
G0 F6000 X129.736 Y96.926
G1 F1200 X143.067 Y110.257 E13.20996
G0 F6000 X143.05 Y110.806
G1 F1200 X129.195 Y96.951 E13.86166
G0 F6000 X128.672 Y96.994
G1 F1200 X143.002 Y111.324 E14.5357
G0 F6000 X142.94 Y111.828
G1 F1200 X128.163 Y97.051 E15.23076
G0 F6000 X127.68 Y97.133
G1 F1200 X142.865 Y112.318 E15.94502
G0 F6000 X142.767 Y112.786
G1 F1200 X127.209 Y97.227 E16.67684
G0 F6000 X126.751 Y97.335
G1 F1200 X142.661 Y113.245 E17.4252
G0 F6000 X142.537 Y113.687
G1 F1200 X126.309 Y97.459 E18.18852
G0 F6000 X125.874 Y97.589
G1 F1200 X142.404 Y114.119 E18.96604
G0 F6000 X142.259 Y114.541
G1 F1200 X125.459 Y97.74 E19.75628
G0 F6000 X125.048 Y97.895
G1 F1200 X142.099 Y114.946 E20.55831
G0 F6000 X141.932 Y115.345
G1 F1200 X124.654 Y98.067 E21.37101
G0 F6000 X124.267 Y98.246
G1 F1200 X141.748 Y115.727 E22.19326
G0 F6000 X141.56 Y116.104
G1 F1200 X123.893 Y98.437 E23.02427
G0 F6000 X123.528 Y98.637
G1 F1200 X141.357 Y116.466 E23.86289
G0 F6000 X141.151 Y116.826
G1 F1200 X123.172 Y98.847 E24.70856
G0 F6000 X122.826 Y99.067
G1 F1200 X140.927 Y117.169 E25.56
G0 F6000 X140.702 Y117.509
G1 F1200 X122.488 Y99.295 E26.41673
G0 F6000 X122.161 Y99.533
G1 F1200 X140.461 Y117.833 E27.27751
G0 F6000 X140.217 Y118.156
G1 F1200 X121.842 Y99.78 E28.14184
G0 F6000 X121.533 Y100.037
G1 F1200 X139.959 Y118.463 E29.00854
G0 F6000 X139.698 Y118.767
G1 F1200 X121.228 Y100.298 E29.87729
G0 F6000 X120.937 Y100.573
G1 F1200 X139.421 Y119.056 E30.7467
G0 F6000 X139.142 Y119.343
G1 F1200 X120.652 Y100.853 E31.61641
G0 F6000 X120.377 Y101.143
G1 F1200 X138.849 Y119.616 E32.4853
G0 F6000 X138.554 Y119.887
G1 F1200 X120.109 Y101.442 E33.35289
G0 F6000 X119.853 Y101.751
G1 F1200 X138.243 Y120.141 E34.2179
G0 F6000 X137.929 Y120.393
G1 F1200 X119.602 Y102.066 E35.07995
G0 F6000 X119.363 Y102.392
G1 F1200 X137.601 Y120.631 E35.93783
G0 F6000 X137.27 Y120.865
G1 F1200 X119.13 Y102.725 E36.79108
G0 F6000 X118.909 Y103.07
G1 F1200 X136.924 Y121.084 E37.63843
G0 F6000 X136.574 Y121.3
G1 F1200 X118.693 Y103.42 E38.47947
G0 F6000 X118.492 Y103.784
G1 F1200 X136.209 Y121.502 E39.31285
G0 F6000 X135.839 Y121.697
G1 F1200 X118.297 Y104.155 E40.13797
G0 F6000 X118.117 Y104.54
G1 F1200 X135.454 Y121.878 E40.95348
G0 F6000 X135.063 Y122.052
G1 F1200 X117.94 Y104.929 E41.75889
G0 F6000 X117.781 Y105.336
G1 F1200 X134.661 Y122.216 E42.55287
G0 F6000 X134.245 Y122.366
G1 F1200 X117.625 Y105.746 E43.33463
G0 F6000 X117.489 Y106.175
G1 F1200 X133.819 Y122.505 E44.10274
G0 F6000 X133.375 Y122.627
G1 F1200 X117.361 Y106.613 E44.85599
G0 F6000 X117.251 Y107.069
G1 F1200 X132.926 Y122.744 E45.59329
G0 F6000 X132.455 Y122.838
G1 F1200 X117.155 Y107.538 E46.31296
G0 F6000 X117.067 Y108.016
G1 F1200 X131.973 Y122.922 E47.01409
G0 F6000 X131.478 Y122.992
G1 F1200 X117.006 Y108.521 E47.69479
G0 F6000 X116.956 Y109.037
G1 F1200 X130.957 Y123.037 E48.35333
G0 F6000 X130.422 Y123.068
G1 F1200 X116.922 Y109.569 E48.9883
G0 F6000 X116.921 Y110.133
G1 F1200 X129.863 Y123.075 E49.59705
G0 F6000 X129.275 Y123.052
G1 F1200 X116.942 Y110.719 E50.17716
G0 F6000 X116.988 Y111.331
G1 F1200 X128.66 Y123.004 E50.7262
G0 F6000 X128.014 Y122.923
G1 F1200 X117.066 Y111.975 E51.24116
G0 F6000 X117.194 Y112.668
G1 F1200 X127.325 Y122.8 E51.71771
G0 F6000 X126.581 Y122.621
G1 F1200 X117.371 Y113.411 E52.15092
G0 F6000 X117.614 Y114.22
G1 F1200 X125.766 Y122.371 E52.53434
G0 F6000 X124.846 Y122.018
G1 F1200 X117.977 Y115.148 E52.85746
G0 F6000 X117.557 Y115.338
G0 X118.104 Y116.461
G0 X118.511 Y116.248
G1 F1200 X123.754 Y121.491 E53.10408
G0 F6000 X123.544 Y121.9
G0 X121.879 Y120.829
G0 X122.161 Y120.464
M104 S200
G1 F1200 X119.503 Y117.806 E53.2291
;MESH:NONMESH
G0 F300 X119.503 Y117.806 Z0.4
G0 F6000 X119.125 Y118.069
G0 X120.833 Y119.885
G0 X122.109 Y120.93
G0 X123.493 Y121.807
G0 X124.994 Y122.519
G0 X126.933 Y123.119
G0 X128.568 Y123.396
G0 X130.2 Y123.472
G0 X131.841 Y123.346
G0 X133.464 Y123.02
G0 X135.04 Y122.495
G0 X136.854 Y121.606
G0 X138.36 Y120.544
G0 X140.071 Y119.044
G0 X140.291 Y119.249
;TIME_ELAPSED:92.067867
;LAYER:1
M106 S85
;TYPE:WALL-INNER
;MESH:bidet.stl
G1 F2100 X140.835 Y118.605 E53.25714
G1 X141.34 Y117.928 E53.28523
G1 X141.801 Y117.223 E53.31325
G1 X142.22 Y116.489 E53.34136
G1 X142.594 Y115.732 E53.36944
G1 X142.927 Y114.94 E53.39802
G1 X143.197 Y114.158 E53.42554
G1 X143.426 Y113.342 E53.45372
G1 X143.605 Y112.518 E53.48177
G1 X143.734 Y111.683 E53.50987
G1 X143.81 Y110.845 E53.53786
G1 X143.823 Y110.423 E53.5519
G1 X143.836 Y110.001 E53.56594
G1 X143.81 Y109.157 E53.59403
G1 X143.734 Y108.314 E53.62218
G1 X143.605 Y107.482 E53.65018
G1 X143.426 Y106.655 E53.67833
G1 X143.199 Y105.844 E53.70634
G1 X142.921 Y105.047 E53.73441
