;FLAVOR:Marlin
;TIME:3755
;Filament used: 4.65589m
;Layer height: 0.32
;MINX:138.477
;MINY:81.731
;MINZ:0.32
;MAXX:195.016
;MAXY:138.269
;MAXZ:165.003
;POSTPROCESSED
;Generated with Cura_SteamEngine 5.3.1
;
;

M82 ;absolute extrusion mode
START_PRINT EXTRUDER_TEMP=240 BED_TEMP=80 RELATIVE_E_MODE=False PROBE=false PROBE_AREA_START=%MINX%,%MINY% PROBE_AREA_END=%MAXX%,%MAXY%
G92 E0
G92 E0
G1 F1500 E-6.5
;LAYER_COUNT:516
;LAYER:0
M107
G0 F6000 X143.085 Y94.519 Z0.32
;TYPE:SKIRT
G1 F1500 E0
G1 F900 X146.753 Y90.006 E0.74276
G1 X151.263 Y86.341 E1.48499
G1 X156.347 Y83.706 E2.21634
G1 X161.568 Y82.204 E2.91021
G1 X166.766 Y81.731 E3.57684
G1 X171.92 Y82.203 E4.23785
G1 X177.139 Y83.704 E4.93144
G1 X182.24 Y86.346 E5.66513
G1 X186.739 Y90.003 E6.40562
G1 X190.406 Y94.516 E7.14831
G1 X193.041 Y99.6 E7.87966
G1 X194.543 Y104.82 E8.5734
G1 X195.016 Y110.017 E9.2399
G1 X194.544 Y115.173 E9.90117
G1 X193.038 Y120.406 E10.59665
G1 X190.408 Y125.48 E11.32658
G1 X186.737 Y130 E12.07028
G1 X182.239 Y133.656 E12.81059
G1 X177.146 Y136.294 E13.54314
G1 X171.925 Y137.797 E14.23704
G1 X166.728 Y138.269 E14.90353
G1 X161.571 Y137.797 E15.56493
G1 X156.348 Y136.294 E16.25908
G1 X151.255 Y133.656 E16.99163
G1 X146.757 Y130 E17.73194
G1 X143.086 Y125.48 E18.47564
G1 X140.456 Y120.406 E19.20556
G1 X138.95 Y115.173 E19.90104
G1 X138.477 Y110.006 E20.56373
G1 X138.951 Y104.819 E21.22897
G1 X140.454 Y99.595 E21.92324
G1 X143.085 Y94.519 E22.65345
G0 F6000 X143.892 Y95.048
G1 F900 X147.435 Y90.688 E23.37098
G1 X151.791 Y87.148 E24.08787
G1 X156.701 Y84.604 E24.79415
G1 X161.749 Y83.151 E25.46505
G1 X166.765 Y82.695 E26.10833
G1 X171.741 Y83.151 E26.74652
G1 X176.786 Y84.602 E27.41698
G1 X181.71 Y87.152 E28.1252
G1 X186.057 Y90.685 E28.84064
G1 X189.599 Y95.044 E29.55799
G1 X192.143 Y99.954 E30.26426
G1 X193.596 Y105.001 E30.93504
G1 X194.052 Y110.016 E31.57819
G1 X193.596 Y114.994 E32.21664
G1 X192.141 Y120.051 E32.88872
G1 X189.601 Y124.952 E33.59374
G1 X186.057 Y129.315 E34.31165
G1 X181.708 Y132.85 E35.02744
G1 X176.791 Y135.397 E35.73469
G1 X171.745 Y136.849 E36.40531
G1 X166.729 Y137.305 E37.04859
G1 X161.75 Y136.849 E37.68716
G1 X156.703 Y135.397 E38.35791
G1 X151.786 Y132.85 E39.06515
G1 X147.437 Y129.315 E39.78095
G1 X143.893 Y124.952 E40.49886
G1 X141.353 Y120.051 E41.20388
G1 X139.898 Y114.994 E41.87595
G1 X139.441 Y110.005 E42.51581
G1 X139.898 Y105 E43.1577
G1 X141.352 Y99.949 E43.82901
G1 X143.892 Y95.048 E44.53403
G0 F6000 X144.699 Y95.576
G1 F900 X148.117 Y91.37 E45.22623
G1 X152.319 Y87.955 E45.91779
G1 X157.056 Y85.501 E46.59916
G1 X161.929 Y84.099 E47.24678
G1 X166.764 Y83.659 E47.86685
G1 X171.562 Y84.099 E48.48222
G1 X176.434 Y85.5 E49.12968
G1 X181.177 Y87.956 E49.81185
G1 X185.377 Y91.37 E50.50313
G1 X188.792 Y95.572 E51.19469
G1 X191.246 Y100.309 E51.87606
G1 X192.648 Y105.181 E52.52356
G1 X193.088 Y110.015 E53.1435
G1 X192.648 Y114.815 E53.75912
G1 X191.244 Y119.696 E54.4078
G1 X188.794 Y124.424 E55.08791
G1 X185.377 Y128.63 E55.78003
G1 X181.177 Y132.044 E56.47131
G1 X176.436 Y134.5 E57.15325
G1 X171.565 Y135.901 E57.80059
G1 X166.73 Y136.341 E58.42066
G1 X161.929 Y135.901 E59.03641
G1 X157.058 Y134.5 E59.68375
G1 X152.317 Y132.044 E60.36569
G1 X148.117 Y128.63 E61.05697
G1 X144.7 Y124.424 E61.74909
G1 X142.25 Y119.696 E62.4292
G1 X140.846 Y114.815 E63.07788
G1 X140.405 Y110.004 E63.69491
G1 X140.846 Y105.18 E64.31359
G1 X142.249 Y100.304 E64.96162
G1 X144.699 Y95.576 E65.64173
G0 F6000 X145.506 Y96.104
G1 F900 X148.799 Y92.052 E66.3086
G1 X152.847 Y88.762 E66.97483
G1 X157.411 Y86.398 E67.63129
G1 X162.109 Y85.047 E68.25563
G1 X166.763 Y84.623 E68.85249
G1 X171.383 Y85.047 E69.44504
G1 X176.082 Y86.398 E70.0695
G1 X180.647 Y88.762 E70.72607
G1 X184.695 Y92.052 E71.3923
G1 X187.985 Y96.1 E72.05853
G1 X190.349 Y100.664 E72.71499
G1 X191.7 Y105.361 E73.33921
G1 X192.124 Y110.014 E73.93595
G1 X191.7 Y114.636 E74.52874
G1 X190.347 Y119.341 E75.15402
G1 X187.987 Y123.896 E75.80922
G1 X184.697 Y127.945 E76.47555
G1 X180.644 Y131.24 E77.14268
G1 X176.083 Y133.602 E77.79868
G1 X171.385 Y134.953 E78.42302
G1 X166.731 Y135.377 E79.01989
G1 X162.108 Y134.953 E79.61281
G1 X157.411 Y133.602 E80.23703
G1 X152.85 Y131.24 E80.89303
G1 X148.797 Y127.945 E81.56016
G1 X145.507 Y123.896 E82.22648
G1 X143.147 Y119.341 E82.88169
G1 X141.794 Y114.636 E83.50696
G1 X141.369 Y110.003 E84.10117
G1 X141.793 Y105.361 E84.69651
G1 X143.147 Y100.658 E85.32157
G1 X145.506 Y96.104 E85.9766
G0 F6000 X146.313 Y96.632
G1 F900 X149.481 Y92.734 E86.61814
G1 X153.377 Y89.568 E87.25931
G1 X157.764 Y87.296 E87.8903
G1 X162.289 Y85.995 E88.49164
G1 X166.762 Y85.587 E89.06529
G1 X171.204 Y85.995 E89.63501
G1 X175.73 Y87.296 E90.23647
G1 X180.117 Y89.568 E90.86746
G1 X184.013 Y92.734 E91.50863
G1 X187.179 Y96.63 E92.14981
G1 X189.451 Y101.017 E92.78079
G1 X190.752 Y105.541 E93.38201
G1 X191.16 Y110.013 E93.95554
G1 X190.752 Y114.457 E94.52551
G1 X189.45 Y118.986 E95.12738
G1 X187.18 Y123.368 E95.75768
G1 X184.017 Y127.26 E96.39821
G1 X180.114 Y130.433 E97.04065
G1 X175.726 Y132.705 E97.67174
G1 X171.205 Y134.005 E98.27256
G1 X166.732 Y134.413 E98.84622
G1 X162.287 Y134.005 E99.41631
G1 X157.768 Y132.705 E100.01688
G1 X153.38 Y130.433 E100.64798
G1 X149.477 Y127.26 E101.29041
G1 X146.314 Y123.368 E101.93095
G1 X144.044 Y118.986 E102.56125
G1 X142.742 Y114.457 E103.16312
G1 X142.333 Y110.002 E103.7345
G1 X142.741 Y105.541 E104.30663
G1 X144.044 Y101.013 E104.90841
G1 X146.313 Y96.632 E105.53854
G0 F6000 X147.119 Y97.163
G1 F900 X150.164 Y93.417 E106.1551
G1 X153.91 Y90.372 E106.77166
G1 X158.116 Y88.194 E107.3766
G1 X162.469 Y86.943 E107.95506
G1 X166.761 Y86.551 E108.50551
G1 X171.025 Y86.943 E109.0524
G1 X175.378 Y88.194 E109.63086
G1 X179.584 Y90.372 E110.2358
G1 X183.33 Y93.417 E110.85236
G1 X186.375 Y97.163 E111.46892
G1 X188.553 Y101.369 E112.07386
G1 X189.804 Y105.721 E112.6522
G1 X190.196 Y110.012 E113.20252
G1 X189.804 Y114.278 E113.74967
G1 X188.553 Y118.631 E114.32813
G1 X186.373 Y122.84 E114.93353
G1 X183.335 Y126.578 E115.54873
G1 X179.587 Y129.624 E116.16557
G1 X175.369 Y131.808 E116.77222
G1 X171.025 Y133.057 E117.34951
G1 X166.733 Y133.449 E117.89996
G1 X162.467 Y133.057 E118.4471
G1 X158.125 Y131.808 E119.02415
G1 X153.907 Y129.624 E119.63079
G1 X150.159 Y126.578 E120.24763
G1 X147.121 Y122.84 E120.86284
G1 X144.941 Y118.631 E121.46823
G1 X143.69 Y114.278 E122.0467
G1 X143.297 Y110.002 E122.59512
G1 X143.689 Y105.72 E123.1443
G1 X144.941 Y101.368 E123.72268
G1 X147.119 Y97.163 E124.3275
G0 F6000 X147.925 Y97.693
G1 F900 X150.846 Y94.099 E124.91901
G1 X154.44 Y91.178 E125.51052
G1 X158.468 Y89.092 E126.08986
G1 X162.649 Y87.891 E126.64545
G1 X166.76 Y87.515 E127.17269
G1 X170.846 Y87.891 E127.69676
G1 X175.026 Y89.092 E128.25222
G1 X179.054 Y91.178 E128.83157
G1 X182.648 Y94.099 E129.42307
G1 X185.569 Y97.693 E130.01458
G1 X187.655 Y101.721 E130.59392
G1 X188.856 Y105.901 E131.14939
G1 X189.232 Y110.011 E131.67651
G1 X188.856 Y114.099 E132.20082
G1 X187.655 Y118.279 E132.75629
G1 X185.569 Y122.307 E133.33563
G1 X182.65 Y125.898 E133.92668
G1 X179.057 Y128.818 E134.51801
G1 X175.017 Y130.91 E135.09907
G1 X170.845 Y132.109 E135.65348
G1 X166.734 Y132.485 E136.18072
G1 X162.647 Y132.109 E136.70491
G1 X158.477 Y130.91 E137.25908
G1 X154.437 Y128.818 E137.84014
G1 X150.844 Y125.898 E138.43147
G1 X147.925 Y122.307 E139.02251
G1 X145.839 Y118.279 E139.60186
G1 X144.638 Y114.099 E140.15732
G1 X144.261 Y110.002 E140.6828
G1 X144.637 Y105.899 E141.20903
G1 X145.839 Y101.721 E141.76428
G1 X147.925 Y97.693 E142.34363
G0 F6000 X148.732 Y98.223
G1 F900 X151.529 Y94.782 E142.90998
G1 X154.97 Y91.985 E143.47633
G1 X158.825 Y89.989 E144.03077
G1 X162.828 Y88.839 E144.56271
G1 X166.76 Y88.479 E145.067
G1 X170.667 Y88.839 E145.56811
G1 X174.669 Y89.989 E146.09993
G1 X178.524 Y91.985 E146.65437
G1 X181.965 Y94.782 E147.22072
G1 X184.762 Y98.223 E147.78708
G1 X186.758 Y102.078 E148.34151
G1 X187.908 Y106.08 E148.87333
G1 X188.268 Y110.011 E149.37749
G1 X187.908 Y113.92 E149.87886
G1 X186.758 Y117.922 E150.41068
G1 X184.762 Y121.777 E150.96511
G1 X181.965 Y125.218 E151.53147
G1 X178.527 Y128.012 E152.09728
G1 X174.665 Y130.012 E152.65275
G1 X170.666 Y131.161 E153.18416
G1 X166.734 Y131.521 E153.68845
G1 X162.827 Y131.161 E154.18957
G1 X158.829 Y130.012 E154.72085
G1 X154.967 Y128.012 E155.27632
G1 X151.529 Y125.218 E155.84214
G1 X148.732 Y121.777 E156.40849
G1 X146.736 Y117.922 E156.96293
G1 X145.586 Y113.92 E157.49475
G1 X145.225 Y110.002 E157.99727
G1 X145.585 Y106.078 E158.50054
G1 X146.736 Y102.078 E159.03215
G1 X148.732 Y98.223 E159.58659
G0 F6000 X149.539 Y98.753
G1 F900 X152.212 Y95.465 E160.12779
G1 X155.5 Y92.792 E160.66899
G1 X159.182 Y90.886 E161.19852
G1 X163.007 Y89.787 E161.70681
G1 X166.76 Y89.443 E162.18815
G1 X170.487 Y89.787 E162.66618
G1 X174.312 Y90.886 E163.17447
G1 X177.994 Y92.792 E163.704
G1 X181.282 Y95.465 E164.2452
G1 X183.955 Y98.753 E164.7864
G1 X185.861 Y102.435 E165.31594
G1 X186.96 Y106.259 E165.8241
G1 X187.304 Y110.011 E166.30531
G1 X186.96 Y113.74 E166.7836
G1 X185.861 Y117.565 E167.29189
G1 X183.955 Y121.247 E167.82142
G1 X181.282 Y124.535 E168.36262
G1 X177.994 Y127.208 E168.90382
G1 X174.313 Y129.114 E169.43324
G1 X170.487 Y130.213 E169.94166
G1 X166.734 Y130.557 E170.42299
G1 X163.007 Y130.213 E170.90103
G1 X159.181 Y129.114 E171.40944
G1 X155.5 Y127.208 E171.93886
G1 X152.212 Y124.535 E172.48006
G1 X149.539 Y121.247 E173.02126
G1 X147.633 Y117.565 E173.55079
G1 X146.534 Y113.74 E174.05908
G1 X146.189 Y110.002 E174.53852
G1 X146.533 Y106.258 E175.01872
G1 X147.633 Y102.435 E175.5268
G1 X149.539 Y98.753 E176.05633
G1 F1500 E169.55633
;MESH:horn.stl
G0 F6000 X150.465 Y99.355
G0 X148.53 Y102.791
;TYPE:WALL-OUTER
G1 F1500 E176.05633
G1 F900 X150.346 Y99.282 E176.56096
G1 X152.894 Y96.147 E177.07692
G1 X156.029 Y93.599 E177.59289
G1 X159.538 Y91.783 E178.09752
G1 X163.184 Y90.735 E178.58204
G1 X166.76 Y90.407 E179.04068
G1 X170.31 Y90.735 E179.49601
G1 X173.956 Y91.783 E179.98053
G1 X177.465 Y93.599 E180.48515
G1 X180.6 Y96.147 E181.00112
G1 X183.148 Y99.282 E181.51709
G1 X184.964 Y102.791 E182.02171
G1 X186.012 Y106.437 E182.50623
G1 X186.34 Y110.013 E182.96487
G1 X186.012 Y113.563 E183.42021
G1 X184.964 Y117.209 E183.90472
G1 X183.148 Y120.718 E184.40935
G1 X180.6 Y123.853 E184.92532
G1 X177.465 Y126.401 E185.44129
G1 X173.956 Y128.217 E185.94591
G1 X170.31 Y129.265 E186.43043
G1 X166.734 Y129.593 E186.88907
G1 X163.184 Y129.265 E187.3444
G1 X159.538 Y128.217 E187.82892
G1 X156.029 Y126.401 E188.33355
G1 X152.894 Y123.853 E188.84951
G1 X150.346 Y120.718 E189.36548
G1 X148.53 Y117.209 E189.87011
G1 X147.482 Y113.563 E190.35463
G1 X147.153 Y110 E190.81162
G1 X147.481 Y106.436 E191.26874
G1 X148.53 Y102.791 E191.75317
M104 S240
G1 X150.346 Y99.282 Z0.33 E192.2578
G1 X152.894 Y96.147 Z0.341 E192.77377
G1 X156.029 Y93.599 Z0.351 E193.28974
G1 X159.538 Y91.783 Z0.362 E193.79436
G1 X163.184 Y90.735 Z0.371 E194.27888
G1 X166.76 Y90.407 Z0.381 E194.73752
G1 X170.31 Y90.735 Z0.39 E195.19286
G1 X173.956 Y91.783 Z0.4 E195.67738
G1 X177.465 Y93.599 Z0.41 E196.18201
G1 X180.6 Y96.147 Z0.421 E196.69798
G1 X183.148 Y99.282 Z0.431 E197.21395
G1 X184.964 Y102.791 Z0.442 E197.71857
G1 X186.012 Y106.437 Z0.451 E198.20309
G1 X186.34 Y110.013 Z0.461 E198.66174
G1 X186.012 Y113.563 Z0.47 E199.11707
G1 X184.964 Y117.209 Z0.48 E199.60159
G1 X183.148 Y120.718 Z0.49 E200.10622
G1 X180.6 Y123.853 Z0.501 E200.62219
G1 X177.465 Y126.401 Z0.511 E201.13816
G1 X173.956 Y128.217 Z0.522 E201.64278
G1 X170.31 Y129.265 Z0.531 E202.1273
G1 X166.734 Y129.593 Z0.541 E202.58595
G1 X163.184 Y129.265 Z0.55 E203.04128
G1 X159.538 Y128.217 Z0.56 E203.5258
G1 X156.029 Y126.401 Z0.57 E204.03043
G1 X152.894 Y123.853 Z0.581 E204.5464
G1 X150.346 Y120.718 Z0.591 E205.06237
G1 X148.53 Y117.209 Z0.602 E205.56699
G1 X147.482 Y113.563 Z0.611 E206.05151
G1 X147.153 Y110 Z0.621 E206.50851
G1 X147.481 Y106.436 Z0.63 E206.96563
G1 X148.53 Y102.791 Z0.64 E207.45006
;TIME_ELAPSED:114.326335
;LAYER:1
M106 S51
;TYPE:WALL-OUTER
;MESH:horn.stl
G1 F965.7 X150.345 Y99.281 Z0.65 E207.87063
G1 X152.892 Y96.145 Z0.661 E208.30062
G1 X156.026 Y93.595 Z0.671 E208.73065
G1 X159.536 Y91.776 Z0.682 E209.15141
G1 X163.183 Y90.726 Z0.691 E209.55534
G1 X166.752 Y90.397 Z0.701 E209.93681
G1 X170.312 Y90.723 Z0.71 E210.31729
G1 X173.961 Y91.77 Z0.72 E210.72134
G1 X177.475 Y93.586 Z0.73 E211.14233
G1 X180.613 Y96.134 Z0.741 E211.57256
G1 X183.164 Y99.27 Z0.751 E212.00281
G1 X184.984 Y102.783 Z0.761 E212.42391
G1 X186.036 Y106.433 Z0.771 E212.8282
G1 X186.365 Y110.003 Z0.781 E213.20978
G1 X186.039 Y113.568 Z0.79 E213.5908
G1 X184.991 Y117.22 Z0.8 E213.99518
G1 X183.173 Y120.737 Z0.81 E214.41655
G1 X180.624 Y123.877 Z0.821 E214.84701
G1 X177.486 Y126.429 Z0.831 E215.2775
G1 X173.97 Y128.251 Z0.841 E215.69898
G1 X170.317 Y129.303 Z0.851 E216.10358
G1 X166.745 Y129.634 Z0.861 E216.48538
G1 X163.177 Y129.307 Z0.87 E216.86673
G1 X159.521 Y128.258 Z0.88 E217.27155
G1 X156.001 Y126.437 Z0.89 E217.69335
G1 X152.859 Y123.888 Z0.901 E218.12397
G1 X150.307 Y120.748 Z0.911 E218.55463
G1 X148.482 Y117.229 Z0.922 E218.97654
G1 X147.429 Y113.573 Z0.931 E219.38148
G1 X147.097 Y110 Z0.941 E219.7634
G1 X147.424 Y106.426 Z0.95 E220.14538
G1 X148.475 Y102.768 Z0.96 E220.55046
;TIME_ELAPSED:121.997138
;LAYER:2
;TYPE:WALL-OUTER
;MESH:horn.stl
G1 F1165.2 X150.296 Y99.251 Z0.97 E220.97198
G1 X152.852 Y96.104 Z0.981 E221.40349
G1 X155.997 Y93.551 Z0.991 E221.83462
G1 X159.517 Y91.73 Z1.002 E222.25643
G1 X163.171 Y90.68 Z1.012 E222.66107
G1 X166.745 Y90.351 Z1.021 E223.04307
G1 X170.321 Y90.68 Z1.03 E223.42528
G1 X173.975 Y91.732 Z1.04 E223.82999
G1 X177.494 Y93.554 Z1.05 E224.25175
G1 X180.639 Y96.109 Z1.061 E224.68302
G1 X183.192 Y99.253 Z1.071 E225.11407
G1 X185.012 Y102.772 Z1.082 E225.53574
G1 X186.062 Y106.426 Z1.092 E225.94038
G1 X186.391 Y109.998 Z1.101 E226.32217
G1 X186.062 Y113.573 Z1.11 E226.70427
G1 X185.01 Y117.227 Z1.12 E227.10897
G1 X183.189 Y120.745 Z1.13 E227.53059
G1 X180.635 Y123.888 Z1.141 E227.96163
G1 X177.492 Y126.44 Z1.151 E228.39253
G1 X173.974 Y128.261 Z1.162 E228.81415
G1 X170.32 Y129.31 Z1.172 E229.21877
G1 X166.748 Y129.639 Z1.181 E229.60055
G1 X163.175 Y129.309 Z1.19 E229.98246
G1 X159.521 Y128.258 Z1.2 E230.38713
G1 X156.005 Y126.437 Z1.21 E230.80856
G1 X152.863 Y123.884 Z1.221 E231.23945
G1 X150.311 Y120.742 Z1.231 E231.67027
G1 X148.491 Y117.225 Z1.242 E232.09174
G1 X147.442 Y113.571 Z1.251 E232.49636
G1 X147.112 Y110.001 Z1.261 E232.87794
G1 X147.442 Y106.428 Z1.27 E233.25985
G1 X148.494 Y102.776 Z1.28 E233.66434
;TIME_ELAPSED:128.371885
;LAYER:3
;TYPE:WALL-OUTER
;MESH:horn.stl
G1 F1162.6 X150.315 Y99.259 Z1.29 E234.08587
G1 X152.867 Y96.119 Z1.301 E234.51652
G1 X156.006 Y93.57 Z1.311 E234.9469
G1 X159.525 Y91.749 Z1.322 E235.36861
G1 X163.175 Y90.701 Z1.332 E235.77278
G1 X166.745 Y90.372 Z1.341 E236.15436
G1 X170.317 Y90.701 Z1.35 E236.53615
G1 X173.967 Y91.751 Z1.36 E236.94038
G1 X177.485 Y93.572 Z1.37 E237.362
G1 X180.624 Y96.124 Z1.381 E237.79257
G1 X183.173 Y99.262 Z1.391 E238.22286
G1 X184.993 Y102.78 Z1.402 E238.64443
G1 X186.042 Y106.43 Z1.412 E239.04864
G1 X186.37 Y109.998 Z1.421 E239.42999
G1 X186.041 Y113.569 Z1.43 E239.81167
G1 X184.991 Y117.219 Z1.44 E240.21591
G1 X183.17 Y120.735 Z1.45 E240.63734
G1 X180.62 Y123.873 Z1.461 E241.06769
G1 X177.481 Y126.422 Z1.471 E241.49806
G1 X173.966 Y128.242 Z1.482 E241.91935
G1 X170.316 Y129.29 Z1.492 E242.32353
G1 X166.748 Y129.618 Z1.501 E242.70488
G1 X163.179 Y129.289 Z1.51 E243.08635
G1 X159.529 Y128.239 Z1.52 E243.49058
G1 X156.016 Y126.419 Z1.53 E243.91168
G1 X152.878 Y123.869 Z1.541 E244.34204
G1 X150.329 Y120.731 Z1.551 E244.77233
G1 X148.51 Y117.217 Z1.562 E245.19347
G1 X147.462 Y113.567 Z1.572 E245.59764
G1 X147.132 Y110.001 Z1.581 E245.9788
G1 X147.462 Y106.432 Z1.59 E246.36028
G1 X148.513 Y102.784 Z1.6 E246.76434
;TIME_ELAPSED:134.753901
;LAYER:4
;TYPE:WALL-OUTER
;MESH:horn.stl
G1 F1160 X150.335 Y99.268 Z1.61 E247.18582
G1 X152.882 Y96.133 Z1.621 E247.61573
G1 X156.015 Y93.59 Z1.631 E248.0452
