;FLAVOR:Marlin
;TIME:1477
;Filament used: 1.20667m
;Layer height: 0.32
;MINX:113.246
;MINY:93.61
;MINZ:0.32
;MAXX:146.714
;MAXY:129.609
;MAXZ:15.04
;POSTPROCESSED
;Generated with Cura_SteamEngine 5.3.1
;
;

M82 ;absolute extrusion mode
START_PRINT EXTRUDER_TEMP=250.0 BED_TEMP=90 RELATIVE_E_MODE=False PROBE=alse PROBE_AREA_START=%MINX%,%MINY% PROBE_AREA_END=%MAXX%,%MAXY%
G92 E0
G92 E0
G1 F1500 E-6.5
;LAYER_COUNT:47
;LAYER:0
M107
G0 F6000 X119.313 Y96.071 Z0.32
;TYPE:SKIRT
G1 F1500 E0
G1 F900 X119.07 Y96.418 E0.02818
G1 X118.896 Y96.805 E0.05641
G1 X118.725 Y97.312 E0.092
G1 X118.048 Y99.524 E0.24588
G1 X117.344 Y101.742 E0.40067
G1 X116.433 Y104.37 E0.58569
G1 X115.462 Y106.935 E0.76814
G1 X115.162 Y107.692 E0.8223
G1 X114.952 Y108.272 E0.86333
G1 X114.698 Y109.164 E0.92503
G1 X114.526 Y109.889 E0.97459
G1 X114.411 Y110.564 E1.02014
G1 X114.308 Y111.335 E1.07189
G1 X114.271 Y111.914 E1.11048
G1 X114.246 Y112.703 E1.16299
G1 X114.281 Y113.177 E1.19461
G1 X114.396 Y113.585 E1.2228
G1 X114.587 Y114.079 E1.25804
G1 X115.253 Y115.731 E1.37652
G1 X116.218 Y118.339 E1.5615
G1 X117.097 Y120.939 E1.74407
G1 X117.909 Y123.585 E1.92819
G1 X118.656 Y126.289 E2.11479
G1 X118.82 Y126.917 E2.15797
G1 X118.947 Y127.276 E2.1833
G1 X119.157 Y127.644 E2.21149
G1 X119.433 Y127.966 E2.2397
G1 X119.764 Y128.231 E2.2679
G1 X120.138 Y128.429 E2.29605
G1 X120.544 Y128.553 E2.32429
G1 X120.965 Y128.599 E2.35246
G1 X121.664 Y128.609 E2.39896
G1 X135.659 Y128.609 E3.32992
G1 X136.051 Y128.598 E3.356
G1 X136.402 Y128.559 E3.37949
G1 X136.809 Y128.441 E3.40768
G1 X137.186 Y128.249 E3.43583
G1 X137.521 Y127.989 E3.46403
G1 X137.801 Y127.671 E3.49222
G1 X138.017 Y127.307 E3.52038
G1 X138.595 Y126.078 E3.61072
G1 X139.949 Y123.306 E3.81593
G1 X141.243 Y120.848 E4.00071
G1 X142.604 Y118.429 E4.18535
G1 X144.008 Y116.094 E4.36659
G1 X145.364 Y113.966 E4.53444
G1 X145.591 Y113.496 E4.56916
G1 X145.692 Y113.084 E4.59738
G1 X145.714 Y112.661 E4.62555
G1 X145.672 Y111.678 E4.691
G1 X145.639 Y111.282 E4.71744
G1 X145.533 Y110.508 E4.7694
G1 X145.389 Y109.716 E4.82295
G1 X145.231 Y109.073 E4.867
G1 X145.032 Y108.359 E4.9163
G1 X144.547 Y107.017 E5.01122
G1 X144.531 Y106.955 E5.01548
G1 X143.843 Y105.031 E5.1514
G1 X142.981 Y102.388 E5.33633
G1 X142.201 Y99.74 E5.51996
G1 X141.763 Y98.142 E5.63018
G1 X141.572 Y97.528 E5.67295
G1 X141.366 Y96.931 E5.71496
G1 X141.16 Y96.493 E5.74716
G1 X140.906 Y96.154 E5.77534
G1 X140.593 Y95.868 E5.80354
G1 X140.2 Y95.573 E5.83623
G1 X139.638 Y95.176 E5.882
G1 X139.198 Y94.934 E5.91541
G1 X138.792 Y94.81 E5.94365
G1 X138.371 Y94.764 E5.97182
G1 X137.864 Y94.758 E6.00555
G1 X137.03 Y94.773 E6.06103
G1 X136.064 Y94.82 E6.12537
G1 X132.534 Y94.932 E6.3603
G1 X129.773 Y94.932 E6.54396
G1 X127.001 Y94.853 E6.72843
G1 X124.239 Y94.696 E6.91246
G1 X123.066 Y94.616 E6.99067
G1 X122.557 Y94.61 E7.02453
G1 X121.881 Y94.622 E7.0695
G1 X121.391 Y94.685 E7.10237
G1 X120.99 Y94.824 E7.1306
G1 X120.623 Y95.035 E7.15876
G1 X120.192 Y95.34 E7.19388
G1 X119.673 Y95.731 E7.23711
G1 X119.313 Y96.071 E7.27005
G0 F6000 X118.931 Y95.743
G1 F900 X118.634 Y96.168 E7.30454
G1 X118.422 Y96.645 E7.33926
G1 X118.251 Y97.152 E7.37485
G1 X117.571 Y99.373 E7.52936
G1 X116.867 Y101.591 E7.68416
G1 X115.965 Y104.193 E7.86735
G1 X114.997 Y106.751 E8.04928
G1 X114.697 Y107.508 E8.10345
G1 X114.471 Y108.135 E8.14779
G1 X114.217 Y109.027 E8.20948
G1 X114.033 Y109.805 E8.26266
G1 X113.918 Y110.48 E8.30821
G1 X113.812 Y111.269 E8.36116
G1 X113.772 Y111.882 E8.40203
G1 X113.746 Y112.687 E8.45561
G1 X113.785 Y113.26 E8.49381
G1 X113.915 Y113.721 E8.52567
G1 X114.121 Y114.259 E8.56399
G1 X114.784 Y115.905 E8.68203
G1 X115.744 Y118.499 E8.86603
G1 X116.619 Y121.086 E9.04769
G1 X117.427 Y123.718 E9.23084
G1 X118.172 Y126.415 E9.41696
G1 X118.336 Y127.043 E9.46014
G1 X118.491 Y127.485 E9.49129
G1 X118.747 Y127.934 E9.52567
G1 X119.082 Y128.324 E9.55987
G1 X119.491 Y128.653 E9.59479
G1 X119.945 Y128.893 E9.62895
G1 X120.445 Y129.045 E9.66371
G1 X120.958 Y129.099 E9.69803
G1 X121.657 Y129.109 E9.74453
G1 X135.673 Y129.109 E10.67688
G1 X136.065 Y129.098 E10.70296
G1 X136.497 Y129.052 E10.73186
G1 X136.997 Y128.907 E10.76649
G1 X137.454 Y128.674 E10.80062
G1 X137.862 Y128.358 E10.83495
G1 X138.208 Y127.964 E10.86983
G1 X138.447 Y127.562 E10.90094
G1 X139.044 Y126.297 E10.99398
G1 X140.391 Y123.539 E11.19816
G1 X141.679 Y121.093 E11.38205
G1 X143.033 Y118.687 E11.5657
G1 X144.43 Y116.363 E11.74607
G1 X145.786 Y114.235 E11.91392
G1 X146.065 Y113.664 E11.9562
G1 X146.189 Y113.16 E11.99072
G1 X146.214 Y112.64 E12.02535
G1 X146.172 Y111.657 E12.0908
G1 X146.137 Y111.24 E12.11864
G1 X146.028 Y110.44 E12.17235
G1 X145.875 Y109.597 E12.22934
G1 X145.717 Y108.954 E12.27339
G1 X145.514 Y108.225 E12.32372
G1 X145.025 Y106.87 E12.41955
G1 X145.002 Y106.787 E12.42528
G1 X144.314 Y104.863 E12.5612
G1 X143.461 Y102.247 E12.74423
G1 X142.681 Y99.599 E12.92786
G1 X142.245 Y98.01 E13.03747
G1 X142.049 Y97.379 E13.08142
G1 X141.839 Y96.768 E13.1244
G1 X141.59 Y96.233 E13.16365
G1 X141.278 Y95.817 E13.19824
G1 X140.893 Y95.468 E13.23281
G1 X140.5 Y95.173 E13.2655
G1 X139.879 Y94.738 E13.31594
G1 X139.394 Y94.471 E13.35276
G1 X138.892 Y94.318 E13.38767
G1 X138.425 Y94.267 E13.41892
G1 X137.87 Y94.258 E13.45585
G1 X137.021 Y94.273 E13.51233
G1 X136.048 Y94.321 E13.57713
G1 X132.518 Y94.432 E13.81207
G1 X129.787 Y94.432 E13.99373
G1 X127.015 Y94.353 E14.1782
G1 X124.273 Y94.197 E14.3609
G1 X123.1 Y94.117 E14.43911
G1 X122.563 Y94.11 E14.47483
G1 X121.872 Y94.122 E14.5208
G1 X121.279 Y94.195 E14.56055
G1 X120.782 Y94.367 E14.59553
G1 X120.334 Y94.627 E14.62999
G1 X119.903 Y94.932 E14.66511
G1 X119.33 Y95.367 E14.71297
G1 X118.931 Y95.743 E14.74944
G0 F6000 X118.551 Y95.413
G1 F900 X118.196 Y95.922 E14.79072
G1 X117.948 Y96.485 E14.83164
G1 X117.777 Y96.992 E14.86723
G1 X117.094 Y99.222 E15.02237
G1 X116.39 Y101.44 E15.17717
G1 X115.497 Y104.016 E15.35853
G1 X114.532 Y106.567 E15.53996
G1 X114.232 Y107.324 E15.59412
G1 X113.99 Y107.998 E15.64176
G1 X113.736 Y108.89 E15.70346
G1 X113.546 Y109.69 E15.75815
G1 X113.425 Y110.396 E15.8058
G1 X113.316 Y111.202 E15.8599
G1 X113.273 Y111.849 E15.90304
G1 X113.246 Y112.671 E15.95775
G1 X113.289 Y113.344 E16.00261
G1 X113.448 Y113.9 E16.04107
G1 X113.654 Y114.438 E16.0794
G1 X114.315 Y116.079 E16.19708
G1 X115.27 Y118.659 E16.38008
G1 X116.141 Y121.233 E16.56084
G1 X116.945 Y123.851 E16.74302
G1 X117.688 Y126.541 E16.92866
G1 X117.852 Y127.169 E16.97183
G1 X118.034 Y127.692 E17.00867
G1 X118.337 Y128.223 E17.04934
G1 X118.733 Y128.685 E17.08982
G1 X119.215 Y129.073 E17.13098
G1 X119.751 Y129.356 E17.1713
G1 X120.347 Y129.537 E17.21273
G1 X120.951 Y129.599 E17.25312
G1 X121.65 Y129.609 E17.29962
G1 X135.687 Y129.609 E18.23337
G1 X136.079 Y129.598 E18.25945
G1 X136.593 Y129.545 E18.29383
G1 X137.181 Y129.374 E18.33456
G1 X137.723 Y129.097 E18.37505
G1 X138.208 Y128.722 E18.41583
G1 X138.615 Y128.259 E18.45684
G1 X138.877 Y127.818 E18.49096
G1 X139.493 Y126.516 E18.58677
G1 X140.833 Y123.772 E18.78991
G1 X142.115 Y121.338 E18.9729
G1 X143.462 Y118.945 E19.15557
G1 X144.852 Y116.632 E19.33508
G1 X146.208 Y114.504 E19.50293
G1 X146.538 Y113.835 E19.55255
G1 X146.686 Y113.236 E19.5936
G1 X146.714 Y112.619 E19.63468
G1 X146.672 Y111.636 E19.70013
G1 X146.635 Y111.198 E19.72937
G1 X146.523 Y110.372 E19.78482
G1 X146.361 Y109.478 E19.84526
G1 X146.203 Y108.835 E19.8893
G1 X145.996 Y108.091 E19.94067
G1 X145.504 Y106.724 E20.03731
G1 X145.473 Y106.619 E20.0446
G1 X144.785 Y104.695 E20.18052
G1 X143.941 Y102.106 E20.36166
G1 X143.161 Y99.458 E20.54529
G1 X142.727 Y97.878 E20.65428
G1 X142.522 Y97.216 E20.70038
G1 X142.312 Y96.605 E20.74336
G1 X142.021 Y95.974 E20.78958
G1 X141.649 Y95.479 E20.83077
G1 X141.193 Y95.068 E20.87161
G1 X140.8 Y94.773 E20.9043
G1 X140.166 Y94.328 E20.95582
G1 X139.591 Y94.008 E20.9996
G1 X138.991 Y93.826 E21.0413
G1 X138.433 Y93.767 E21.07863
G1 X137.878 Y93.758 E21.11555
G1 X137.012 Y93.773 E21.17317
G1 X136.032 Y93.822 E21.23844
G1 X132.502 Y93.932 E21.47337
G1 X129.801 Y93.932 E21.65304
G1 X127.029 Y93.853 E21.83751
G1 X124.307 Y93.698 E22.01887
G1 X123.134 Y93.618 E22.09708
G1 X122.57 Y93.61 E22.1346
G1 X121.863 Y93.622 E22.18164
G1 X121.162 Y93.706 E22.2286
G1 X120.577 Y93.908 E22.26977
G1 X120.045 Y94.219 E22.31076
G1 X119.614 Y94.524 E22.34589
G1 X118.987 Y95.003 E22.39837
G1 X118.551 Y95.413 E22.43819
G1 F1500 E15.93819
G0 F6000 X121.234 Y97.669
G1 F1500 E22.43819
G1 F900 X122.007 Y97.106 E22.5018
G1 X122.961 Y97.106 E22.56526
G1 X123.734 Y97.669 E22.62887
G1 X124.029 Y98.576 E22.69232
G1 X123.734 Y99.483 E22.75576
G1 X122.961 Y100.046 E22.81937
G1 X122.007 Y100.046 E22.88283
G1 X121.234 Y99.483 E22.94645
G1 X120.939 Y98.576 E23.00989
G1 X121.234 Y97.669 E23.07334
G0 F6000 X121.659 Y97.978
G1 F900 X122.169 Y97.606 E23.11533
G1 X122.799 Y97.606 E23.15724
G1 X123.309 Y97.978 E23.19923
G1 X123.504 Y98.576 E23.24107
G1 X123.309 Y99.174 E23.28291
G1 X122.799 Y99.546 E23.3249
G1 X122.169 Y99.546 E23.36681
G1 X121.659 Y99.174 E23.4088
G1 X121.464 Y98.576 E23.45064
G1 X121.659 Y97.978 E23.49248
G0 F6000 X122.085 Y98.286
G1 F900 X122.332 Y98.106 E23.51281
G1 X122.636 Y98.106 E23.53303
G1 X122.883 Y98.286 E23.55336
G1 X122.977 Y98.576 E23.57364
G1 X122.883 Y98.866 E23.59392
G1 X122.636 Y99.046 E23.61425
G1 X122.332 Y99.046 E23.63447
G1 X122.085 Y98.866 E23.65481
G1 X121.991 Y98.576 E23.67508
G1 X122.085 Y98.286 E23.69536
G1 F1500 E17.19536
G0 F6000 X136.246 Y98.724
G1 F1500 E23.69536
G1 F900 X136.541 Y97.817 E23.75881
G1 X137.314 Y97.254 E23.82242
G1 X138.268 Y97.254 E23.88588
G1 X139.041 Y97.817 E23.94949
G1 X139.336 Y98.724 E24.01294
G1 X139.041 Y99.631 E24.07638
G1 X138.268 Y100.194 E24.14
G1 X137.314 Y100.194 E24.20346
G1 X136.541 Y99.631 E24.26707
G1 X136.246 Y98.724 E24.33052
G0 F6000 X136.771 Y98.724
G1 F900 X136.966 Y98.126 E24.37236
G1 X137.476 Y97.754 E24.41435
G1 X138.106 Y97.754 E24.45625
G1 X138.616 Y98.126 E24.49825
G1 X138.811 Y98.724 E24.54009
G1 X138.616 Y99.322 E24.58193
G1 X138.106 Y99.694 E24.62392
G1 X137.476 Y99.694 E24.66583
G1 X136.966 Y99.322 E24.70782
G1 X136.771 Y98.724 E24.74966
G0 F6000 X137.298 Y98.724
G1 F900 X137.392 Y98.434 E24.76994
G1 X137.639 Y98.254 E24.79027
G1 X137.943 Y98.254 E24.81049
G1 X138.19 Y98.434 E24.83082
G1 X138.284 Y98.724 E24.8511
G1 X138.19 Y99.014 E24.87138
G1 X137.943 Y99.194 E24.89171
G1 X137.639 Y99.194 E24.91193
G1 X137.392 Y99.014 E24.93226
G1 X137.298 Y98.724 E24.95254
G1 F1500 E18.45254
;MESH:Bissel Latch (1).stl
G0 F6000 X136.387 Y100.757
G0 X135.952 Y101.729
G0 X134.911 Y102.93
G0 X133.968 Y102.58
G0 X133.979 Y104.008
;TYPE:WALL-INNER
G1 F1500 E24.95254
G1 F900 X133.971 Y104.17 E24.96333
G1 X133.971 Y111.007 E25.41813
G1 X141.562 Y111.006 E25.92308
G1 X141.505 Y110.64 E25.94772
G1 X141.221 Y109.556 E26.02227
G1 X140.851 Y108.575 E26.09201
G1 X140.358 Y107.588 E26.1654
G1 X139.771 Y106.659 E26.2385
G1 X139.077 Y105.769 E26.31357
G1 X138.334 Y104.993 E26.38504
G1 X137.461 Y104.241 E26.46169
G1 X136.525 Y103.581 E26.53787
G1 X135.564 Y103.036 E26.61136
G1 X134.51 Y102.564 E26.68818
G1 X133.645 Y102.268 E26.749
G1 X133.801 Y102.739 E26.78201
G1 X133.957 Y103.728 E26.84861
G1 X133.979 Y104.008 E26.86729
G0 F6000 X133.471 Y104.165
G1 F900 X133.471 Y111.507 E27.35568
G1 X142.147 Y111.506 E27.93281
G1 X141.995 Y110.538 E27.99799
G1 X141.698 Y109.404 E28.07597
G1 X141.31 Y108.375 E28.14912
G1 X140.794 Y107.342 E28.22594
G1 X140.181 Y106.371 E28.30232
G1 X139.456 Y105.442 E28.38071
G1 X138.679 Y104.629 E28.45552
G1 X137.769 Y103.846 E28.53538
G1 X136.793 Y103.158 E28.61481
G1 X135.79 Y102.589 E28.69152
G1 X134.693 Y102.098 E28.77147
G1 X133.552 Y101.709 E28.85165
G1 X132.7 Y101.507 E28.9099
G1 X133.181 Y102.436 E28.97949
G1 X133.307 Y102.817 E29.00618
G1 X133.463 Y103.807 E29.07285
G1 X133.471 Y104.165 E29.09667
G0 F6000 X132.982 Y103.966
G1 F900 X132.971 Y104.121 E29.10701
G1 X132.971 Y112.007 E29.63159
G1 X142.686 Y112.007 E30.27783
G1 X142.663 Y111.569 E30.30701
G1 X142.485 Y110.436 E30.3833
G1 X142.175 Y109.252 E30.46472
G1 X141.768 Y108.174 E30.54136
G1 X141.23 Y107.096 E30.62151
G1 X140.59 Y106.083 E30.70121
G1 X139.834 Y105.115 E30.78292
G1 X139.023 Y104.266 E30.86102
G1 X138.077 Y103.452 E30.94404
G1 X137.061 Y102.736 E31.02672
G1 X136.016 Y102.143 E31.10664
G1 X134.876 Y101.632 E31.18975
G1 X133.691 Y101.228 E31.27303
G1 X132.464 Y100.936 E31.35693
G1 X131.312 Y100.774 E31.43431
G1 X132.135 Y101.584 E31.51113
G1 X132.274 Y101.773 E31.52673
G1 X132.737 Y102.667 E31.5937
G1 X132.813 Y102.895 E31.60969
G1 X132.982 Y103.966 E31.68182
G1 F1500 E25.18182
G0 F6000 X133.131 Y103.943
G0 X132.474 Y102.88
G0 X131.433 Y103.223
G0 X126.523 Y103.226
G0 X125.481 Y102.882
G0 X123.969 Y103.92
G1 F1500 E31.68182
G1 F900 X124.078 Y103.215 E31.72927
G1 X123.423 Y103.587 E31.77938
G1 X122.484 Y104.247 E31.85573
G1 X121.646 Y104.967 E31.92922
G1 X120.876 Y105.77 E32.00323
G1 X120.175 Y106.668 E32.07901
G1 X119.61 Y107.561 E32.1493
G1 X119.107 Y108.57 E32.2243
G1 X118.733 Y109.557 E32.29451
G1 X118.45 Y110.63 E32.36832
G1 X118.391 Y111.007 E32.39371
G1 X123.964 Y111.007 E32.76443
G1 X123.969 Y103.92 E33.23585
G0 F6000 X124.468 Y103.963
G1 F900 X124.649 Y102.815 E33.31316
G1 X124.819 Y102.296 E33.34949
G1 X124.167 Y102.59 E33.39707
G1 X123.155 Y103.164 E33.47446
G1 X122.176 Y103.852 E33.55406
G1 X121.302 Y104.603 E33.63071
G1 X120.498 Y105.443 E33.70806
G1 X119.766 Y106.379 E33.7871
G1 X119.174 Y107.315 E33.86077
G1 X118.648 Y108.369 E33.93913
G1 X118.256 Y109.404 E34.01275
G1 X117.96 Y110.527 E34.09001
G1 X117.807 Y111.507 E34.15599
G1 X124.464 Y111.507 E34.59881
G1 X124.468 Y103.963 E35.10064
G0 F6000 X124.966 Y104.006
G1 F900 X125.143 Y102.894 E35.17554
G1 X125.216 Y102.67 E35.19121
G1 X125.676 Y101.776 E35.25809
G1 X125.817 Y101.584 E35.27394
G1 X126.137 Y101.271 E35.30372
G1 X125.095 Y101.625 E35.37692
G1 X123.954 Y102.136 E35.46008
G1 X122.887 Y102.741 E35.54168
G1 X121.869 Y103.457 E35.62447
G1 X120.958 Y104.24 E35.70437
G1 X120.119 Y105.115 E35.78501
G1 X119.356 Y106.091 E35.86742
G1 X118.738 Y107.069 E35.94438
G1 X118.19 Y108.169 E36.02613
G1 X117.779 Y109.252 E36.10318
G1 X117.47 Y110.425 E36.18387
G1 X117.291 Y111.569 E36.2609
G1 X117.268 Y112.007 E36.29007
G1 X124.964 Y112.007 E36.80201
G1 X124.966 Y104.006 E37.33424
G0 F6000 X125.464 Y104.05
;TYPE:WALL-OUTER
G1 F900 X125.644 Y102.933 E37.4095
G1 X126.14 Y101.969 E37.48162
G1 X126.916 Y101.206 E37.55401
G1 X127.546 Y100.889 E37.60093
G1 F668.6 X127.842 Y100.553 E37.64102
G1 X127.407 Y100.441 E37.68124
G1 F900 X126.123 Y100.747 E37.76904
G1 X124.912 Y101.159 E37.85413
G1 X123.728 Y101.689 E37.94042
G1 X122.619 Y102.318 E38.02523
G1 X121.561 Y103.062 E38.11127
G1 X120.614 Y103.876 E38.19434
G1 X119.741 Y104.787 E38.27827
G1 X118.947 Y105.803 E38.36405
G1 X118.302 Y106.823 E38.44433
G1 X117.731 Y107.968 E38.52944
G1 X117.302 Y109.099 E38.6099
G1 X116.98 Y110.322 E38.69403
G1 X116.793 Y111.517 E38.77449
G1 X116.741 Y112.507 E38.84043
G1 X125.464 Y112.507 E39.42069
G1 X125.464 Y104.05 E39.98325
G1 F1500 E33.48325
G0 F6000 X124.824 Y103.947
G0 X125.987 Y101.857
G0 X126.724 Y101.132
G0 X127.659 Y100.609
G0 X127.842 Y100.553
G1 F1500 E39.98325
G1 F538.3 X128.678 Y100.428 E40.07727
G1 F553.5 X128.956 Y100.4 E40.10749
G1 F560.4 X129.038 Y100.401 E40.11625
G1 F1500 E33.61625
G0 F6000 X129.499 Y100.426
G0 X130.116 Y100.533
G0 X131.147 Y101.051
G0 X132.138 Y101.519
G0 X133.127 Y104.072
G0 X132.479 Y104.004
G1 F1500 E40.11625
G1 F900 X132.471 Y104.097 E40.12246
G1 X132.471 Y112.507 E40.68189
G1 X143.213 Y112.507 E41.39646
G1 X143.161 Y111.517 E41.4624
G1 X142.975 Y110.334 E41.54206
G1 X142.652 Y109.1 E41.62691
G1 X142.227 Y107.974 E41.70697
G1 X141.666 Y106.85 E41.79054
G1 X141 Y105.795 E41.87353
G1 X140.213 Y104.787 E41.9586
G1 X139.368 Y103.903 E42.03995
G1 X138.385 Y103.057 E42.12622
G1 X137.329 Y102.313 E42.21215
G1 X136.242 Y101.696 E42.29529
G1 X135.06 Y101.166 E42.38146
G1 X133.83 Y100.747 E42.4679
G1 X132.557 Y100.444 E42.55494
G1 X131.289 Y100.266 E42.64012
G1 F903.6 X129.977 Y100.202 E42.72715
