;FLAVOR:Marlin
;TIME:4978
;Filament used: 6.84541m
;Layer height: 0.28
;MINX:55.508
;MINY:86.228
;MINZ:0.28
;MAXX:204.492
;MAXY:169.712
;MAXZ:7
;POSTPROCESSED
;Generated with Cura_SteamEngine 5.2.1
;
;

M82 ;absolute extrusion mode
START_PRINT EXTRUDER_TEMP=200 BED_TEMP=50 RELATIVE_E_MODE=False PROBE=false PROBE_AREA_START=%MINX%,%MINY% PROBE_AREA_END=%MAXX%,%MAXY%
G92 E0
G92 E0
G1 F1500 E-6.5
;LAYER_COUNT:25
;LAYER:0
M106 S63.8
G0 F6000 X60.612 Y88.683 Z0.28
;TYPE:SKIRT
G1 F1500 E0
G1 F1200 X61.387 Y88.156 E0.04364
G1 X62.312 Y87.643 E0.09289
G1 X62.675 Y87.464 E0.11174
G1 X63.533 Y87.086 E0.1554
G1 X64.42 Y86.782 E0.19906
G1 X65.344 Y86.551 E0.24341
G1 X65.668 Y86.485 E0.2588
G1 X66.594 Y86.338 E0.30246
G1 X67.635 Y86.266 E0.35105
G1 X68.741 Y86.243 E0.40256
G1 X191.244 Y86.228 E6.10681
G1 X192.127 Y86.239 E6.14793
G1 X192.893 Y86.276 E6.18364
G1 X193.228 Y86.304 E6.1993
G1 X194.159 Y86.422 E6.243
G1 X195.076 Y86.619 E6.28667
G1 X195.849 Y86.85 E6.32424
G1 X196.223 Y86.977 E6.34263
G1 X197.097 Y87.316 E6.38628
G1 X197.94 Y87.729 E6.42999
G1 X198.814 Y88.258 E6.47756
G1 X199.136 Y88.474 E6.49562
G1 X199.892 Y89.029 E6.53929
G1 X200.598 Y89.647 E6.58298
G1 X201.241 Y90.314 E6.62612
G1 X201.49 Y90.595 E6.6436
G1 X202.081 Y91.323 E6.68726
G1 X202.609 Y92.098 E6.73093
G1 X203.105 Y92.989 E6.77841
G1 X203.316 Y93.413 E6.80046
G1 X203.698 Y94.27 E6.84415
G1 X204.005 Y95.156 E6.88782
G1 X204.236 Y96.065 E6.93149
G1 X204.388 Y96.99 E6.97514
G1 X204.466 Y98.093 E7.02663
G1 X204.49 Y99.29 E7.08238
G1 X204.492 Y113.362 E7.73763
G1 X204.485 Y114.115 E7.77269
G1 X204.462 Y114.93 E7.81066
G1 X204.366 Y116.504 E7.88408
G1 X204.238 Y119.101 E8.00516
G1 X204.185 Y121.623 E8.12262
G1 X204.204 Y124.141 E8.23987
G1 X204.294 Y126.623 E8.35552
G1 X204.408 Y128.336 E8.43546
G1 X204.462 Y129.422 E8.48609
G1 X204.49 Y130.785 E8.54957
G1 X204.492 Y144.862 E9.20506
G1 X204.485 Y145.615 E9.24012
G1 X204.465 Y146.336 E9.27371
G1 X204.425 Y146.99 E9.30422
G1 X204.354 Y147.769 E9.34064
G1 X204.259 Y148.577 E9.37852
G1 X204.164 Y149.196 E9.40768
G1 X203.973 Y150.221 E9.45623
G1 X203.875 Y150.681 E9.47813
G1 X203.714 Y151.337 E9.50959
G1 X203.509 Y152.074 E9.54521
G1 X203.276 Y152.839 E9.58244
G1 X203.064 Y153.455 E9.61278
G1 X202.803 Y154.147 E9.64722
G1 X202.52 Y154.848 E9.68242
G1 X202.25 Y155.451 E9.71318
G1 X201.892 Y156.191 E9.75146
G1 X201.551 Y156.857 E9.7863
G1 X201.217 Y157.455 E9.8182
G1 X200.849 Y158.067 E9.85145
G1 X200.421 Y158.743 E9.8887
G1 X200.046 Y159.29 E9.91959
G1 X199.611 Y159.886 E9.95394
G1 X199.152 Y160.487 E9.98916
G1 X198.711 Y161.022 E10.02144
G1 X198.186 Y161.62 E10.05849
G1 X197.658 Y162.193 E10.09478
G1 X197.212 Y162.644 E10.12431
G1 X196.695 Y163.137 E10.15758
G1 X196.11 Y163.669 E10.1944
G1 X195.611 Y164.091 E10.22483
G1 X194.994 Y164.582 E10.26154
G1 X194.37 Y165.054 E10.29797
G1 X193.838 Y165.427 E10.32823
G1 X193.178 Y165.861 E10.36501
G1 X192.523 Y166.269 E10.40094
G1 X191.978 Y166.582 E10.43021
G1 X191.308 Y166.942 E10.46562
G1 X190.593 Y167.303 E10.50292
G1 X190.021 Y167.567 E10.53226
G1 X189.311 Y167.87 E10.5682
G1 X188.598 Y168.155 E10.60396
G1 X187.963 Y168.381 E10.63534
G1 X187.225 Y168.619 E10.67145
G1 X186.452 Y168.847 E10.70897
G1 X185.857 Y169 E10.73758
G1 X185.123 Y169.167 E10.77263
G1 X184.341 Y169.325 E10.80978
G1 X183.712 Y169.428 E10.83946
G1 X182.954 Y169.53 E10.87507
G1 X182.155 Y169.617 E10.9125
G1 X181.51 Y169.665 E10.94262
G1 X180.755 Y169.698 E10.97781
G1 X179.968 Y169.712 E11.01446
G1 X179.34 Y169.702 E11.0437
G1 X178.572 Y169.667 E11.0795
G1 X177.757 Y169.609 E11.11755
G1 X177.108 Y169.539 E11.14794
G1 X176.368 Y169.437 E11.18273
G1 X175.639 Y169.32 E11.21711
G1 X174.949 Y169.183 E11.24986
G1 X174.199 Y169.009 E11.28571
G1 X173.447 Y168.817 E11.32185
G1 X172.816 Y168.632 E11.35247
G1 X172.139 Y168.411 E11.38563
G1 X171.37 Y168.14 E11.4236
G1 X170.744 Y167.893 E11.45494
G1 X169.656 Y167.42 E11.51018
G1 X168.328 Y166.802 E11.57838
G1 X165.951 Y165.721 E11.69997
G1 X163.339 Y164.626 E11.83186
G1 X160.995 Y163.718 E11.9489
G1 X158.591 Y162.864 E12.0677
G1 X156.232 Y162.1 E12.18316
G1 X153.837 Y161.399 E12.29936
G1 X151.384 Y160.755 E12.41745
G1 X148.905 Y160.178 E12.53597
G1 X146.452 Y159.681 E12.65251
G1 X143.965 Y159.249 E12.77005
G1 X141.494 Y158.893 E12.8863
G1 X138.982 Y158.602 E13.00405
G1 X136.487 Y158.384 E13.12067
G1 X133.972 Y158.236 E13.23798
G1 X131.449 Y158.16 E13.35552
G1 X128.925 Y158.154 E13.47305
G1 X126.437 Y158.219 E13.58894
G1 X123.883 Y158.359 E13.70804
G1 X121.393 Y158.565 E13.82438
G1 X118.894 Y158.844 E13.94147
G1 X116.419 Y159.191 E14.05784
G1 X113.911 Y159.616 E14.17629
G1 X111.475 Y160.097 E14.29191
G1 X109.006 Y160.661 E14.40984
G1 X106.544 Y161.297 E14.52825
G1 X104.141 Y161.989 E14.64469
G1 X101.756 Y162.75 E14.76126
G1 X99.353 Y163.593 E14.87984
G1 X97.027 Y164.482 E14.99579
G1 X94.716 Y165.443 E15.11233
G1 X92.577 Y166.4 E15.22144
G1 X90.463 Y167.377 E15.32989
G1 X89.682 Y167.725 E15.3697
G1 X89.164 Y167.943 E15.39587
G1 X88.75 Y168.103 E15.41654
G1 X88.116 Y168.327 E15.44785
G1 X87.199 Y168.625 E15.49274
G1 X86.461 Y168.844 E15.52859
G1 X85.857 Y169 E15.55764
G1 X85.123 Y169.167 E15.59269
G1 X84.341 Y169.325 E15.62984
G1 X83.712 Y169.428 E15.65952
G1 X82.954 Y169.53 E15.69513
G1 X82.155 Y169.617 E15.73255
G1 X81.51 Y169.665 E15.76267
G1 X80.755 Y169.698 E15.79786
G1 X79.968 Y169.712 E15.83451
G1 X79.34 Y169.702 E15.86376
G1 X78.572 Y169.667 E15.89956
G1 X77.757 Y169.609 E15.9376
G1 X77.108 Y169.539 E15.968
G1 X76.368 Y169.437 E16.00278
G1 X75.639 Y169.32 E16.03716
G1 X74.949 Y169.183 E16.06992
G1 X74.199 Y169.009 E16.10577
G1 X73.447 Y168.817 E16.14191
G1 X72.816 Y168.632 E16.17253
G1 X72.139 Y168.411 E16.20569
G1 X71.37 Y168.14 E16.24365
G1 X70.74 Y167.891 E16.2752
G1 X69.78 Y167.473 E16.32395
G1 X69.336 Y167.266 E16.34676
G1 X68.765 Y166.979 E16.37652
G1 X68.11 Y166.626 E16.41117
G1 X67.421 Y166.232 E16.44813
G1 X66.877 Y165.895 E16.47792
G1 X65.939 Y165.268 E16.53046
G1 X65.546 Y164.989 E16.5529
G1 X65.044 Y164.61 E16.58219
G1 X64.475 Y164.155 E16.61612
G1 X63.884 Y163.658 E16.65207
G1 X63.402 Y163.223 E16.68231
G1 X62.82 Y162.665 E16.71985
G1 X62.274 Y162.115 E16.75594
G1 X61.83 Y161.635 E16.78638
G1 X61.346 Y161.079 E16.82071
G1 X60.816 Y160.439 E16.8594
G1 X60.425 Y159.93 E16.88929
G1 X59.831 Y159.102 E16.93674
G1 X59.546 Y158.683 E16.96033
G1 X59.182 Y158.111 E16.9919
G1 X58.811 Y157.486 E17.02575
G1 X58.439 Y156.825 E17.06107
G1 X58.133 Y156.235 E17.09201
G1 X57.794 Y155.528 E17.12852
G1 X57.465 Y154.796 E17.16589
G1 X57.222 Y154.198 E17.19595
G1 X56.967 Y153.515 E17.2299
G1 X56.69 Y152.711 E17.2695
G1 X56.51 Y152.122 E17.29817
G1 X56.322 Y151.44 E17.33112
G1 X56.126 Y150.653 E17.36888
G1 X55.993 Y150.021 E17.39895
G1 X55.851 Y149.23 E17.43637
G1 X55.733 Y148.469 E17.47223
G1 X55.654 Y147.806 E17.50332
G1 X55.568 Y146.775 E17.5515
G1 X55.536 Y146.223 E17.57725
G1 X55.512 Y145.531 E17.60949
G1 X55.517 Y130.824 E18.29431
G1 X55.526 Y130.183 E18.32416
G1 X55.548 Y129.633 E18.34979
G1 X55.605 Y128.737 E18.39159
G1 X55.616 Y128.44 E18.40543
G1 X55.71 Y127.042 E18.47068
G1 X55.811 Y124.483 E18.58993
G1 X55.837 Y121.997 E18.70569
G1 X55.794 Y119.513 E18.82137
G1 X55.522 Y114.372 E19.0611
G1 X55.508 Y113.695 E19.09263
G1 X55.516 Y99.463 E19.75533
G1 X55.533 Y98.48 E19.80111
G1 X55.587 Y97.532 E19.84532
G1 X55.73 Y96.493 E19.89416
G1 X55.937 Y95.579 E19.9378
G1 X56.131 Y94.942 E19.9688
G1 X56.26 Y94.56 E19.98758
G1 X56.598 Y93.685 E20.03125
G1 X57.009 Y92.842 E20.07493
G1 X57.534 Y91.971 E20.12228
G1 X57.749 Y91.649 E20.14031
G1 X58.302 Y90.892 E20.18396
G1 X58.918 Y90.185 E20.22763
G1 X59.604 Y89.523 E20.27202
G1 X59.884 Y89.275 E20.28943
G1 X60.612 Y88.683 E20.33313
G0 F6000 X60.864 Y88.994
G1 F1200 X61.627 Y88.478 E20.37602
G1 X62.489 Y88.002 E20.42187
G1 X62.852 Y87.823 E20.44071
G1 X63.695 Y87.452 E20.4836
G1 X64.566 Y87.156 E20.52644
G1 X65.424 Y86.943 E20.5676
G1 X65.748 Y86.877 E20.583
G1 X66.657 Y86.733 E20.62585
G1 X67.644 Y86.666 E20.67192
G1 X68.75 Y86.643 E20.72343
G1 X191.244 Y86.628 E26.42726
G1 X192.122 Y86.639 E26.46815
G1 X192.86 Y86.675 E26.50255
G1 X193.195 Y86.703 E26.51821
G1 X194.108 Y86.819 E26.56106
G1 X195.008 Y87.015 E26.60395
G1 X195.72 Y87.229 E26.63857
G1 X196.094 Y87.356 E26.65696
G1 X196.952 Y87.69 E26.69983
G1 X197.778 Y88.096 E26.74269
G1 X198.591 Y88.59 E26.78699
G1 X198.913 Y88.806 E26.80504
G1 X199.655 Y89.352 E26.84794
G1 X200.346 Y89.96 E26.8908
G1 X200.941 Y90.579 E26.93078
G1 X201.19 Y90.86 E26.94826
G1 X201.771 Y91.575 E26.99116
G1 X202.286 Y92.337 E27.03399
G1 X202.747 Y93.167 E27.07819
G1 X202.958 Y93.591 E27.10025
G1 X203.332 Y94.433 E27.14315
G1 X203.631 Y95.303 E27.18599
G1 X203.854 Y96.197 E27.22889
G1 X203.999 Y97.106 E27.27175
G1 X204.066 Y98.102 E27.31823
G1 X204.092 Y99.511 E27.38385
G1 X204.092 Y113.359 E28.02867
G1 X204.085 Y114.112 E28.06374
G1 X204.062 Y114.917 E28.10124
G1 X203.964 Y116.523 E28.17616
G1 X203.838 Y119.072 E28.295
G1 X203.785 Y121.618 E28.41357
G1 X203.804 Y124.159 E28.5319
G1 X203.894 Y126.664 E28.64862
G1 X204.016 Y128.484 E28.73355
G1 X204.062 Y129.43 E28.77766
G1 X204.09 Y130.793 E28.84114
G1 X204.092 Y144.859 E29.49611
G1 X204.085 Y145.612 E29.53117
G1 X204.065 Y146.324 E29.56434
G1 X204.026 Y146.954 E29.59373
G1 X203.955 Y147.733 E29.63015
G1 X203.862 Y148.528 E29.66742
G1 X203.771 Y149.125 E29.69554
G1 X203.642 Y149.832 E29.72901
G1 X203.483 Y150.598 E29.76544
G1 X203.328 Y151.23 E29.79574
G1 X203.033 Y152.274 E29.84625
G1 X202.894 Y152.721 E29.86805
G1 X202.69 Y153.314 E29.89725
G1 X202.429 Y154.006 E29.93169
G1 X202.15 Y154.696 E29.96635
G1 X201.89 Y155.277 E29.99599
G1 X201.532 Y156.017 E30.03426
G1 X201.196 Y156.672 E30.06854
G1 X200.874 Y157.248 E30.09927
G1 X200.345 Y158.12 E30.14676
G1 X200.084 Y158.527 E30.16928
G1 X199.723 Y159.054 E30.19902
G1 X199.288 Y159.65 E30.23338
G1 X198.836 Y160.242 E30.26806
G1 X198.411 Y160.758 E30.29919
G1 X197.886 Y161.356 E30.33624
G1 X197.366 Y161.92 E30.37196
G1 X196.936 Y162.354 E30.40041
G1 X196.419 Y162.847 E30.43368
G1 X195.843 Y163.371 E30.46993
G1 X195.361 Y163.778 E30.49931
G1 X194.744 Y164.269 E30.53603
G1 X194.131 Y164.733 E30.57183
G1 X193.618 Y165.093 E30.60101
G1 X192.958 Y165.527 E30.63779
G1 X192.313 Y165.928 E30.67315
G1 X191.789 Y166.229 E30.70129
G1 X191.119 Y166.589 E30.73671
G1 X190.415 Y166.945 E30.77344
G1 X189.864 Y167.199 E30.8017
G1 X189.154 Y167.502 E30.83764
G1 X188.452 Y167.782 E30.87283
G1 X187.84 Y168 E30.90308
G1 X186.774 Y168.339 E30.95517
G1 X186.342 Y168.463 E30.9761
G1 X185.769 Y168.61 E31.00364
G1 X185.035 Y168.777 E31.0387
G1 X184.264 Y168.932 E31.07532
G1 X183.659 Y169.031 E31.10386
G1 X182.901 Y169.133 E31.13948
G1 X182.114 Y169.219 E31.17634
G1 X181.493 Y169.265 E31.20533
G1 X180.738 Y169.298 E31.24052
G1 X179.963 Y169.312 E31.27662
G1 X179.358 Y169.302 E31.30479
G1 X178.59 Y169.267 E31.34059
G1 X177.788 Y169.21 E31.37803
G1 X177.163 Y169.143 E31.4073
G1 X176.423 Y169.041 E31.44208
G1 X175.704 Y168.926 E31.47599
G1 X175.039 Y168.794 E31.50756
G1 X174.289 Y168.62 E31.54341
G1 X173.548 Y168.43 E31.57903
G1 X172.941 Y168.252 E31.60848
G1 X172.264 Y168.031 E31.64164
G1 X171.505 Y167.763 E31.67912
G1 X170.902 Y167.525 E31.70931
G1 X169.825 Y167.058 E31.76397
G1 X168.456 Y166.421 E31.83428
G1 X166.118 Y165.358 E31.95387
G1 X163.477 Y164.251 E32.08721
G1 X161.137 Y163.344 E32.20407
G1 X158.742 Y162.493 E32.32243
G1 X156.362 Y161.723 E32.4389
G1 X153.912 Y161.005 E32.55778
G1 X151.463 Y160.362 E32.67569
G1 X149.01 Y159.791 E32.79296
G1 X146.528 Y159.289 E32.91087
G1 X144.019 Y158.853 E33.02945
G1 X141.56 Y158.498 E33.14514
G1 X139.027 Y158.205 E33.26388
G1 X136.512 Y157.985 E33.38143
G1 X133.972 Y157.836 E33.49991
G1 X131.462 Y157.76 E33.61684
G1 X128.915 Y157.754 E33.73544
G1 X126.405 Y157.82 E33.85235
G1 X123.899 Y157.957 E33.96922
G1 X121.348 Y158.168 E34.08841
G1 X118.836 Y158.448 E34.2061
G1 X116.335 Y158.799 E34.3237
G1 X113.867 Y159.217 E34.44026
G1 X111.38 Y159.708 E34.5583
G1 X108.889 Y160.277 E34.67728
G1 X106.472 Y160.901 E34.79351
G1 X104.024 Y161.607 E34.91215
G1 X101.607 Y162.378 E35.03028
G1 X99.215 Y163.217 E35.14832
G1 X96.91 Y164.099 E35.26323
G1 X94.502 Y165.099 E35.38465
G1 X92.482 Y166.003 E35.48769
G1 X90.295 Y167.014 E35.59989
G1 X89.52 Y167.36 E35.63941
G1 X89.012 Y167.573 E35.66506
G1 X88.613 Y167.728 E35.68499
G1 X87.992 Y167.947 E35.71565
G1 X87.075 Y168.245 E35.76055
G1 X86.35 Y168.46 E35.79576
G1 X85.769 Y168.61 E35.8237
G1 X85.035 Y168.777 E35.85875
G1 X84.264 Y168.932 E35.89537
G1 X83.659 Y169.031 E35.92392
G1 X82.901 Y169.133 E35.95953
G1 X82.114 Y169.219 E35.99639
G1 X81.493 Y169.265 E36.02539
G1 X80.738 Y169.298 E36.06058
G1 X79.963 Y169.312 E36.09667
G1 X79.358 Y169.302 E36.12485
G1 X78.59 Y169.267 E36.16065
G1 X77.788 Y169.21 E36.19809
G1 X77.163 Y169.143 E36.22735
G1 X76.423 Y169.041 E36.26214
G1 X75.704 Y168.926 E36.29604
G1 X75.039 Y168.794 E36.32761
G1 X74.289 Y168.62 E36.36346
G1 X73.548 Y168.43 E36.39908
G1 X72.941 Y168.252 E36.42854
G1 X72.264 Y168.031 E36.4617
G1 X71.505 Y167.763 E36.49918
G1 X70.898 Y167.524 E36.52956
G1 X70.238 Y167.24 E36.56301
G1 X69.505 Y166.903 E36.60058
G1 X68.955 Y166.627 E36.62923
G1 X68.3 Y166.274 E36.66388
G1 X67.622 Y165.886 E36.70025
G1 X67.097 Y165.561 E36.72901
G1 X66.459 Y165.139 E36.76462
G1 X65.778 Y164.662 E36.80334
G1 X65.294 Y164.298 E36.83154
G1 X64.725 Y163.843 E36.86546
G1 X64.143 Y163.354 E36.90086
G1 X63.679 Y162.934 E36.93
G1 X63.097 Y162.376 E36.96755
G1 X62.559 Y161.835 E37.00307
G1 X62.132 Y161.373 E37.03237
G1 X61.648 Y160.817 E37.06669
G1 X61.126 Y160.186 E37.10482
G1 X60.749 Y159.696 E37.13361
G1 X60.161 Y158.877 E37.18056
G1 X59.876 Y158.458 E37.20416
G1 X59.526 Y157.907 E37.23455
G1 X59.155 Y157.282 E37.26839
G1 X58.788 Y156.631 E37.30319
G1 X58.494 Y156.062 E37.33302
G1 X58.155 Y155.355 E37.36953
G1 X57.831 Y154.635 E37.40629
G1 X57.597 Y154.059 E37.43524
G1 X57.342 Y153.376 E37.46919
G1 X57.069 Y152.583 E37.50824
G1 X56.895 Y152.016 E37.53586
G1 X56.707 Y151.334 E37.5688
G1 X56.515 Y150.56 E37.60593
G1 X56.387 Y149.95 E37.63495
G1 X56.245 Y149.159 E37.67237
G1 X56.128 Y148.409 E37.70772
G1 X56.053 Y147.771 E37.73763
G1 X55.968 Y146.751 E37.78529
G1 X55.922 Y145.88 E37.82591
G1 X55.908 Y145.22 E37.85665
G1 X55.917 Y130.829 E38.52675
G1 X55.926 Y130.188 E38.5566
G1 X55.947 Y129.659 E38.58125
G1 X56.014 Y128.611 E38.63015
G1 X56.015 Y128.467 E38.63686
G1 X56.111 Y127.049 E38.70304
G1 X56.211 Y124.503 E38.82168
G1 X56.237 Y121.995 E38.93847
G1 X56.194 Y119.515 E39.05397
G1 X55.993 Y115.628 E39.2352
G1 X55.938 Y114.738 E39.27673
G1 X55.922 Y114.362 E39.29425
G1 X55.908 Y113.695 E39.32531
G1 X55.916 Y99.463 E39.98802
G1 X55.933 Y98.488 E40.03342
G1 X55.985 Y97.567 E40.07638
G1 X56.127 Y96.548 E40.12428
G1 X56.332 Y95.651 E40.16713
G1 X56.51 Y95.07 E40.19542
G1 X56.639 Y94.688 E40.2142
G1 X56.971 Y93.829 E40.25708
G1 X57.377 Y93.002 E40.29998
G1 X57.866 Y92.193 E40.344
G1 X58.081 Y91.871 E40.36203
G1 X58.625 Y91.128 E40.4049
G1 X59.232 Y90.435 E40.4478
G1 X59.869 Y89.822 E40.48897
G1 X60.149 Y89.574 E40.50638
G1 X60.864 Y88.994 E40.54925
G0 F6000 X61.116 Y89.305
G1 F1200 X61.865 Y88.801 E40.59129
G1 X62.666 Y88.361 E40.63385
G1 X63.029 Y88.182 E40.65269
G1 X63.856 Y87.819 E40.69475
G1 X64.712 Y87.53 E40.73682
G1 X65.504 Y87.335 E40.7748
G1 X65.828 Y87.269 E40.79019
G1 X66.72 Y87.128 E40.83224
G1 X67.652 Y87.066 E40.87574
G1 X68.758 Y87.043 E40.92725
G1 X191.244 Y87.028 E46.63071
G1 X192.116 Y87.039 E46.67132
G1 X192.827 Y87.073 E46.70446
G1 X193.162 Y87.101 E46.72012
G1 X194.057 Y87.216 E46.76213
G1 X194.939 Y87.41 E46.80418
G1 X195.592 Y87.608 E46.83596
G1 X195.966 Y87.735 E46.85435
G1 X196.807 Y88.063 E46.89638
G1 X197.616 Y88.464 E46.93843
G1 X198.368 Y88.922 E46.97943
G1 X198.69 Y89.138 E46.99748
G1 X199.417 Y89.674 E47.03954
G1 X200.094 Y90.272 E47.0816
G1 X200.642 Y90.844 E47.11849
G1 X200.891 Y91.125 E47.13597
G1 X201.459 Y91.827 E47.17802
G1 X201.964 Y92.576 E47.22008
G1 X202.389 Y93.346 E47.26103
G1 X202.6 Y93.77 E47.28309
G1 X202.966 Y94.595 E47.32511
G1 X203.258 Y95.45 E47.36718
