;FLAVOR:Marlin
;TIME:1416
;Filament used: 2.51116m
;Layer height: 0.32
;MINX:105.024
;MINY:79.72
;MINZ:0.32
;MAXX:154.977
;MAXY:140.28
;MAXZ:8.64
;POSTPROCESSED
;Generated with Cura_SteamEngine 5.3.1
;
;

M82 ;absolute extrusion mode


; Pre-Processed for Cancel-Object support by preprocess_cancellation v0.2.0
; 4 known objects
EXCLUDE_OBJECT_DEFINE NAME=connector_positive_stl_1 CENTER=137.995,91.457 POLYGON=[[124.115,82.95],[124.115,99.65],[151.678,99.65],[151.678,82.95]]
EXCLUDE_OBJECT_DEFINE NAME=connector_positive_stl CENTER=137.880,109.991 POLYGON=[[124.129,101.65],[124.129,118.35],[151.692,118.35],[151.692,101.65]]
EXCLUDE_OBJECT_DEFINE NAME=connector_positive_stl_2 CENTER=138.120,128.642 POLYGON=[[124.115,120.35],[124.115,137.05],[151.678,137.05],[151.678,120.35]]
EXCLUDE_OBJECT_DEFINE NAME=connector_positive_stl_3 CENTER=116.583,119.485 POLYGON=[[108.254,105.569],[108.254,133.131],[124.954,133.131],[124.954,105.569]]
START_PRINT EXTRUDER_TEMP=205 BED_TEMP=55 RELATIVE_E_MODE=False PROBE=alse PROBE_AREA_START=%MINX%,%MINY% PROBE_AREA_END=%MAXX%,%MAXY%
G92 E0
G92 E0
G1 F1800 E-0.5
;LAYER_COUNT:27
;LAYER:0
M107
G0 F6000 X122.46 Y89.632 Z0.32
;TYPE:SKIRT
G1 F1800 E0
G1 F900 X122.889 Y89.187 E0.04112
G1 X130.078 Y81.998 E0.71741
G1 X130.614 Y81.477 E0.76714
G1 X130.944 Y81.211 E0.79533
G1 X131.319 Y81.012 E0.82357
G1 X131.584 Y80.902 E0.84266
G1 X131.989 Y80.777 E0.87085
G1 X132.41 Y80.73 E0.89903
G1 X133.023 Y80.72 E0.93981
G1 X142.669 Y80.72 E1.58147
G1 X143.376 Y80.73 E1.6285
G1 X143.797 Y80.776 E1.65668
G1 X144.202 Y80.9 E1.68485
G1 X144.471 Y81.011 E1.70421
G1 X144.846 Y81.209 E1.73242
G1 X145.181 Y81.477 E1.76095
G1 X145.589 Y81.874 E1.79882
G1 X152.806 Y89.089 E2.47766
G1 X153.324 Y89.621 E2.52705
G1 X153.59 Y89.951 E2.55525
G1 X153.789 Y90.326 E2.58349
G1 X153.914 Y90.73 E2.61162
G1 X153.962 Y91.191 E2.64245
G1 X153.956 Y91.561 E2.66707
G1 X153.899 Y92.372 E2.72115
G1 X153.78 Y93.786 E2.81554
G1 X153.628 Y96.503 E2.99656
G1 X153.552 Y99.273 E3.18089
G1 X153.554 Y102.045 E3.36528
G1 X153.634 Y104.809 E3.54922
G1 X153.793 Y107.573 E3.73339
G1 X153.977 Y109.814 E3.88296
G1 X153.97 Y110.263 E3.91283
G1 X153.926 Y110.887 E3.95444
G1 X153.784 Y112.562 E4.06627
G1 X153.63 Y115.28 E4.24736
G1 X153.552 Y118.052 E4.43182
G1 X153.552 Y120.822 E4.61609
G1 X153.63 Y123.595 E4.80062
G1 X153.785 Y126.319 E4.98211
G1 X153.955 Y128.404 E5.12127
G1 X153.962 Y128.808 E5.14815
G1 X153.922 Y129.23 E5.17634
G1 X153.804 Y129.637 E5.20453
G1 X153.611 Y130.014 E5.23271
G1 X153.334 Y130.368 E5.26261
G1 X152.924 Y130.793 E5.30189
G1 X145.719 Y137.998 E5.97969
G1 X145.182 Y138.52 E6.02951
G1 X144.852 Y138.786 E6.0577
G1 X144.484 Y138.982 E6.08544
G1 X144.217 Y139.094 E6.1047
G1 X143.813 Y139.22 E6.13285
G1 X143.388 Y139.269 E6.16131
G1 X142.78 Y139.28 E6.20176
G1 X133.122 Y139.28 E6.84421
G1 X132.419 Y139.27 E6.89098
G1 X131.795 Y139.172 E6.933
G1 X131.19 Y138.988 E6.97506
G1 X129.669 Y138.498 E7.08136
G1 X127.052 Y137.737 E7.26266
G1 X124.369 Y137.038 E7.44709
G1 X121.683 Y136.418 E7.63046
G1 X118.959 Y135.871 E7.81528
G1 X116.116 Y135.384 E8.00715
G1 X115.707 Y135.273 E8.03534
G1 X115.326 Y135.088 E8.06351
G1 X114.936 Y134.787 E8.09628
G1 X114.507 Y134.374 E8.1359
G1 X107.276 Y127.145 E8.81605
G1 X106.784 Y126.639 E8.863
G1 X106.518 Y126.308 E8.89125
G1 X106.319 Y125.933 E8.91948
G1 X106.206 Y125.661 E8.93908
G1 X106.081 Y125.256 E8.96727
G1 X106.034 Y124.839 E8.99519
G1 X106.024 Y124.291 E9.03165
G1 X106.024 Y114.573 E9.67809
G1 X106.035 Y113.867 E9.72506
G1 X106.082 Y113.446 E9.75324
G1 X106.205 Y113.044 E9.7812
G1 X106.316 Y112.775 E9.80056
G1 X106.514 Y112.4 E9.82877
G1 X106.723 Y112.129 E9.85153
G1 X108.661 Y109.972 E10.04443
G1 X110.497 Y107.809 E10.23315
G1 X112.178 Y105.71 E10.41204
G1 X113.87 Y103.469 E10.59883
G1 X115.466 Y101.228 E10.78184
G1 X117.009 Y98.927 E10.96613
G1 X118.488 Y96.577 E11.15084
G1 X119.885 Y94.213 E11.3335
G1 X121.226 Y91.792 E11.5176
G1 X121.903 Y90.487 E11.61539
G1 X122.103 Y90.119 E11.64325
G1 X122.46 Y89.632 E11.68342
G0 F6000 X121.7 Y89.823
G1 F900 X122.1 Y89.285 E11.72802
G1 X122.535 Y88.833 E11.76975
G1 X129.729 Y81.639 E12.44651
G1 X130.265 Y81.118 E12.49624
G1 X130.668 Y80.791 E12.53076
G1 X131.127 Y80.55 E12.56525
G1 X131.392 Y80.44 E12.58433
G1 X131.886 Y80.285 E12.61877
G1 X132.402 Y80.23 E12.65329
G1 X133.015 Y80.22 E12.69407
G1 X142.676 Y80.22 E13.33673
G1 X143.383 Y80.23 E13.38376
G1 X143.898 Y80.284 E13.41821
G1 X144.393 Y80.438 E13.45269
G1 X144.662 Y80.549 E13.47205
G1 X145.12 Y80.789 E13.50644
G1 X145.53 Y81.119 E13.54145
G1 X145.943 Y81.52 E13.57975
G1 X153.164 Y88.74 E14.25901
G1 X153.682 Y89.272 E14.3084
G1 X154.009 Y89.674 E14.34287
G1 X154.254 Y90.134 E14.37754
G1 X154.406 Y90.628 E14.41192
G1 X154.462 Y91.199 E14.45009
G1 X154.455 Y91.596 E14.4765
G1 X154.397 Y92.414 E14.53105
G1 X154.278 Y93.828 E14.62544
G1 X154.128 Y96.517 E14.80459
G1 X154.052 Y99.287 E14.98892
G1 X154.054 Y102.045 E15.17239
G1 X154.134 Y104.795 E15.35539
G1 X154.291 Y107.532 E15.53776
G1 X154.477 Y109.822 E15.69059
G1 X154.469 Y110.298 E15.72226
G1 X154.424 Y110.929 E15.76434
G1 X154.282 Y112.604 E15.87616
G1 X154.13 Y115.294 E16.05539
G1 X154.052 Y118.066 E16.23985
G1 X154.052 Y120.822 E16.42318
G1 X154.13 Y123.581 E16.60679
G1 X154.283 Y126.278 E16.78648
G1 X154.455 Y128.395 E16.92777
G1 X154.46 Y128.855 E16.95837
G1 X154.416 Y129.321 E16.98951
G1 X154.27 Y129.824 E17.02435
G1 X154.034 Y130.285 E17.0588
G1 X153.728 Y130.676 E17.09182
G1 X153.278 Y131.147 E17.13516
G1 X146.068 Y138.357 E17.81343
G1 X145.531 Y138.879 E17.86325
G1 X145.129 Y139.205 E17.89768
G1 X144.677 Y139.443 E17.93166
G1 X144.366 Y139.571 E17.95403
G1 X143.914 Y139.712 E17.98552
G1 X143.445 Y139.766 E18.01693
G1 X142.789 Y139.78 E18.06057
G1 X133.115 Y139.78 E18.70409
G1 X132.341 Y139.764 E18.75559
G1 X131.717 Y139.666 E18.79761
G1 X131.037 Y139.464 E18.84479
G1 X129.523 Y138.976 E18.95061
G1 X126.926 Y138.221 E19.13051
G1 X124.243 Y137.522 E19.31495
G1 X121.577 Y136.906 E19.49696
G1 X118.875 Y136.364 E19.68028
G1 X115.985 Y135.867 E19.87534
G1 X115.533 Y135.744 E19.90651
G1 X115.061 Y135.515 E19.9414
G1 X114.589 Y135.147 E19.98122
G1 X114.153 Y134.728 E20.02144
G1 X106.918 Y127.494 E20.70202
G1 X106.394 Y126.952 E20.75217
G1 X106.098 Y126.583 E20.78363
G1 X105.857 Y126.125 E20.81806
G1 X105.744 Y125.853 E20.83765
G1 X105.589 Y125.359 E20.87209
G1 X105.537 Y124.895 E20.90315
G1 X105.524 Y124.3 E20.94274
G1 X105.524 Y114.565 E21.59032
G1 X105.538 Y113.812 E21.64041
G1 X105.59 Y113.344 E21.67174
G1 X105.743 Y112.853 E21.70595
G1 X105.854 Y112.584 E21.72531
G1 X106.092 Y112.128 E21.75952
G1 X106.351 Y111.795 E21.78758
G1 X108.28 Y109.648 E21.97958
G1 X110.116 Y107.485 E22.16831
G1 X111.788 Y105.397 E22.34625
G1 X113.471 Y103.168 E22.53204
G1 X115.059 Y100.938 E22.71415
G1 X116.594 Y98.649 E22.89748
G1 X118.065 Y96.311 E23.08123
G1 X119.455 Y93.959 E23.26296
G1 X120.787 Y91.553 E23.4459
G1 X121.464 Y90.248 E23.54369
G1 X121.7 Y89.823 E23.57603
G0 F6000 X121.263 Y89.58
G1 F900 X121.74 Y88.938 E23.62924
G1 X122.181 Y88.479 E23.67158
G1 X129.38 Y81.28 E24.34882
G1 X129.916 Y80.759 E24.39854
G1 X130.393 Y80.37 E24.43948
G1 X130.935 Y80.088 E24.48012
G1 X131.2 Y79.978 E24.49921
G1 X131.783 Y79.793 E24.5399
G1 X132.394 Y79.73 E24.58076
G1 X133.007 Y79.72 E24.62154
G1 X142.683 Y79.72 E25.26519
G1 X143.39 Y79.73 E25.31222
G1 X143.999 Y79.792 E25.35294
G1 X144.584 Y79.976 E25.39374
G1 X144.894 Y80.106 E25.4161
G1 X145.398 Y80.37 E25.45395
G1 X145.844 Y80.729 E25.49203
G1 X146.297 Y81.166 E25.5339
G1 X153.522 Y88.391 E26.21358
G1 X154.07 Y88.956 E26.26594
G1 X154.426 Y89.393 E26.30344
G1 X154.719 Y89.943 E26.34489
G1 X154.899 Y90.531 E26.3858
G1 X154.96 Y91.15 E26.42717
G1 X154.954 Y91.631 E26.45917
G1 X154.895 Y92.456 E26.51419
G1 X154.776 Y93.87 E26.60858
G1 X154.628 Y96.531 E26.78587
G1 X154.552 Y99.301 E26.9702
G1 X154.554 Y102.045 E27.15273
G1 X154.634 Y104.78 E27.33474
G1 X154.789 Y107.492 E27.51544
G1 X154.977 Y109.83 E27.67146
G1 X154.968 Y110.334 E27.70499
G1 X154.922 Y110.971 E27.74748
G1 X154.78 Y112.646 E27.8593
G1 X154.63 Y115.308 E28.03666
G1 X154.552 Y118.08 E28.22112
G1 X154.552 Y120.822 E28.40352
G1 X154.63 Y123.567 E28.58619
G1 X154.781 Y126.238 E28.76415
G1 X154.955 Y128.39 E28.90777
G1 X154.958 Y128.902 E28.94183
G1 X154.91 Y129.412 E28.97591
G1 X154.736 Y130.011 E29.0174
G1 X154.457 Y130.557 E29.05819
G1 X154.09 Y131.021 E29.09754
G1 X153.632 Y131.501 E29.14167
G1 X146.417 Y138.716 E29.82042
G1 X145.88 Y139.238 E29.87023
G1 X145.406 Y139.624 E29.9109
G1 X144.867 Y139.905 E29.95133
G1 X144.515 Y140.048 E29.9766
G1 X144.014 Y140.204 E30.01151
G1 X143.456 Y140.266 E30.04886
G1 X142.8 Y140.28 E30.0925
G1 X133.105 Y140.28 E30.73742
G1 X132.263 Y140.258 E30.79345
G1 X131.639 Y140.16 E30.83546
G1 X130.884 Y139.94 E30.88777
G1 X129.377 Y139.454 E30.99311
G1 X126.8 Y138.705 E31.17162
G1 X124.117 Y138.006 E31.35605
G1 X121.464 Y137.393 E31.53718
G1 X118.79 Y136.857 E31.71859
G1 X115.9 Y136.36 E31.91366
G1 X115.355 Y136.213 E31.95121
G1 X114.797 Y135.943 E31.99244
G1 X114.243 Y135.508 E32.0393
G1 X113.799 Y135.082 E32.08023
G1 X106.559 Y127.842 E32.76133
G1 X106.004 Y127.265 E32.81458
G1 X105.679 Y126.86 E32.84912
G1 X105.395 Y126.317 E32.88989
G1 X105.282 Y126.045 E32.90948
G1 X105.097 Y125.462 E32.95017
G1 X105.037 Y124.906 E32.98737
G1 X105.024 Y124.311 E33.02696
G1 X105.024 Y114.556 E33.67586
G1 X105.038 Y113.803 E33.72596
G1 X105.098 Y113.243 E33.76342
G1 X105.281 Y112.662 E33.80394
G1 X105.392 Y112.393 E33.8233
G1 X105.671 Y111.854 E33.86367
G1 X105.956 Y111.488 E33.89453
G1 X107.899 Y109.324 E34.08799
G1 X109.735 Y107.161 E34.27672
G1 X111.398 Y105.084 E34.45371
G1 X113.072 Y102.867 E34.63851
G1 X114.652 Y100.648 E34.81971
G1 X116.179 Y98.371 E35.00208
G1 X117.642 Y96.045 E35.18487
G1 X119.025 Y93.705 E35.36568
G1 X120.343 Y91.323 E35.54677
G1 X121.027 Y90.005 E35.64555
G1 X121.263 Y89.58 E35.67789
G1 F1800 E35.17789
;MESH:connector-positive.stl(1)
EXCLUDE_OBJECT_START NAME=connector_positive_stl_1
G0 F6000 X123.78 Y90.538
G0 X124.544 Y91.3
G0 X125.728 Y91.3
;TYPE:WALL-INNER
G1 F1800 E35.67789
G1 F900 X132.809 Y98.38 E36.34398
G1 X142.986 Y98.38 E37.02095
G1 X150.066 Y91.301 E37.68695
G1 X142.984 Y84.221 E38.35309
G1 X132.806 Y84.22 E39.03013
G1 X125.728 Y91.3 E39.69608
G0 F6000 X125.02 Y91.3
G1 F900 X132.602 Y98.88 E40.40925
G1 X143.194 Y98.88 E41.11384
G1 X150.773 Y91.301 E41.82682
G1 X143.191 Y83.721 E42.53999
G1 X132.599 Y83.72 E43.24458
G1 X125.02 Y91.3 E43.95761
G0 F6000 X124.313 Y91.3
;TYPE:WALL-OUTER
G1 F900 X132.321 Y99.305 E44.71081
G1 X132.498 Y99.38 E44.7236
G1 X143.292 Y99.38 E45.44162
G1 X143.476 Y99.304 E45.45486
G1 X151.48 Y91.3 E46.20783
G1 X143.473 Y83.295 E46.96099
G1 X143.294 Y83.22 E46.9739
G1 X132.495 Y83.22 E47.69225
G1 X132.319 Y83.293 E47.70492
G1 X124.313 Y91.3 E48.45813
G0 F6000 X125.19 Y91.3
G0 X126.132 Y91.052
G0 X126.379 Y91.3
;TYPE:SKIN
G1 F900 X132.998 Y84.68 E49.08085
G1 X142.792 Y84.682 E49.73235
G1 X149.414 Y91.302 E50.35521
G1 X142.795 Y97.92 E50.97784
G1 X133.001 Y97.92 E51.62934
G1 X126.379 Y91.3 E52.2522
G0 F6000 X126.132 Y91.052
G0 X125.984 Y91.3
G0 X132.881 Y98.206
G0 X133.732 Y98.27
G0 X133.732 Y97.669
G1 F900 X127.046 Y90.984 E52.88113
G0 F6000 X127.4 Y90.63
G1 F900 X134.439 Y97.669 E53.54332
G0 F6000 X135.146 Y97.669
G1 F900 X127.753 Y90.277 E54.23876
G0 F6000 X128.107 Y89.923
G1 F900 X135.853 Y97.669 E54.96745
G0 F6000 X136.56 Y97.669
G1 F900 X128.46 Y89.569 E55.72945
G0 F6000 X128.814 Y89.216
G1 F900 X137.267 Y97.669 E56.52466
G0 F6000 X137.974 Y97.669
G1 F900 X129.167 Y88.862 E57.35317
G0 F6000 X129.521 Y88.509
G1 F900 X138.682 Y97.669 E58.21493
G0 F6000 X139.389 Y97.669
G1 F900 X129.875 Y88.155 E59.10995
G0 F6000 X130.228 Y87.802
G1 F900 X140.096 Y97.669 E60.03822
G0 F6000 X140.803 Y97.669
G1 F900 X130.582 Y87.448 E60.99975
G0 F6000 X130.935 Y87.095
G1 F900 X141.51 Y97.669 E61.99454
G0 F6000 X142.217 Y97.669
G1 F900 X131.289 Y86.741 E63.02258
G0 F6000 X131.642 Y86.387
G1 F900 X142.807 Y97.552 E64.07291
G0 F6000 X143.16 Y97.198
G1 F900 X131.996 Y86.034 E65.12315
G0 F6000 X132.349 Y85.68
G1 F900 X143.514 Y96.845 E66.17349
G0 F6000 X143.867 Y96.491
G1 F900 X132.703 Y85.327 E67.22373
G0 F6000 X133.056 Y84.973
G1 F900 X144.221 Y96.138 E68.27406
G0 F6000 X144.575 Y95.784
G1 F900 X133.72 Y84.93 E69.29519
G0 F6000 X134.428 Y84.93
G1 F900 X144.928 Y95.431 E70.28301
G0 F6000 X145.282 Y95.077
G1 F900 X135.135 Y84.93 E71.23758
G0 F6000 X135.842 Y84.93
G1 F900 X145.635 Y94.724 E72.15889
G0 F6000 X145.989 Y94.37
G1 F900 X136.55 Y84.931 E73.04685
G0 F6000 X137.257 Y84.931
G1 F900 X146.342 Y94.016 E73.90151
G0 F6000 X146.696 Y93.663
G1 F900 X137.964 Y84.931 E74.72297
G0 F6000 X138.671 Y84.931
G1 F900 X147.049 Y93.309 E75.51112
G0 F6000 X147.403 Y92.956
G1 F900 X139.378 Y84.931 E76.26606
G0 F6000 X140.086 Y84.932
G1 F900 X147.757 Y92.602 E76.98765
G0 F6000 X148.11 Y92.249
G1 F900 X140.793 Y84.932 E77.67599
G0 F6000 X141.5 Y84.932
G1 F900 X148.464 Y91.895 E78.33108
G0 F6000 X148.817 Y91.542
G1 F900 X142.207 Y84.932 E78.9529
G0 F6000 X142.208 Y84.27
G1 F1800 E78.4529
;MESH:connector-positive.stl
EXCLUDE_OBJECT_END NAME=connector_positive_stl_1
EXCLUDE_OBJECT_START NAME=connector_positive_stl
G0 F6000 X132.878 Y84.394
G0 X125.984 Y91.3
G0 X132.413 Y99.161
G0 X132.425 Y102.139
G0 X125.742 Y110
;TYPE:WALL-INNER
G1 F1800 E78.9529
G1 F900 X132.823 Y117.08 E79.61899
G1 X143.001 Y117.08 E80.29604
G1 X150.08 Y110.001 E80.96199
G1 X142.998 Y102.922 E81.62808
G1 X132.821 Y102.92 E82.30505
G1 X125.742 Y110 E82.97105
G0 F6000 X125.034 Y110
G1 F900 X132.616 Y117.58 E83.68422
G1 X143.208 Y117.58 E84.38881
G1 X150.787 Y110.001 E85.10179
G1 X143.204 Y102.422 E85.81497
G1 X132.613 Y102.42 E86.51948
G1 X125.034 Y110 E87.23251
G0 F6000 X124.327 Y110
;TYPE:WALL-OUTER
G1 F900 X132.334 Y118.005 E87.98567
G1 X132.513 Y118.08 E87.99858
G1 X143.312 Y118.08 E88.71693
G1 X143.488 Y118.007 E88.72961
G1 X151.494 Y110 E89.48281
G1 X143.486 Y101.995 E90.23601
G1 X143.309 Y101.921 E90.24877
G1 X132.515 Y101.92 E90.96679
G1 X132.331 Y101.996 E90.98004
G1 X124.327 Y110 E91.733
G0 F6000 X125.204 Y110
G0 X126.146 Y109.752
G0 X126.393 Y110
;TYPE:SKIN
G1 F900 X133.012 Y103.38 E92.35573
G1 X142.806 Y103.383 E93.00723
G1 X149.428 Y110.002 E93.63004
G1 X142.809 Y116.62 E94.25267
G1 X133.015 Y116.62 E94.90417
G1 X126.393 Y110 E95.52703
G0 F6000 X126.146 Y109.752
G0 X125.998 Y110
G0 X132.895 Y116.906
G0 X133.34 Y116.97
G0 X133.34 Y116.369
G1 F900 X126.857 Y109.887 E96.13687
G0 F6000 X127.211 Y109.533
G1 F900 X134.047 Y116.369 E96.77995
G0 F6000 X134.754 Y116.369
G1 F900 X127.564 Y109.18 E97.4563
G0 F6000 X127.918 Y108.826
G1 F900 X135.461 Y116.369 E98.1659
G0 F6000 X136.168 Y116.369
G1 F900 X128.271 Y108.473 E98.90875
G0 F6000 X128.625 Y108.119
G1 F900 X136.876 Y116.369 E99.68491
G0 F6000 X137.583 Y116.369
G1 F900 X128.979 Y107.765 E100.49432
G0 F6000 X129.332 Y107.412
G1 F900 X138.29 Y116.369 E101.33699
G0 F6000 X138.997 Y116.369
G1 F900 X129.686 Y107.058 E102.21291
G0 F6000 X130.039 Y106.705
G1 F900 X139.704 Y116.369 E103.12209
G0 F6000 X140.411 Y116.369
G1 F900 X130.393 Y106.351 E104.06452
G0 F6000 X130.746 Y105.998
G1 F900 X141.118 Y116.369 E105.0402
G0 F6000 X141.825 Y116.369
G1 F900 X131.1 Y105.644 E106.04915
G0 F6000 X131.453 Y105.291
G1 F900 X142.532 Y116.369 E107.09134
G0 F6000 X142.972 Y116.101
G1 F900 X131.807 Y104.937 E108.14163
G0 F6000 X132.161 Y104.583
G1 F900 X143.325 Y115.748 E109.19192
G0 F6000 X143.679 Y115.394
G1 F900 X132.514 Y104.23 E110.24221
G0 F6000 X132.868 Y103.876
G1 F900 X144.032 Y115.041 E111.29249
G0 F6000 X144.386 Y114.687
G1 F900 X133.329 Y103.63 E112.33267
G0 F6000 X134.036 Y103.63
G1 F900 X144.739 Y114.334 E113.33959
G0 F6000 X145.093 Y113.98
G1 F900 X134.743 Y103.63 E114.31325
G0 F6000 X135.45 Y103.63
G1 F900 X145.446 Y113.627 E115.25366
G0 F6000 X145.8 Y113.273
G1 F900 X136.158 Y103.631 E116.16072
G0 F6000 X136.865 Y103.631
G1 F900 X146.154 Y112.92 E117.03458
G0 F6000 X146.507 Y112.566
G1 F900 X137.572 Y103.631 E117.87513
G0 F6000 X138.28 Y103.632
G1 F900 X146.861 Y112.212 E118.68233
