;FLAVOR:Marlin
;TIME:3829
;Filament used: 2.59735m
;Layer height: 0.12
;MINX:109.004
;MINY:89.014
;MINZ:0.12
;MAXX:150.997
;MAXY:170.985
;MAXZ:18.48
;POSTPROCESSED
;Generated with Cura_SteamEngine 5.2.1
;
;

M82 ;absolute extrusion mode
START_PRINT EXTRUDER_TEMP=220.0 BED_TEMP=60 RELATIVE_E_MODE=False PROBE=false PROBE_AREA_START=%MINX%,%MINY% PROBE_AREA_END=%MAXX%,%MAXY%
G92 E0
G92 E0
G1 F1500 E-6.5
;LAYER_COUNT:154
;LAYER:0
M107
G0 F6000 X114 Y96.413 Z0.12
;TYPE:SKIRT
G1 F1500 E0
G1 F1200 X114.332 Y96.032 E0.01008
G1 X114.648 Y95.685 E0.01945
G1 X115.003 Y95.313 E0.02971
G1 X115.332 Y94.984 E0.039
G1 X115.733 Y94.603 E0.05004
G1 X116.427 Y93.99 E0.06851
G1 X116.919 Y93.594 E0.08112
G1 X117.648 Y93.036 E0.09944
G1 X118.307 Y92.569 E0.11556
G1 X118.736 Y92.288 E0.12579
G1 X119.24 Y91.977 E0.13761
G1 X119.519 Y91.815 E0.14405
G1 X120.041 Y91.531 E0.15591
G1 X120.903 Y91.091 E0.17522
G1 X121.673 Y90.734 E0.19216
G1 X122.201 Y90.514 E0.20357
G1 X122.754 Y90.301 E0.2154
G1 X123.205 Y90.141 E0.22495
G1 X123.886 Y89.924 E0.23921
G1 X124.663 Y89.704 E0.25533
G1 X125.39 Y89.525 E0.27027
G1 X125.959 Y89.405 E0.28187
G1 X126.645 Y89.283 E0.29578
G1 X127.174 Y89.206 E0.30645
G1 X127.667 Y89.145 E0.31636
G1 X128.349 Y89.077 E0.33004
G1 X129.074 Y89.029 E0.34454
G1 X129.524 Y89.014 E0.35352
G1 X130.426 Y89.014 E0.37152
G1 X131.013 Y89.037 E0.38325
G1 X131.633 Y89.078 E0.39565
G1 X132.158 Y89.125 E0.40616
G1 X132.787 Y89.197 E0.4188
G1 X133.456 Y89.295 E0.43229
G1 X133.879 Y89.37 E0.44087
G1 X134.358 Y89.466 E0.45061
G1 X134.801 Y89.565 E0.45967
G1 X135.327 Y89.696 E0.47049
G1 X136.145 Y89.933 E0.48749
G1 X136.984 Y90.213 E0.50514
G1 X137.596 Y90.437 E0.51814
G1 X138.117 Y90.643 E0.52932
G1 X138.692 Y90.894 E0.54184
G1 X139.1 Y91.084 E0.55082
G1 X139.6 Y91.333 E0.56197
G1 X139.944 Y91.515 E0.56974
G1 X140.431 Y91.788 E0.58088
G1 X140.916 Y92.077 E0.59215
G1 X141.582 Y92.497 E0.60786
G1 X142.125 Y92.864 E0.62094
G1 X142.522 Y93.154 E0.63075
G1 X142.964 Y93.492 E0.64185
G1 X143.407 Y93.85 E0.65322
G1 X143.654 Y94.06 E0.65969
G1 X144.075 Y94.436 E0.67095
G1 X144.739 Y95.062 E0.68917
G1 X145.293 Y95.624 E0.70491
G1 X145.621 Y95.981 E0.71459
G1 X146.01 Y96.427 E0.7264
G1 X146.406 Y96.919 E0.739
G1 X146.964 Y97.648 E0.75732
G1 X147.431 Y98.307 E0.77344
G1 X147.712 Y98.736 E0.78368
G1 X148.012 Y99.22 E0.79504
G1 X148.257 Y99.64 E0.80474
G1 X148.542 Y100.161 E0.81659
G1 X148.796 Y100.656 E0.8277
G1 X149.037 Y101.158 E0.83881
G1 X149.243 Y101.615 E0.84881
G1 X149.451 Y102.106 E0.85945
G1 X149.612 Y102.515 E0.86823
G1 X149.905 Y103.339 E0.88568
G1 X150.106 Y103.994 E0.89935
G1 X150.377 Y104.987 E0.91989
G1 X150.559 Y105.762 E0.93578
G1 X150.627 Y106.108 E0.94282
G1 X150.721 Y106.662 E0.95403
G1 X150.797 Y107.19 E0.96467
G1 X150.855 Y107.669 E0.9743
G1 X150.923 Y108.353 E0.98802
G1 X150.97 Y109.063 E1.00222
G1 X150.994 Y109.934 E1.01961
G1 X150.997 Y149.553 E1.81025
G1 X150.986 Y150.436 E1.82787
G1 X150.963 Y151.011 E1.83936
G1 X150.922 Y151.632 E1.85178
G1 X150.848 Y152.374 E1.86666
G1 X150.758 Y153.043 E1.88013
G1 X150.678 Y153.548 E1.89033
G1 X150.549 Y154.256 E1.90469
G1 X150.37 Y155.063 E1.92119
G1 X150.264 Y155.469 E1.92956
G1 X150.077 Y156.108 E1.94285
G1 X149.875 Y156.726 E1.95582
G1 X149.711 Y157.19 E1.96564
G1 X149.456 Y157.866 E1.98006
G1 X149.134 Y158.631 E1.99663
G1 X148.914 Y159.103 E2.00702
G1 X148.52 Y159.878 E2.02437
G1 X148.224 Y160.403 E2.0364
G1 X147.804 Y161.103 E2.05269
G1 X147.36 Y161.785 E2.06893
G1 X147.051 Y162.223 E2.07962
G1 X146.547 Y162.897 E2.09642
G1 X146.255 Y163.265 E2.10579
G1 X145.827 Y163.78 E2.11916
G1 X145.214 Y164.458 E2.1374
G1 X144.645 Y165.026 E2.15344
G1 X144.074 Y165.566 E2.16913
G1 X143.443 Y166.119 E2.18587
G1 X142.957 Y166.513 E2.19835
G1 X142.418 Y166.923 E2.21187
G1 X141.996 Y167.224 E2.22221
G1 X141.6 Y167.494 E2.23178
G1 X141.229 Y167.735 E2.24061
G1 X140.76 Y168.023 E2.25159
G1 X140.481 Y168.185 E2.25803
G1 X139.959 Y168.469 E2.26989
G1 X139.097 Y168.909 E2.2892
G1 X138.336 Y169.262 E2.30594
G1 X137.807 Y169.483 E2.31738
G1 X137.188 Y169.72 E2.33061
G1 X136.6 Y169.925 E2.34304
G1 X136.04 Y170.103 E2.35476
G1 X135.203 Y170.336 E2.3721
G1 X134.737 Y170.45 E2.38167
G1 X134.209 Y170.565 E2.39246
G1 X133.857 Y170.633 E2.39961
G1 X133.335 Y170.721 E2.41018
G1 X132.431 Y170.845 E2.42839
G1 X131.962 Y170.896 E2.4378
G1 X131.206 Y170.956 E2.45294
G1 X130.439 Y170.985 E2.46825
G1 X129.846 Y170.985 E2.48009
G1 X128.954 Y170.96 E2.49789
G1 X128.198 Y170.912 E2.51301
G1 X127.735 Y170.867 E2.52229
G1 X127.128 Y170.791 E2.5345
G1 X126.256 Y170.648 E2.55214
G1 X125.477 Y170.495 E2.56798
G1 X124.643 Y170.297 E2.58509
G1 X123.882 Y170.073 E2.60092
G1 X123.263 Y169.87 E2.61392
G1 X122.817 Y169.713 E2.62335
G1 X122.142 Y169.459 E2.63774
G1 X121.369 Y169.134 E2.65448
G1 X120.897 Y168.914 E2.66487
G1 X120.122 Y168.52 E2.68222
G1 X119.593 Y168.222 E2.69434
G1 X118.892 Y167.801 E2.71066
G1 X118.218 Y167.362 E2.72671
G1 X117.781 Y167.054 E2.73738
G1 X117.095 Y166.541 E2.75447
G1 X116.727 Y166.248 E2.76386
G1 X116.216 Y165.823 E2.77712
G1 X115.541 Y165.213 E2.79528
G1 X114.974 Y164.646 E2.81128
G1 X114.433 Y164.074 E2.82699
G1 X113.844 Y163.398 E2.84488
G1 X113.398 Y162.842 E2.85911
G1 X113.007 Y162.324 E2.87206
G1 X112.758 Y161.973 E2.88065
G1 X112.254 Y161.212 E2.89886
G1 X111.812 Y160.475 E2.91601
G1 X111.53 Y159.957 E2.92778
G1 X111.091 Y159.097 E2.94705
G1 X110.734 Y158.327 E2.96399
G1 X110.514 Y157.799 E2.9754
G1 X110.283 Y157.194 E2.98833
G1 X110.077 Y156.604 E3.0008
G1 X109.894 Y156.032 E3.01278
G1 X109.781 Y155.641 E3.02091
G1 X109.55 Y154.732 E3.03962
G1 X109.439 Y154.228 E3.04992
G1 X109.37 Y153.874 E3.05712
G1 X109.279 Y153.334 E3.06805
G1 X109.203 Y152.805 E3.07871
G1 X109.145 Y152.332 E3.08822
G1 X109.077 Y151.65 E3.1019
G1 X109.029 Y150.937 E3.11616
G1 X109.006 Y150.065 E3.13357
G1 X109.004 Y110.287 E3.92738
G1 X109.016 Y109.452 E3.94405
G1 X109.037 Y108.92 E3.95467
G1 X109.067 Y108.443 E3.96421
G1 X109.109 Y107.951 E3.97406
G1 X109.207 Y107.137 E3.99042
G1 X109.272 Y106.712 E3.999
G1 X109.442 Y105.777 E4.01797
G1 X109.65 Y104.879 E4.03636
G1 X109.902 Y103.968 E4.05523
G1 X110.19 Y103.078 E4.07389
G1 X110.485 Y102.282 E4.09084
G1 X110.798 Y101.524 E4.1072
G1 X111.055 Y100.963 E4.11952
G1 X111.325 Y100.414 E4.13172
G1 X111.48 Y100.12 E4.13836
G1 X111.787 Y99.577 E4.15081
G1 X112.206 Y98.881 E4.16702
G1 X112.638 Y98.218 E4.18281
G1 X113.151 Y97.49 E4.20058
G1 X113.678 Y96.801 E4.21789
G1 X114 Y96.413 E4.22795
G0 F6000 X114.308 Y96.669
G1 F1200 X114.628 Y96.301 E4.23769
G1 X114.944 Y95.954 E4.24705
G1 X115.286 Y95.596 E4.25693
G1 X115.615 Y95.267 E4.26622
G1 X116.001 Y94.899 E4.27686
G1 X116.314 Y94.616 E4.28528
G1 X116.681 Y94.299 E4.29496
G1 X117.162 Y93.912 E4.30728
G1 X117.891 Y93.354 E4.3256
G1 X118.526 Y92.904 E4.34113
G1 X118.955 Y92.623 E4.35137
G1 X119.44 Y92.323 E4.36275
G1 X119.719 Y92.161 E4.36918
G1 X120.223 Y91.887 E4.38063
G1 X121.085 Y91.447 E4.39995
G1 X121.827 Y91.103 E4.41627
G1 X122.355 Y90.883 E4.42768
G1 X122.888 Y90.678 E4.43908
G1 X123.339 Y90.518 E4.44863
G1 X123.995 Y90.309 E4.46237
G1 X124.772 Y90.089 E4.47848
G1 X125.473 Y89.916 E4.49289
G1 X126.042 Y89.796 E4.5045
G1 X126.702 Y89.679 E4.51787
G1 X127.231 Y89.602 E4.52854
G1 X127.706 Y89.543 E4.53809
G1 X128.388 Y89.475 E4.55177
G1 X129.087 Y89.429 E4.56575
G1 X129.537 Y89.414 E4.57474
G1 X130.42 Y89.414 E4.59236
G1 X130.986 Y89.436 E4.60366
G1 X131.606 Y89.477 E4.61606
G1 X132.112 Y89.523 E4.6262
G1 X132.741 Y89.595 E4.63883
G1 X133.387 Y89.689 E4.65186
G1 X134.271 Y89.856 E4.66981
G1 X134.714 Y89.955 E4.67887
G1 X135.221 Y90.082 E4.6893
G1 X136.022 Y90.314 E4.70595
G1 X136.846 Y90.589 E4.72328
G1 X137.458 Y90.813 E4.73629
G1 X137.96 Y91.011 E4.74706
G1 X138.523 Y91.257 E4.75932
G1 X138.931 Y91.447 E4.7683
G1 X139.413 Y91.687 E4.77904
G1 X139.757 Y91.869 E4.78681
G1 X140.226 Y92.132 E4.79754
G1 X140.711 Y92.421 E4.80881
G1 X141.367 Y92.834 E4.82428
G1 X141.896 Y93.192 E4.83702
G1 X142.279 Y93.472 E4.84649
G1 X142.721 Y93.81 E4.8576
G1 X143.148 Y94.154 E4.86854
G1 X143.395 Y94.364 E4.87501
G1 X143.8 Y94.727 E4.88586
G1 X144.464 Y95.353 E4.90407
G1 X144.999 Y95.894 E4.91926
G1 X145.327 Y96.251 E4.92893
G1 X145.701 Y96.681 E4.9403
G1 X146.088 Y97.162 E4.95262
G1 X146.646 Y97.891 E4.97094
G1 X147.096 Y98.526 E4.98648
G1 X147.377 Y98.955 E4.99671
G1 X147.666 Y99.422 E5.00767
G1 X147.911 Y99.842 E5.01737
G1 X148.186 Y100.344 E5.0288
G1 X148.44 Y100.839 E5.0399
G1 X148.673 Y101.322 E5.0506
G1 X148.879 Y101.779 E5.0606
G1 X149.078 Y102.252 E5.07084
G1 X149.239 Y102.661 E5.07962
G1 X149.409 Y103.122 E5.08942
G1 X149.527 Y103.468 E5.09672
G1 X149.72 Y104.099 E5.10989
G1 X149.991 Y105.092 E5.13043
G1 X150.166 Y105.839 E5.14574
G1 X150.234 Y106.185 E5.15277
G1 X150.325 Y106.719 E5.16358
G1 X150.401 Y107.247 E5.17423
G1 X150.457 Y107.708 E5.1835
G1 X150.525 Y108.392 E5.19721
G1 X150.571 Y109.076 E5.2109
G1 X150.594 Y109.934 E5.22802
G1 X150.597 Y149.553 E6.01866
G1 X150.586 Y150.431 E6.03619
G1 X150.564 Y150.984 E6.04723
G1 X150.523 Y151.605 E6.05965
G1 X150.451 Y152.32 E6.07399
G1 X150.361 Y152.989 E6.08746
G1 X150.284 Y153.476 E6.0973
G1 X150.155 Y154.184 E6.11166
G1 X149.983 Y154.962 E6.12756
G1 X149.877 Y155.368 E6.13594
G1 X149.696 Y155.983 E6.14873
G1 X149.494 Y156.601 E6.16171
G1 X149.337 Y157.049 E6.17118
G1 X149.082 Y157.725 E6.1856
G1 X148.772 Y158.462 E6.20155
G1 X148.552 Y158.934 E6.21195
G1 X148.166 Y159.692 E6.22892
G1 X147.881 Y160.198 E6.24051
G1 X147.461 Y160.898 E6.2568
G1 X147.034 Y161.555 E6.27244
G1 X146.725 Y161.993 E6.28313
G1 X146.229 Y162.655 E6.29964
G1 X145.947 Y163.009 E6.30867
G1 X145.519 Y163.524 E6.32204
G1 X144.928 Y164.178 E6.33963
G1 X144.37 Y164.735 E6.35536
G1 X143.799 Y165.275 E6.37105
G1 X143.191 Y165.808 E6.38718
G1 X142.705 Y166.202 E6.39967
G1 X142.185 Y166.598 E6.41271
G1 X141.763 Y166.899 E6.42305
G1 X141.011 Y167.399 E6.44108
G1 X140.56 Y167.677 E6.45165
G1 X140.281 Y167.839 E6.45809
G1 X139.777 Y168.113 E6.46953
G1 X138.915 Y168.553 E6.48885
G1 X138.182 Y168.893 E6.50497
G1 X137.653 Y169.114 E6.51641
G1 X137.057 Y169.342 E6.52915
G1 X136.469 Y169.547 E6.54158
G1 X135.929 Y169.719 E6.55289
G1 X135.108 Y169.947 E6.56989
G1 X134.642 Y170.061 E6.57946
G1 X134.134 Y170.173 E6.58984
G1 X133.782 Y170.241 E6.597
G1 X133.278 Y170.325 E6.6072
G1 X132.388 Y170.447 E6.62512
G1 X131.919 Y170.498 E6.63454
G1 X131.179 Y170.557 E6.64935
G1 X130.428 Y170.585 E6.66435
G1 X129.857 Y170.585 E6.67574
G1 X128.965 Y170.56 E6.69355
G1 X128.237 Y170.514 E6.70811
G1 X127.774 Y170.469 E6.71739
G1 X127.189 Y170.396 E6.72916
G1 X126.333 Y170.255 E6.74647
G1 X125.554 Y170.102 E6.76231
G1 X124.751 Y169.912 E6.77878
G1 X124.007 Y169.693 E6.79426
G1 X123.388 Y169.49 E6.80726
G1 X122.958 Y169.339 E6.81635
G1 X122.283 Y169.085 E6.83074
G1 X121.538 Y168.772 E6.84687
G1 X121.066 Y168.552 E6.85726
G1 X120.308 Y168.166 E6.87424
G1 X119.799 Y167.879 E6.8859
G1 X119.098 Y167.458 E6.90222
G1 X118.448 Y167.035 E6.91769
G1 X117.694 Y166.495 E6.9362
G1 X116.983 Y165.941 E6.95419
G1 X116.472 Y165.516 E6.96745
G1 X115.822 Y164.928 E6.98494
G1 X115.265 Y164.371 E7.00066
G1 X114.724 Y163.799 E7.01637
G1 X114.157 Y163.148 E7.0336
G1 X113.711 Y162.592 E7.04783
G1 X113.333 Y162.092 E7.06034
G1 X113.084 Y161.741 E7.06892
G1 X112.59 Y160.994 E7.0868
G1 X112.321 Y160.556 E7.09705
G1 X112.158 Y160.275 E7.10354
G1 X111.886 Y159.775 E7.11489
G1 X111.447 Y158.915 E7.13416
G1 X111.103 Y158.173 E7.15049
G1 X110.883 Y157.645 E7.1619
G1 X110.66 Y157.062 E7.17436
G1 X110.454 Y156.472 E7.18683
G1 X110.279 Y155.921 E7.19836
G1 X110.051 Y155.1 E7.21537
G1 X109.938 Y154.637 E7.22488
G1 X109.763 Y153.798 E7.24198
G1 X109.675 Y153.277 E7.25253
G1 X109.543 Y152.293 E7.27234
G1 X109.475 Y151.611 E7.28602
G1 X109.429 Y150.923 E7.29978
G1 X109.406 Y150.065 E7.31691
G1 X109.404 Y110.293 E8.1106
G1 X109.416 Y109.458 E8.12726
G1 X109.436 Y108.945 E8.13751
G1 X109.466 Y108.468 E8.14705
G1 X109.506 Y107.994 E8.15654
G1 X109.603 Y107.197 E8.17256
G1 X109.729 Y106.414 E8.18839
G1 X109.835 Y105.851 E8.19982
G1 X110.036 Y104.986 E8.21754
G1 X110.288 Y104.075 E8.23641
G1 X110.565 Y103.217 E8.2544
G1 X110.86 Y102.421 E8.27134
G1 X111.162 Y101.69 E8.28712
G1 X111.419 Y101.129 E8.29944
G1 X111.679 Y100.601 E8.31118
G1 X111.834 Y100.307 E8.31782
G1 X112.13 Y99.783 E8.32983
G1 X112.549 Y99.087 E8.34604
G1 X112.965 Y98.448 E8.36125
G1 X113.478 Y97.72 E8.37903
G1 X113.986 Y97.057 E8.3957
G1 X114.308 Y96.669 E8.40576
G0 F6000 X114.616 Y96.924
G1 F1200 X114.924 Y96.57 E8.41512
G1 X115.24 Y96.223 E8.42449
G1 X115.569 Y95.879 E8.43399
G1 X115.898 Y95.55 E8.44327
G1 X116.269 Y95.196 E8.4535
G1 X116.582 Y94.913 E8.46193
G1 X116.936 Y94.608 E8.47125
G1 X117.405 Y94.229 E8.48328
G1 X118.134 Y93.671 E8.5016
G1 X118.745 Y93.238 E8.51655
G1 X119.174 Y92.957 E8.52678
G1 X119.641 Y92.669 E8.53773
G1 X119.92 Y92.507 E8.54417
G1 X120.405 Y92.243 E8.55519
G1 X121.267 Y91.803 E8.5745
G1 X121.981 Y91.473 E8.5902
G1 X122.509 Y91.253 E8.60162
G1 X123.022 Y91.055 E8.61259
G1 X123.473 Y90.895 E8.62214
G1 X124.104 Y90.694 E8.63535
G1 X124.881 Y90.474 E8.65147
G1 X125.555 Y90.308 E8.66532
G1 X126.124 Y90.188 E8.67693
G1 X126.76 Y90.074 E8.68982
G1 X127.289 Y89.997 E8.70049
G1 X127.746 Y89.941 E8.70968
G1 X128.428 Y89.873 E8.72336
G1 X129.1 Y89.829 E8.73679
G1 X129.55 Y89.814 E8.74578
G1 X130.415 Y89.814 E8.76304
G1 X130.96 Y89.835 E8.77393
G1 X131.58 Y89.876 E8.78633
G1 X132.067 Y89.92 E8.79608
G1 X132.696 Y89.992 E8.80872
G1 X133.317 Y90.083 E8.82124
G1 X134.184 Y90.247 E8.83885
G1 X134.627 Y90.346 E8.84791
G1 X135.114 Y90.467 E8.85792
G1 X135.898 Y90.694 E8.87421
G1 X136.709 Y90.964 E8.89127
G1 X137.321 Y91.188 E8.90428
G1 X137.804 Y91.379 E8.91464
G1 X138.354 Y91.619 E8.92662
G1 X138.762 Y91.809 E8.9356
G1 X139.226 Y92.04 E8.94594
G1 X139.57 Y92.222 E8.95371
G1 X140.021 Y92.476 E8.96404
G1 X140.777 Y92.932 E8.98166
G1 X141.151 Y93.171 E8.99051
G1 X141.668 Y93.521 E9.00297
G1 X142.036 Y93.79 E9.01207
G1 X142.478 Y94.128 E9.02317
G1 X142.889 Y94.459 E9.0337
G1 X143.136 Y94.669 E9.04017
G1 X143.526 Y95.018 E9.05062
G1 X144.19 Y95.644 E9.06883
G1 X144.704 Y96.165 E9.08344
G1 X145.032 Y96.522 E9.09311
G1 X145.392 Y96.936 E9.10406
G1 X145.771 Y97.405 E9.11609
G1 X146.329 Y98.134 E9.13441
G1 X146.762 Y98.745 E9.14936
G1 X147.043 Y99.174 E9.15959
G1 X147.321 Y99.624 E9.17015
G1 X147.566 Y100.044 E9.17985
G1 X147.83 Y100.526 E9.19082
G1 X148.084 Y101.021 E9.20192
G1 X148.308 Y101.486 E9.21222
G1 X148.514 Y101.943 E9.22222
G1 X148.706 Y102.399 E9.2321
G1 X148.867 Y102.808 E9.24087
G1 X149.148 Y103.598 E9.2576
G1 X149.334 Y104.205 E9.27027
G1 X149.605 Y105.198 E9.29081
G1 X149.774 Y105.916 E9.30553
G1 X149.842 Y106.262 E9.31257
G1 X149.929 Y106.776 E9.32297
G1 X150.005 Y107.304 E9.33362
G1 X150.059 Y107.748 E9.34254
G1 X150.127 Y108.432 E9.35626
G1 X150.171 Y109.09 E9.36942
G1 X150.194 Y109.934 E9.38627
G1 X150.197 Y149.553 E10.17691
G1 X150.186 Y150.425 E10.19431
G1 X150.165 Y150.958 E10.20496
G1 X150.124 Y151.579 E10.21738
G1 X150.055 Y152.267 E10.23118
G1 X149.965 Y152.936 E10.24465
G1 X149.891 Y153.404 E10.2541
G1 X149.762 Y154.112 E10.26847
G1 X149.596 Y154.861 E10.28378
G1 X149.49 Y155.267 E10.29215
G1 X149.316 Y155.859 E10.30446
G1 X149.114 Y156.477 E10.31744
G1 X148.963 Y156.908 E10.32655
G1 X148.708 Y157.584 E10.34097
G1 X148.409 Y158.293 E10.35632
G1 X148.189 Y158.765 E10.36672
G1 X147.965 Y159.217 E10.37678
G1 X147.813 Y159.505 E10.38328
G1 X147.538 Y159.992 E10.39444
G1 X147.118 Y160.692 E10.41073
G1 X146.707 Y161.324 E10.42578
G1 X146.398 Y161.762 E10.43648
G1 X145.911 Y162.413 E10.4527
G1 X145.64 Y162.753 E10.46138
G1 X145.212 Y163.268 E10.47474
G1 X144.643 Y163.897 E10.49167
G1 X144.096 Y164.445 E10.50712
G1 X143.525 Y164.985 E10.5228
G1 X142.939 Y165.497 E10.53833
G1 X142.453 Y165.891 E10.55082
G1 X141.953 Y166.272 E10.56336
G1 X141.531 Y166.573 E10.57371
G1 X140.793 Y167.064 E10.59139
G1 X140.359 Y167.331 E10.60156
G1 X140.08 Y167.493 E10.608
G1 X139.595 Y167.757 E10.61902
G1 X138.733 Y168.197 E10.63834
G1 X138.028 Y168.524 E10.65384
G1 X137.499 Y168.745 E10.66528
