;FLAVOR:Marlin
;TIME:11470
;Filament used: 8.25451m
;Layer height: 0.32
;MINX:19.2
;MINY:6.906
;MINZ:0.32
;MAXX:240.8
;MAXY:213.15
;MAXZ:1.92
;POSTPROCESSED
;Generated with Cura_SteamEngine 5.4.0
;
;

M82 ;absolute extrusion mode


; Pre-Processed for Cancel-Object support by preprocess_cancellation v0.2.0
; 1 known objects
EXCLUDE_OBJECT_DEFINE NAME=Frantic_Turing_stl CENTER=128.090,121.936 POLYGON=[[20.2,7.906],[20.2,212.15],[239.8,212.15],[239.8,7.906]]
START_PRINT EXTRUDER_TEMP=250.0 BED_TEMP=90 RELATIVE_E_MODE=False PROBE=alse PROBE_AREA_START=%MINX%,%MINY% PROBE_AREA_END=%MAXX%,%MAXY%
G92 E0
G92 E0
G1 F2100 E-0.5
;LAYER_COUNT:6
;LAYER:0
M107
G0 F6000 X21.972 Y11.921 Z0.32
;TYPE:SKIRT
G1 F2100 E0
G1 F900 X22.339 Y11.232 E0.05193
G1 X22.621 Y10.8 E0.08625
G1 X23.058 Y10.346 E0.12816
G1 X23.595 Y9.986 E0.17117
G1 X24.461 Y9.522 E0.23652
G1 X27.944 Y7.748 E0.49654
G1 X28.625 Y7.413 E0.54702
G1 X29.206 Y7.188 E0.58847
G1 X29.897 Y7.086 E0.63493
G1 X30.259 Y7.072 E0.65903
G1 X177.493 Y6.907 E10.45308
G1 X228.254 Y6.906 E13.82971
G1 X229.051 Y6.924 E13.88274
G1 X229.561 Y6.991 E13.91696
G1 X230.62 Y7.249 E13.98947
G1 X232.113 Y7.649 E14.09228
G1 X232.773 Y7.837 E14.13793
G1 X233.267 Y8.026 E14.17312
G1 X234.206 Y8.484 E14.24261
G1 X234.698 Y8.749 E14.27979
G1 X235.098 Y9.011 E14.3116
G1 X235.983 Y9.7 E14.3862
G1 X237.116 Y10.619 E14.48325
G1 X237.697 Y11.109 E14.5338
G1 X238.066 Y11.48 E14.56861
G1 X238.447 Y12.045 E14.61394
G1 X238.862 Y13.062 E14.68701
G1 X239.831 Y15.302 E14.84936
G1 X240.33 Y16.484 E14.93471
G1 X240.503 Y17.025 E14.97249
G1 X240.564 Y17.545 E15.00732
G1 X240.58 Y18.166 E15.04864
G1 X240.58 Y170.075 E25.15367
G1 X240.62 Y172.802 E25.33509
G1 X240.742 Y175.698 E25.5279
G1 X240.789 Y176.504 E25.58161
G1 X240.8 Y176.902 E25.60809
G1 X240.8 Y209.204 E27.75683
G1 X240.791 Y209.931 E27.80519
G1 X240.73 Y210.539 E27.84584
G1 X240.548 Y211.136 E27.88736
G1 X240.269 Y211.667 E27.92726
G1 X239.887 Y212.146 E27.96801
G1 X239.42 Y212.547 E28.00896
G1 X238.887 Y212.854 E28.04988
G1 X238.297 Y213.058 E28.0914
G1 X237.63 Y213.14 E28.13611
G1 X237.246 Y213.15 E28.16166
G1 X23.114 Y213.15 E42.40578
G1 X22.368 Y213.138 E42.45541
G1 X21.809 Y213.079 E42.4928
G1 X21.221 Y212.901 E42.53367
G1 X20.684 Y212.618 E42.57404
G1 X20.197 Y212.228 E42.61555
G1 X19.799 Y211.765 E42.65616
G1 X19.496 Y211.238 E42.6966
G1 X19.292 Y210.649 E42.73806
G1 X19.21 Y209.978 E42.78303
G1 X19.2 Y209.584 E42.80925
G1 X19.2 Y178.015 E44.90923
G1 X19.215 Y177.184 E44.96451
G1 X19.334 Y174.946 E45.1136
G1 X19.411 Y172.206 E45.29593
G1 X19.421 Y170.819 E45.3882
G1 X19.421 Y18.366 E55.52941
G1 X19.431 Y17.662 E55.57625
G1 X19.494 Y17.041 E55.61777
G1 X19.741 Y16.323 E55.66828
G1 X19.893 Y16.001 E55.69196
G1 X21.972 Y11.921 E55.99657
G0 F6000 X22.414 Y12.155
G1 F900 X22.758 Y11.505 E56.04549
G1 X23.014 Y11.113 E56.07664
G1 X23.38 Y10.733 E56.11173
G1 X23.831 Y10.427 E56.14799
G1 X24.688 Y9.968 E56.21266
G1 X28.165 Y8.197 E56.47222
G1 X28.846 Y7.862 E56.5227
G1 X29.333 Y7.675 E56.55741
G1 X29.97 Y7.581 E56.60024
G1 X30.26 Y7.572 E56.61954
G1 X177.494 Y7.407 E66.41359
G1 X228.245 Y7.406 E69.78956
G1 X228.986 Y7.42 E69.83886
G1 X229.496 Y7.487 E69.87308
G1 X230.491 Y7.732 E69.94124
G1 X231.977 Y8.13 E70.04358
G1 X232.596 Y8.305 E70.08637
G1 X233.048 Y8.476 E70.11851
G1 X233.97 Y8.925 E70.18673
G1 X234.425 Y9.168 E70.22104
G1 X234.791 Y9.406 E70.25008
G1 X235.668 Y10.088 E70.32399
G1 X236.795 Y11.002 E70.42051
G1 X237.342 Y11.461 E70.46801
G1 X237.675 Y11.796 E70.49943
G1 X238.004 Y12.284 E70.53858
G1 X238.403 Y13.261 E70.60878
G1 X239.37 Y15.496 E70.77077
G1 X239.869 Y16.678 E70.85612
G1 X240.011 Y17.129 E70.88757
G1 X240.067 Y17.604 E70.91939
G1 X240.08 Y18.177 E70.95751
G1 X240.08 Y170.075 E81.06181
G1 X240.12 Y172.823 E81.24463
G1 X240.243 Y175.719 E81.43744
G1 X240.289 Y176.518 E81.49068
G1 X240.3 Y176.916 E81.51717
G1 X240.3 Y209.198 E83.66457
G1 X240.291 Y209.925 E83.71294
G1 X240.238 Y210.439 E83.74731
G1 X240.085 Y210.941 E83.78222
G1 X239.847 Y211.394 E83.81626
G1 X239.524 Y211.799 E83.85072
G1 X239.128 Y212.139 E83.88544
G1 X238.683 Y212.395 E83.91959
G1 X238.182 Y212.568 E83.95485
G1 X237.617 Y212.64 E83.99273
G1 X237.233 Y212.65 E84.01829
G1 X23.122 Y212.65 E98.26101
G1 X22.376 Y212.638 E98.31064
G1 X21.906 Y212.587 E98.34209
G1 X21.412 Y212.437 E98.37643
G1 X20.958 Y212.198 E98.41056
G1 X20.547 Y211.869 E98.44558
G1 X20.21 Y211.477 E98.47997
G1 X19.953 Y211.029 E98.51432
G1 X19.782 Y210.534 E98.54916
G1 X19.71 Y209.965 E98.58731
G1 X19.7 Y209.571 E98.61353
G1 X19.7 Y178.024 E100.71204
G1 X19.714 Y177.211 E100.76613
G1 X19.834 Y174.96 E100.91608
G1 X19.911 Y172.22 E101.09842
G1 X19.921 Y170.823 E101.19135
G1 X19.921 Y18.373 E111.33237
G1 X19.931 Y17.669 E111.3792
G1 X19.985 Y17.149 E111.41398
G1 X20.193 Y16.537 E111.45698
G1 X20.339 Y16.228 E111.47971
G1 X22.414 Y12.155 E111.78378
G0 F6000 X22.856 Y12.388
G1 F900 X23.177 Y11.779 E111.82957
G1 X23.409 Y11.424 E111.85778
G1 X23.703 Y11.119 E111.88596
G1 X24.112 Y10.841 E111.91886
G1 X24.915 Y10.414 E111.97936
G1 X28.386 Y8.646 E112.23848
G1 X29.067 Y8.311 E112.28896
G1 X29.463 Y8.161 E112.31713
G1 X29.986 Y8.081 E112.35233
G1 X30.261 Y8.072 E112.37063
G1 X177.495 Y7.907 E122.16468
G1 X228.238 Y7.906 E125.54012
G1 X228.921 Y7.916 E125.58556
G1 X229.431 Y7.983 E125.61977
G1 X230.362 Y8.215 E125.6836
G1 X231.841 Y8.611 E125.78545
G1 X232.46 Y8.786 E125.82824
G1 X232.829 Y8.926 E125.85449
G1 X233.736 Y9.367 E125.92158
G1 X234.154 Y9.588 E125.95303
G1 X234.484 Y9.801 E125.97916
G1 X235.353 Y10.477 E126.05239
G1 X236.475 Y11.386 E126.14845
G1 X236.987 Y11.813 E126.1928
G1 X237.286 Y12.114 E126.22102
G1 X237.56 Y12.521 E126.25366
G1 X237.944 Y13.46 E126.32114
G1 X238.91 Y15.691 E126.48286
G1 X239.392 Y16.828 E126.56501
G1 X239.519 Y17.232 E126.59318
G1 X239.57 Y17.663 E126.62205
G1 X239.58 Y18.187 E126.65692
G1 X239.58 Y170.075 E136.76055
G1 X239.62 Y172.844 E136.94476
G1 X239.744 Y175.74 E137.13758
G1 X239.789 Y176.532 E137.19035
G1 X239.8 Y176.93 E137.21683
G1 X239.8 Y209.192 E139.36291
G1 X239.791 Y209.919 E139.41128
G1 X239.746 Y210.34 E139.43944
G1 X239.622 Y210.746 E139.46768
G1 X239.425 Y211.121 E139.49586
G1 X239.161 Y211.452 E139.52402
G1 X238.84 Y211.728 E139.55218
G1 X238.472 Y211.939 E139.5804
G1 X238.071 Y212.078 E139.60863
G1 X237.604 Y212.14 E139.63997
G1 X237.22 Y212.15 E139.66552
G1 X23.128 Y212.15 E153.90698
G1 X22.43 Y212.141 E153.95341
G1 X22.009 Y212.095 E153.98158
G1 X21.603 Y211.972 E154.0098
G1 X21.228 Y211.775 E154.03798
G1 X20.897 Y211.51 E154.06619
G1 X20.621 Y211.189 E154.09435
G1 X20.41 Y210.821 E154.12257
G1 X20.272 Y210.42 E154.15078
G1 X20.21 Y209.952 E154.18218
G1 X20.2 Y209.558 E154.2084
G1 X20.2 Y178.032 E156.30551
G1 X20.213 Y177.238 E156.35834
G1 X20.334 Y174.974 E156.50916
G1 X20.411 Y172.234 E156.69149
G1 X20.421 Y170.827 E156.78509
G1 X20.421 Y18.38 E166.92591
G1 X20.431 Y17.676 E166.97274
G1 X20.477 Y17.255 E167.00091
G1 X20.645 Y16.751 E167.03625
G1 X20.785 Y16.455 E167.05803
G1 X22.856 Y12.388 E167.36163
G1 F2100 E166.86163
;MESH:Frantic Turing.stl
EXCLUDE_OBJECT_START NAME=Frantic_Turing_stl
G0 F6000 X25.216 Y13.591
G0 X31.464 Y20.641
G0 X32.036 Y21.568
;TYPE:WALL-OUTER
G1 F2100 E167.36163
G1 F1097.6 X33.858 Y23.055 E167.48991
G1 F1027.4 X34.042 Y23.101 E167.50096
G1 F2100 E167.00096
G0 F6000 X34.54 Y22.78
G0 X38.137 Y23.053
G0 X38.358 Y23.561
G0 X39.245 Y26.442
G0 X39.243 Y26.731
G0 X39.115 Y27.547
G0 X38.809 Y26.974
G1 F2100 E167.50096
G1 F894.6 X37.061 Y27.914 E167.63378
G1 F892.9 X37.21 Y27.965 E167.64434
G1 F896.4 X38.738 Y29.121 E167.7723
G1 F900 X38.832 Y29.266 E167.7838
G1 X38.78 Y29.596 E167.80602
G1 X38.721 Y29.702 E167.81409
G1 X38.608 Y29.771 E167.8229
G1 X36.53 Y30.166 E167.9636
G1 X36.292 Y29.993 E167.98317
G1 X36.273 Y30.096 E167.99014
G1 X36.175 Y30.226 E168.00097
G1 X35.666 Y30.435 E168.03757
G1 F781.2 X35.187 Y30.708 E168.07982
G1 F687 X34.966 Y30.783 E168.10016
G1 F738.9 X34.778 Y30.788 E168.11539
G1 F850.7 X32.913 Y31.035 E168.2478
G1 F900 X31.709 Y31.215 E168.32878
G1 X29.258 Y30.645 E168.49617
G1 X27.413 Y28.755 E168.67186
G1 X26.759 Y28.129 E168.73209
G1 X26.625 Y27.503 E168.77467
G1 X26.457 Y24.97 E168.94354
G1 X26.593 Y24.261 E168.99156
G1 X27.254 Y23.2 E169.07471
G1 X27.591 Y23.016 E169.10026
G1 X28.404 Y22.625 E169.16027
G1 X28.683 Y22.472 E169.18143
G1 X29.514 Y22.073 E169.24275
G1 X29.852 Y21.934 E169.26706
G1 X31.226 Y21.429 E169.36444
G1 X31.61 Y21.279 E169.39186
G1 F939.5 X31.758 Y21.287 E169.40131
G1 F1027.4 X32.036 Y21.568 E169.42434
G1 F1009 X31.939 Y21.343 E169.43888
G1 F924 X32.033 Y21.038 E169.45956
G1 F900 X32.152 Y20.96 E169.46902
G1 X34.787 Y20.541 E169.64651
G1 X34.964 Y20.616 E169.65929
G1 X35.162 Y20.887 E169.68162
G1 X35.129 Y21.064 E169.6936
G1 X34.41 Y22.526 E169.80197
G1 F914.6 X34.174 Y22.986 E169.83582
G1 F939.5 X34.042 Y23.101 E169.84697
G1 F935.6 X34.242 Y23.016 E169.86088
G1 F910.9 X34.504 Y23.064 E169.87838
G1 F900 X34.822 Y23.373 E169.90788
G1 F955.4 X35.135 Y23.778 E169.93995
G1 F971.9 X35.072 Y23.527 E169.95589
G1 F914.6 X35.169 Y23.293 E169.97247
G1 F900 X35.257 Y23.207 E169.98066
G1 X35.389 Y23.174 E169.98971
G1 X37.671 Y23.227 E170.14155
G1 X37.786 Y23.308 E170.15091
G1 X37.919 Y23.587 E170.17147
G1 X37.929 Y23.713 E170.17988
G1 X37.869 Y23.835 E170.18892
G1 X36.738 Y25.103 E170.30194
G1 X36.596 Y25.182 E170.31275
G1 X36.615 Y25.254 E170.31771
G1 X36.779 Y25.251 E170.32862
G1 X38.787 Y26.394 E170.48232
G1 X38.883 Y26.57 E170.49565
G1 X38.878 Y26.83 E170.51295
G1 F898.2 X38.809 Y26.974 E170.52359
G0 F6000 X39.115 Y27.547
G0 X38.219 Y27.973
G0 X38.029 Y27.96
;TYPE:WALL-INNER
G1 F900 X39.039 Y28.722 E170.60775
G1 X39.233 Y28.939 E170.62712
G1 X39.32 Y29.158 E170.64279
G1 X39.318 Y29.493 E170.66508
G1 F901.8 X39.222 Y29.839 E170.68891
G1 X39.085 Y30.045 E170.70534
G1 F900 X38.914 Y30.18 E170.71983
G1 X38.748 Y30.251 E170.73184
G1 X36.692 Y30.645 E170.8711
G1 X36.441 Y30.649 E170.88779
G1 X36.311 Y30.717 E170.89755
G1 X35.626 Y30.988 E170.94656
G1 X35.835 Y31.038 E170.96085
G1 X36.164 Y31.297 E170.9887
G1 X36.269 Y31.465 E171.00188
G1 X36.347 Y31.802 E171.02489
G1 X36.084 Y33.295 E171.12574
G1 X37.506 Y32.971 E171.22275
G1 X37.803 Y33.025 E171.24283
G1 X38.062 Y33.167 E171.26248
G1 X38.342 Y33.534 E171.29319
G1 F901.8 X38.418 Y33.784 E171.31054
G1 X38.421 Y33.993 E171.32441
G1 F900 X38.345 Y34.236 E171.34135
G1 X37.656 Y35.595 E171.4427
G1 X39.014 Y35.729 E171.53348
G1 X39.333 Y35.88 E171.55695
G1 X39.523 Y36.101 E171.57634
G1 X39.691 Y36.536 E171.60736
G1 X39.676 Y36.803 E171.62515
G1 X39.525 Y37.143 E171.6499
G1 X37.856 Y38.76 E171.80448
G1 X37.453 Y38.961 E171.83444
G1 X37.415 Y38.956 E171.83699
G1 X37.397 Y39.053 E171.84355
G1 X38.963 Y39.711 E171.95654
G1 X39.265 Y39.942 E171.98183
G1 X39.393 Y40.191 E172.00046
G1 X39.441 Y40.571 E172.02594
G1 X39.374 Y40.913 E172.04912
G1 X39.266 Y41.084 E172.06257
G1 X39.107 Y41.225 E172.07671
G1 X37.017 Y42.619 E172.24382
G1 X36.823 Y42.711 E172.25811
G1 X36.621 Y42.744 E172.27172
G1 X36.301 Y42.675 E172.2935
G1 X35.887 Y43.118 E172.33383
G1 X35.614 Y43.266 E172.35449
G1 X33.427 Y43.911 E172.50616
G1 X31.656 Y44.346 E172.62747
G1 X31.025 Y44.334 E172.66945
G1 X30.728 Y44.266 E172.68972
G1 X29.577 Y43.739 E172.77393
G1 X29.161 Y43.284 E172.81494
G1 X27.96 Y41.888 E172.93744
G1 X27.598 Y41.492 E172.97313
G1 X27.483 Y41.222 E172.99265
G1 X27.45 Y40.416 E173.04631
G1 X27.284 Y38.259 E173.19022
G1 X27.348 Y37.954 E173.21095
G1 X27.652 Y37.268 E173.26086
G1 X28.179 Y35.604 E173.37697
G1 X28.3 Y35.354 E173.39545
G1 X29.328 Y34.458 E173.48616
G1 X30.027 Y34.001 E173.54171
G1 X31.344 Y33.233 E173.64313
G1 X31.653 Y32.974 E173.66995
G1 F834.9 X32.741 Y32.183 E173.76641
G1 F779.9 X33.023 Y32.144 E173.78826
G1 X33.125 Y32.157 E173.79615
G1 X33.204 Y32.088 E173.8042
G1 X34.389 Y31.36 E173.91097
G1 X32.608 Y31.624 E174.04918
G1 F827.2 X32.269 Y31.642 E174.07375
G1 F891.1 X31.83 Y31.703 E174.10352
G1 F900 X31.548 Y31.691 E174.1223
G1 X29.215 Y31.148 E174.28164
G1 X28.941 Y31.036 E174.30133
G1 X27.061 Y29.11 E174.48037
G1 X26.363 Y28.441 E174.54468
G1 X26.254 Y28.158 E174.56485
G1 X26.132 Y27.589 E174.60356
G1 X25.953 Y24.911 E174.7821
G1 X26.095 Y24.205 E174.83001
G1 X26.194 Y23.957 E174.84777
G1 X26.795 Y22.992 E174.92339
G1 X26.963 Y22.79 E174.94087
G1 X27.374 Y22.565 E174.97204
G1 X28.175 Y22.18 E175.03116
G1 X28.43 Y22.04 E175.05051
G1 X29.323 Y21.611 E175.11641
G1 X29.68 Y21.464 E175.14209
G1 X31.045 Y20.963 E175.23881
G1 X31.494 Y20.783 E175.27099
G1 X31.612 Y20.79 E175.27885
G1 X31.823 Y20.566 E175.29932
G1 X32.029 Y20.471 E175.31442
G1 X34.757 Y20.035 E175.49819
G1 X35.03 Y20.081 E175.5166
G1 X35.322 Y20.266 E175.5396
G1 X35.556 Y20.569 E175.56506
G1 X35.652 Y20.886 E175.58709
G1 X35.578 Y21.285 E175.61409
G1 X34.87 Y22.722 E175.72065
G1 X34.966 Y22.815 E175.72954
G1 X35.007 Y22.774 E175.7334
G1 X35.4 Y22.674 E175.76037
G1 X37.7 Y22.73 E175.91342
G1 X38.025 Y22.856 E175.9366
G1 X38.224 Y23.033 E175.95432
G1 X38.434 Y23.522 E175.98972
G1 X38.421 Y23.801 E176.0083
G1 X38.367 Y23.977 E176.02055
G1 X38.243 Y24.168 E176.03569
G1 X37.452 Y25.053 E176.11465
G1 X39.126 Y26.009 E176.24289
G1 X39.331 Y26.316 E176.26744
G1 X39.374 Y26.47 E176.27808
G1 X39.384 Y26.867 E176.3045
G1 X39.328 Y27.065 E176.31818
G1 X39.195 Y27.283 E176.33517
G1 X39.062 Y27.402 E176.34704
G1 X38.029 Y27.96 E176.42514
G1 F2100 E175.92514
G0 F6000 X38.219 Y27.973
G0 X50.092 Y25.879
G0 X54.124 Y24.911
G0 X55.876 Y21.202
G0 X56.936 Y15.271
G0 X58.02 Y14.377
G0 X58.531 Y14.028
G0 X82.241 Y11.655
G0 X99.277 Y11.144
G0 X99.277 Y11.014
G1 F2100 E176.42514
G1 F777.2 X98.543 Y11.093 E176.48201
G1 F695.5 X98.211 Y11.08 E176.51061
G1 F702 X97.969 Y11.088 E176.53126
G1 F737.7 X96.637 Y11.053 E176.63939
G1 F839.6 X95.305 Y11.017 E176.73441
G1 F900 X85.187 Y11.026 E177.40746
G1 F844.3 X83.84 Y11.06 E177.50301
G1 F750 X82.493 Y11.095 E177.61057
G1 F718.8 X82.217 Y11.085 E177.63357
G1 F722.3 X82.002 Y11.092 E177.6514
G1 F797.9 X81.295 Y11.029 E177.70466
G1 F900 X30.239 Y11.07 E181.10092
G1 X25.723 Y13.372 E181.4381
G1 X23.421 Y17.887 E181.77523
G1 X23.414 Y177.464 E192.39033
G1 X23.335 Y177.706 E192.40727
G1 X23.2 Y177.788 E192.41777
G1 X23.2 Y209.15 E194.50398
G1 X236.8 Y209.15 E208.71271
G1 X236.8 Y177.025 E210.84968
G1 X236.661 Y176.94 E210.86051
G1 F901.8 X236.58 Y176.675 E210.87891
G1 X236.581 Y106.337 E215.54845
G1 X236.58 Y17.887 E221.42041
G1 F900 X235.986 Y16.714 E221.50787
G1 X234.946 Y14.009 E221.70065
G1 X232.753 Y12.231 E221.88845
G1 X231.63 Y11.66 E221.97225
G1 X228.816 Y10.907 E222.16603
G1 X99.277 Y11.014 E230.783
G0 F6000 X99.277 Y11.144
G0 X92.521 Y12.519
G1 F900 X87.695 Y12.523 E231.10402
G1 X89.822 Y15.237 E231.3334
G1 X89.961 Y15.472 E231.35156
G1 X90.056 Y15.692 E231.3675
G1 X90.255 Y15.176 E231.40429
G1 X90.467 Y14.858 E231.42971
G1 X91.087 Y14.042 E231.49788
G1 X91.25 Y13.85 E231.51464
G1 X92.521 Y12.519 E231.63706
G0 F6000 X93.798 Y12.018
G1 F900 X86.461 Y12.024 E232.12512
G1 X86.815 Y12.272 E232.15387
G1 X87.328 Y12.863 E232.20593
G1 X89.485 Y15.629 E232.43926
G1 X89.625 Y15.949 E232.46249
G1 X89.978 Y16.957 E232.53354
G1 X90.042 Y17.215 E232.55122
G1 X90.611 Y15.628 E232.66337
G1 X90.768 Y15.288 E232.68828
G1 X91.548 Y14.262 E232.77401
G1 X93.501 Y12.215 E232.96221
G1 X93.798 Y12.018 E232.98592
G0 F6000 X97.006 Y11.516
G1 F900 X83.435 Y11.528 E233.88867
G1 X85.207 Y11.969 E234.01014
G1 X85.954 Y12.261 E234.06349
G1 X86.438 Y12.602 E234.10287
G1 X86.934 Y13.171 E234.15308
G1 X89.018 Y15.841 E234.37839
G1 X89.153 Y16.114 E234.39865
G1 F898.2 X89.538 Y17.215 E234.47639
G1 F892.9 X89.777 Y18.646 E234.57367
G1 F725.8 X89.952 Y19.008 E234.60684
G1 X90.111 Y18.665 E234.63802
G1 F894.6 X90.34 Y17.862 E234.6939
G1 F900 X91.126 Y15.69 E234.84755
G1 X91.263 Y15.463 E234.86519
G1 X91.926 Y14.59 E234.93811
G1 X93.863 Y12.56 E235.12476
G1 X94.317 Y12.257 E235.16107
G1 X95.252 Y11.896 E235.22774
G1 X97.006 Y11.516 E235.34712
G0 F6000 X94.291 Y12.71
G0 X92.239 Y14.859
G0 X91.586 Y15.72
G0 X89.952 Y19.008
G1 F647.5 X89.997 Y19.55 E235.39741
G1 F729.3 X90.043 Y20.092 E235.44206
