;FLAVOR:Marlin
;TIME:2977
;Filament used: 2.7057m
;Layer height: 0.2
;MINX:122.69
;MINY:63.258
;MINZ:0.2
;MAXX:137.31
;MAXY:156.742
;MAXZ:14.8
;POSTPROCESSED
;Generated with Cura_SteamEngine 5.3.1
;
;

M82 ;absolute extrusion mode
START_PRINT EXTRUDER_TEMP=195 BED_TEMP=55 RELATIVE_E_MODE=False PROBE=alse PROBE_AREA_START=%MINX%,%MINY% PROBE_AREA_END=%MAXX%,%MAXY%
G92 E0
G92 E0
G1 F2100 E-0.25
;LAYER_COUNT:74
;LAYER:0
M107
G0 F6000 X124.812 Y65.66 Z0.2
;TYPE:SKIRT
G1 F2100 E0
G1 F900 X125.009 Y65.285 E0.01761
G1 X125.274 Y64.954 E0.03524
G1 X125.595 Y64.678 E0.05284
G1 X125.963 Y64.468 E0.07046
G1 X126.364 Y64.33 E0.08809
G1 X126.829 Y64.268 E0.10759
G1 X127.213 Y64.258 E0.12356
G1 X132.32 Y64.258 E0.33588
G1 X133.018 Y64.268 E0.36491
G1 X133.44 Y64.314 E0.38256
G1 X133.845 Y64.438 E0.40017
G1 X134.219 Y64.636 E0.41776
G1 X134.55 Y64.901 E0.43539
G1 X134.826 Y65.223 E0.45302
G1 X135.036 Y65.591 E0.47064
G1 X135.174 Y65.992 E0.48827
G1 X135.235 Y66.455 E0.50768
G1 X135.245 Y66.838 E0.52361
G1 X135.244 Y152.797 E4.09737
G1 X135.234 Y153.513 E4.12714
G1 X135.188 Y153.935 E4.14479
G1 X135.064 Y154.34 E4.1624
G1 X134.866 Y154.715 E4.18003
G1 X134.602 Y155.046 E4.19763
G1 X134.28 Y155.321 E4.21524
G1 X133.912 Y155.532 E4.23287
G1 X133.511 Y155.669 E4.25049
G1 X133.054 Y155.731 E4.26967
G1 X132.663 Y155.742 E4.28593
G1 X127.561 Y155.742 E4.49804
G1 X126.863 Y155.733 E4.52707
G1 X126.442 Y155.687 E4.54467
G1 X126.036 Y155.564 E4.56231
G1 X125.661 Y155.367 E4.57992
G1 X125.33 Y155.102 E4.59755
G1 X125.054 Y154.781 E4.61515
G1 X124.843 Y154.413 E4.63279
G1 X124.705 Y154.012 E4.65042
G1 X124.643 Y153.544 E4.67004
G1 X124.633 Y153.15 E4.68643
G1 X124.633 Y67.152 E8.26181
G1 X124.642 Y66.487 E8.28946
G1 X124.688 Y66.065 E8.30711
G1 X124.812 Y65.66 E8.32472
G0 F6000 X124.349 Y65.465
G1 F900 X124.196 Y65.966 E8.3465
G1 X124.142 Y66.48 E8.36799
G1 X124.133 Y67.145 E8.39564
G1 X124.133 Y153.163 E11.97185
G1 X124.147 Y153.61 E11.99044
G1 X124.216 Y154.127 E12.01213
G1 X124.386 Y154.621 E12.03385
G1 X124.643 Y155.069 E12.05532
G1 X124.98 Y155.461 E12.07681
G1 X125.391 Y155.79 E12.0987
G1 X125.845 Y156.029 E12.12003
G1 X126.339 Y156.179 E12.1415
G1 X126.809 Y156.23 E12.16115
G1 X127.555 Y156.242 E12.19217
G1 X132.677 Y156.242 E12.40512
G1 X133.068 Y156.231 E12.42138
G1 X133.628 Y156.157 E12.44486
G1 X134.121 Y155.989 E12.46652
G1 X134.568 Y155.733 E12.48793
G1 X134.964 Y155.394 E12.50961
G1 X135.284 Y154.993 E12.53094
G1 X135.528 Y154.531 E12.55266
G1 X135.68 Y154.034 E12.57427
G1 X135.734 Y153.52 E12.59575
G1 X135.744 Y152.804 E12.62552
G1 X135.745 Y66.838 E16.19957
G1 X135.731 Y66.39 E16.21821
G1 X135.663 Y65.877 E16.23972
G1 X135.495 Y65.386 E16.2613
G1 X135.236 Y64.933 E16.28299
G1 X134.901 Y64.543 E16.30437
G1 X134.492 Y64.214 E16.32619
G1 X134.038 Y63.974 E16.34754
G1 X133.539 Y63.822 E16.36923
G1 X133.025 Y63.768 E16.39072
G1 X132.327 Y63.758 E16.41974
G1 X127.2 Y63.758 E16.63289
G1 X126.763 Y63.772 E16.65107
G1 X126.249 Y63.841 E16.67263
G1 X125.758 Y64.009 E16.69421
G1 X125.305 Y64.268 E16.7159
G1 X124.915 Y64.604 E16.7373
G1 X124.586 Y65.015 E16.75919
G1 X124.349 Y65.465 E16.78034
G0 F6000 X123.885 Y65.275
G1 F900 X124.166 Y64.741 E16.80542
G1 X124.556 Y64.254 E16.83136
G1 X125.015 Y63.858 E16.85657
G1 X125.552 Y63.551 E16.88228
G1 X126.136 Y63.351 E16.90795
G1 X126.696 Y63.276 E16.93144
G1 X127.184 Y63.258 E16.95174
G1 X132.334 Y63.258 E17.16585
G1 X133.032 Y63.268 E17.19488
G1 X133.638 Y63.33 E17.2202
G1 X134.231 Y63.51 E17.24597
G1 X134.768 Y63.794 E17.27122
G1 X135.25 Y64.182 E17.29695
G1 X135.646 Y64.643 E17.32221
G1 X135.953 Y65.18 E17.34793
G1 X136.153 Y65.765 E17.37363
G1 X136.231 Y66.374 E17.39916
G1 X136.245 Y66.838 E17.41846
G1 X136.244 Y152.811 E20.9928
G1 X136.234 Y153.527 E21.02257
G1 X136.172 Y154.134 E21.04794
G1 X135.992 Y154.724 E21.07359
G1 X135.704 Y155.269 E21.09921
G1 X135.326 Y155.742 E21.12439
G1 X134.858 Y156.143 E21.15001
G1 X134.329 Y156.446 E21.17536
G1 X133.739 Y156.647 E21.20127
G1 X133.134 Y156.727 E21.22664
G1 X132.691 Y156.742 E21.24507
G1 X127.547 Y156.742 E21.45893
G1 X126.801 Y156.73 E21.48995
G1 X126.242 Y156.671 E21.51332
G1 X125.654 Y156.493 E21.53886
G1 X125.117 Y156.21 E21.5641
G1 X124.63 Y155.82 E21.59004
G1 X124.232 Y155.357 E21.61542
G1 X123.929 Y154.829 E21.64073
G1 X123.727 Y154.242 E21.66654
G1 X123.651 Y153.676 E21.69028
G1 X123.633 Y153.179 E21.71096
G1 X123.633 Y67.138 E25.28813
G1 X123.642 Y66.473 E25.31578
G1 X123.704 Y65.866 E25.34115
G1 X123.885 Y65.275 E25.36684
G1 F2100 E25.11684
;MESH:bean stick w magnet hole.stl
G0 F6000 X126.218 Y66.922
G0 X127.297 Y66.922
G0 X131.744 Y67.759
;TYPE:WALL-INNER
G1 F2100 E25.36684
G1 F900 X128.134 Y67.759 E25.51693
G1 X128.134 Y152.241 E29.02928
G1 X131.744 Y152.241 E29.17937
G1 X131.744 Y67.759 E32.69172
G0 F6000 X132.244 Y67.259
G1 F900 X127.634 Y67.259 E32.88338
G1 X127.634 Y152.741 E36.43731
G1 X132.244 Y152.741 E36.62897
G1 X132.244 Y67.259 E40.1829
G0 F6000 X132.744 Y66.759
;TYPE:WALL-OUTER
G1 F900 X127.134 Y66.759 E40.41614
G1 X127.134 Y153.241 E44.01164
G1 X132.744 Y153.241 E44.24488
G1 X132.744 Y66.759 E47.84038
G0 F6000 X132.125 Y67.378
G0 X131.284 Y67.869
G0 X131.284 Y68.219
;TYPE:SKIN
G1 F900 X131.284 Y151.781 E51.31449
G1 X128.594 Y151.781 E51.42633
G1 X128.594 Y68.219 E54.90043
G1 X131.284 Y68.219 E55.01227
G0 F6000 X131.033 Y68.808
G1 F900 X130.694 Y68.469 E55.0322
G0 F6000 X129.987 Y68.469
G1 F900 X131.033 Y69.515 E55.0937
G0 F6000 X131.033 Y70.222
G1 F900 X129.28 Y68.469 E55.19677
G0 F6000 X128.843 Y68.739
G1 F900 X131.033 Y70.929 E55.32553
G0 F6000 X131.033 Y71.636
G1 F900 X128.843 Y69.446 E55.4543
G0 F6000 X128.843 Y70.153
G1 F900 X131.033 Y72.344 E55.58309
G0 F6000 X131.033 Y73.051
G1 F900 X128.843 Y70.86 E55.71188
G0 F6000 X128.843 Y71.567
G1 F900 X131.033 Y73.758 E55.84068
G0 F6000 X131.033 Y74.465
G1 F900 X128.843 Y72.274 E55.96947
G0 F6000 X128.843 Y72.981
G1 F900 X131.033 Y75.172 E56.09826
G0 F6000 X131.033 Y75.879
G1 F900 X128.843 Y73.689 E56.22703
G0 F6000 X128.843 Y74.396
G1 F900 X131.033 Y76.586 E56.35579
G0 F6000 X131.033 Y77.293
G1 F900 X128.843 Y75.103 E56.48455
G0 F6000 X128.843 Y75.81
G1 F900 X131.033 Y78 E56.61332
G0 F6000 X131.033 Y78.708
G1 F900 X128.843 Y76.517 E56.74211
G0 F6000 X128.843 Y77.224
G1 F900 X131.033 Y79.415 E56.8709
G0 F6000 X131.033 Y80.122
G1 F900 X128.843 Y77.931 E56.9997
G0 F6000 X128.843 Y78.638
G1 F900 X131.033 Y80.829 E57.12849
G0 F6000 X131.033 Y81.536
G1 F900 X128.843 Y79.345 E57.25728
G0 F6000 X128.843 Y80.052
G1 F900 X131.033 Y82.243 E57.38607
G0 F6000 X131.033 Y82.95
G1 F900 X128.843 Y80.76 E57.51484
G0 F6000 X128.843 Y81.467
G1 F900 X131.033 Y83.657 E57.6436
G0 F6000 X131.033 Y84.364
G1 F900 X128.843 Y82.174 E57.77237
G0 F6000 X128.843 Y82.881
G1 F900 X131.033 Y85.072 E57.90116
G0 F6000 X131.033 Y85.779
G1 F900 X128.843 Y83.588 E58.02995
G0 F6000 X128.843 Y84.295
G1 F900 X131.033 Y86.486 E58.15874
G0 F6000 X131.033 Y87.193
G1 F900 X128.843 Y85.002 E58.28754
G0 F6000 X128.843 Y85.709
G1 F900 X131.033 Y87.9 E58.41633
G0 F6000 X131.033 Y88.607
G1 F900 X128.843 Y86.416 E58.54512
G0 F6000 X128.843 Y87.124
G1 F900 X131.033 Y89.314 E58.67389
G0 F6000 X131.033 Y90.021
G1 F900 X128.843 Y87.831 E58.80265
G0 F6000 X128.843 Y88.538
G1 F900 X131.033 Y90.728 E58.93141
G0 F6000 X131.033 Y91.435
G1 F900 X128.843 Y89.245 E59.06018
G0 F6000 X128.843 Y89.952
G1 F900 X131.033 Y92.143 E59.18897
G0 F6000 X131.033 Y92.85
G1 F900 X128.843 Y90.659 E59.31776
G0 F6000 X128.843 Y91.366
G1 F900 X131.033 Y93.557 E59.44656
G0 F6000 X131.033 Y94.264
G1 F900 X128.843 Y92.073 E59.57535
G0 F6000 X128.843 Y92.78
G1 F900 X131.033 Y94.971 E59.70414
G0 F6000 X131.033 Y95.678
G1 F900 X128.843 Y93.488 E59.83291
G0 F6000 X128.843 Y94.195
G1 F900 X131.033 Y96.385 E59.96167
G0 F6000 X131.033 Y97.092
G1 F900 X128.843 Y94.902 E60.09043
G0 F6000 X128.843 Y95.609
G1 F900 X131.033 Y97.799 E60.2192
G0 F6000 X131.033 Y98.507
G1 F900 X128.843 Y96.316 E60.34799
G0 F6000 X128.843 Y97.023
G1 F900 X131.033 Y99.214 E60.47678
G0 F6000 X131.033 Y99.921
G1 F900 X128.843 Y97.73 E60.60558
G0 F6000 X128.843 Y98.437
G1 F900 X131.033 Y100.628 E60.73437
G0 F6000 X131.033 Y101.335
G1 F900 X128.843 Y99.144 E60.86316
G0 F6000 X128.843 Y99.851
G1 F900 X131.033 Y102.042 E60.99196
G0 F6000 X131.033 Y102.749
G1 F900 X128.843 Y100.559 E61.12072
G0 F6000 X128.843 Y101.266
G1 F900 X131.033 Y103.456 E61.24948
G0 F6000 X131.033 Y104.163
G1 F900 X128.843 Y101.973 E61.37825
G0 F6000 X128.843 Y102.68
G1 F900 X131.033 Y104.871 E61.50704
G0 F6000 X131.033 Y105.578
G1 F900 X128.843 Y103.387 E61.63583
G0 F6000 X128.843 Y104.094
G1 F900 X131.033 Y106.285 E61.76462
G0 F6000 X131.033 Y106.992
G1 F900 X128.843 Y104.801 E61.89342
G0 F6000 X128.843 Y105.508
G1 F900 X131.033 Y107.699 E62.02221
G0 F6000 X131.033 Y108.406
G1 F900 X128.843 Y106.215 E62.151
G0 F6000 X128.843 Y106.923
G1 F900 X131.033 Y109.113 E62.27977
G0 F6000 X131.033 Y109.82
G1 F900 X128.843 Y107.63 E62.40853
G0 F6000 X128.843 Y108.337
G1 F900 X131.033 Y110.527 E62.53729
G0 F6000 X131.033 Y111.234
G1 F900 X128.843 Y109.044 E62.66606
G0 F6000 X128.843 Y109.751
G1 F900 X131.033 Y111.942 E62.79485
G0 F6000 X131.033 Y112.649
G1 F900 X128.843 Y110.458 E62.92364
G0 F6000 X128.843 Y111.165
G1 F900 X131.033 Y113.356 E63.05244
G0 F6000 X131.033 Y114.063
G1 F900 X128.843 Y111.872 E63.18123
G0 F6000 X128.843 Y112.579
G1 F900 X131.033 Y114.77 E63.31002
G0 F6000 X131.033 Y115.477
G1 F900 X128.843 Y113.286 E63.43882
G0 F6000 X128.843 Y113.994
G1 F900 X131.033 Y116.184 E63.56758
G0 F6000 X131.033 Y116.891
G1 F900 X128.843 Y114.701 E63.69634
G0 F6000 X128.843 Y115.408
G1 F900 X131.033 Y117.598 E63.82511
G0 F6000 X131.033 Y118.306
G1 F900 X128.843 Y116.115 E63.9539
G0 F6000 X128.843 Y116.822
G1 F900 X131.033 Y119.013 E64.08269
G0 F6000 X131.033 Y119.72
G1 F900 X128.843 Y117.529 E64.21149
G0 F6000 X128.843 Y118.236
G1 F900 X131.033 Y120.427 E64.34028
G0 F6000 X131.033 Y121.134
G1 F900 X128.843 Y118.943 E64.46907
G0 F6000 X128.843 Y119.65
G1 F900 X131.033 Y121.841 E64.59787
G0 F6000 X131.033 Y122.548
G1 F900 X128.843 Y120.358 E64.72663
G0 F6000 X128.843 Y121.065
G1 F900 X131.033 Y123.255 E64.85539
G0 F6000 X131.033 Y123.962
G1 F900 X128.843 Y121.772 E64.98416
G0 F6000 X128.843 Y122.479
G1 F900 X131.033 Y124.669 E65.11292
G0 F6000 X131.033 Y125.377
G1 F900 X128.843 Y123.186 E65.24171
G0 F6000 X128.843 Y123.893
G1 F900 X131.033 Y126.084 E65.37051
G0 F6000 X131.033 Y126.791
G1 F900 X128.843 Y124.6 E65.4993
G0 F6000 X128.843 Y125.307
G1 F900 X131.033 Y127.498 E65.62809
G0 F6000 X131.033 Y128.205
G1 F900 X128.843 Y126.014 E65.75688
G0 F6000 X128.843 Y126.722
G1 F900 X131.033 Y128.912 E65.88565
G0 F6000 X131.033 Y129.619
G1 F900 X128.843 Y127.429 E66.01441
G0 F6000 X128.843 Y128.136
G1 F900 X131.033 Y130.326 E66.14318
G0 F6000 X131.033 Y131.033
G1 F900 X128.843 Y128.843 E66.27194
G0 F6000 X128.843 Y129.55
G1 F900 X131.033 Y131.741 E66.40073
G0 F6000 X131.033 Y132.448
G1 F900 X128.843 Y130.257 E66.52953
G0 F6000 X128.843 Y130.964
G1 F900 X131.033 Y133.155 E66.65832
G0 F6000 X131.033 Y133.862
G1 F900 X128.843 Y131.671 E66.78711
G0 F6000 X128.843 Y132.378
G1 F900 X131.033 Y134.569 E66.9159
G0 F6000 X131.033 Y135.276
G1 F900 X128.843 Y133.085 E67.0447
G0 F6000 X128.843 Y133.793
G1 F900 X131.033 Y135.983 E67.17346
G0 F6000 X131.033 Y136.69
G1 F900 X128.843 Y134.5 E67.30222
G0 F6000 X128.843 Y135.207
G1 F900 X131.033 Y137.397 E67.43099
G0 F6000 X131.033 Y138.105
G1 F900 X128.843 Y135.914 E67.55978
G0 F6000 X128.843 Y136.621
G1 F900 X131.033 Y138.812 E67.68857
G0 F6000 X131.033 Y139.519
G1 F900 X128.843 Y137.328 E67.81737
G0 F6000 X128.843 Y138.035
G1 F900 X131.033 Y140.226 E67.94616
G0 F6000 X131.033 Y140.933
G1 F900 X128.843 Y138.742 E68.07495
G0 F6000 X128.843 Y139.449
G1 F900 X131.033 Y141.64 E68.20375
G0 F6000 X131.033 Y142.347
G1 F900 X128.843 Y140.157 E68.33251
G0 F6000 X128.843 Y140.864
G1 F900 X131.033 Y143.054 E68.46127
G0 F6000 X131.033 Y143.761
G1 F900 X128.843 Y141.571 E68.59004
G0 F6000 X128.843 Y142.278
G1 F900 X131.033 Y144.468 E68.7188
G0 F6000 X131.033 Y145.176
G1 F900 X128.843 Y142.985 E68.84759
G0 F6000 X128.843 Y143.692
G1 F900 X131.033 Y145.883 E68.97639
G0 F6000 X131.033 Y146.59
G1 F900 X128.843 Y144.399 E69.10518
G0 F6000 X128.843 Y145.106
G1 F900 X131.033 Y147.297 E69.23397
G0 F6000 X131.033 Y148.004
G1 F900 X128.843 Y145.813 E69.36277
G0 F6000 X128.843 Y146.521
G1 F900 X131.033 Y148.711 E69.49153
G0 F6000 X131.033 Y149.418
G1 F900 X128.843 Y147.228 E69.62029
G0 F6000 X128.843 Y147.935
G1 F900 X131.033 Y150.125 E69.74906
G0 F6000 X131.033 Y150.832
G1 F900 X128.843 Y148.642 E69.87782
G0 F6000 X128.843 Y149.349
G1 F900 X131.024 Y151.53 E70.00605
G0 F6000 X130.316 Y151.53
G1 F900 X128.843 Y150.056 E70.09269
G0 F6000 X128.843 Y150.763
G1 F900 X129.609 Y151.53 E70.13776
M104 S195
G0 F6000 X129.609 Y152.192
G1 F2100 E69.88776
;MESH:NONMESH
G0 F300 X129.609 Y152.192 Z0.4
G0 F6000 X131.562 Y152.059
G0 X132.095 Y67.508
G0 X132.362 Y67.509
;TIME_ELAPSED:127.433413
;LAYER:1
M106 S255
;TYPE:WALL-INNER
;MESH:bean stick w magnet hole.stl
G1 F2100 E70.13776
G1 F2700 X127.518 Y67.509 E70.29887
G1 X127.518 Y152.491 E73.12538
G1 X132.362 Y152.491 E73.28649
G1 X132.362 Y67.509 E76.11301
G0 F10500 X132.762 Y67.109
G1 F2700 X127.118 Y67.109 E76.30073
G1 X127.118 Y152.891 E79.15385
G1 X132.762 Y152.891 E79.34157
G1 X132.762 Y67.109 E82.19469
G0 F10500 X133.162 Y66.709
;TYPE:WALL-OUTER
G1 F2700 X126.718 Y66.709 E82.40902
G1 X126.718 Y153.291 E85.28875
G1 X133.162 Y153.291 E85.50308
G1 X133.162 Y66.709 E88.3828
G0 F10500 X132.893 Y66.978
G0 X132.002 Y67.869
;TYPE:SKIN
G1 F1950 X132.002 Y152.131 E91.18537
G1 X127.878 Y152.131 E91.32253
G1 X127.878 Y67.869 E94.1251
G1 X132.002 Y67.869 E94.26227
G0 F10500 X128.223 Y68.068
G1 F1950 X128.077 Y68.215 E94.26916
G0 F10500 X128.077 Y68.78
G1 F1950 X128.789 Y68.068 E94.30265
G0 F10500 X129.355 Y68.068
G1 F1950 X128.077 Y69.346 E94.36276
G0 F10500 X128.077 Y69.912
G1 F1950 X129.92 Y68.068 E94.44947
G0 F10500 X130.486 Y68.068
G1 F1950 X128.077 Y70.478 E94.56281
G0 F10500 X128.077 Y71.043
G1 F1950 X131.052 Y68.068 E94.70274
G0 F10500 X131.618 Y68.068
G1 F1950 X128.077 Y71.609 E94.8693
G0 F10500 X128.077 Y72.175
G1 F1950 X131.801 Y68.45 E95.04449
G0 F10500 X131.801 Y69.016
G1 F1950 X128.077 Y72.74 E95.21965
G0 F10500 X128.077 Y73.306
G1 F1950 X131.801 Y69.582 E95.39482
G0 F10500 X131.801 Y70.147
G1 F1950 X128.077 Y73.872 E95.57001
G0 F10500 X128.077 Y74.437
G1 F1950 X131.801 Y70.713 E95.74518
G0 F10500 X131.801 Y71.279
G1 F1950 X128.077 Y75.003 E95.92034
G0 F10500 X128.077 Y75.569
G1 F1950 X131.801 Y71.844 E96.09553
G0 F10500 X131.801 Y72.41
G1 F1950 X128.077 Y76.134 E96.2707
G0 F10500 X128.077 Y76.7
G1 F1950 X131.801 Y72.976 E96.44586
G0 F10500 X131.801 Y73.541
G1 F1950 X128.077 Y77.266 E96.62105
G0 F10500 X128.077 Y77.831
G1 F1950 X131.801 Y74.107 E96.79622
G0 F10500 X131.801 Y74.673
G1 F1950 X128.077 Y78.397 E96.97138
G0 F10500 X128.077 Y78.963
G1 F1950 X131.801 Y75.238 E97.14657
G0 F10500 X131.801 Y75.804
G1 F1950 X128.077 Y79.529 E97.32176
G0 F10500 X128.077 Y80.094
G1 F1950 X131.801 Y76.37 E97.49692
G0 F10500 X131.801 Y76.936
G1 F1950 X128.077 Y80.66 E97.67209
G0 F10500 X128.077 Y81.226
G1 F1950 X131.801 Y77.501 E97.84728
G0 F10500 X131.801 Y78.067
G1 F1950 X128.077 Y81.791 E98.02244
G0 F10500 X128.077 Y82.357
G1 F1950 X131.801 Y78.633 E98.19761
G0 F10500 X131.801 Y79.198
G1 F1950 X128.077 Y82.923 E98.3728
G0 F10500 X128.077 Y83.488
G1 F1950 X131.801 Y79.764 E98.54796
G0 F10500 X131.801 Y80.33
G1 F1950 X128.077 Y84.054 E98.72313
G0 F10500 X128.077 Y84.62
G1 F1950 X131.801 Y80.895 E98.89832
G0 F10500 X131.801 Y81.461
G1 F1950 X128.077 Y85.185 E99.07348
G0 F10500 X128.077 Y85.751
G1 F1950 X131.801 Y82.027 E99.24865
G0 F10500 X131.801 Y82.592
G1 F1950 X128.077 Y86.317 E99.42384
G0 F10500 X128.077 Y86.882
G1 F1950 X131.801 Y83.158 E99.59901
G0 F10500 X131.801 Y83.724
G1 F1950 X128.077 Y87.448 E99.77417
G0 F10500 X128.077 Y88.014
G1 F1950 X131.801 Y84.289 E99.94936
G0 F10500 X131.801 Y84.855
G1 F1950 X128.077 Y88.579 E100.12453
G0 F10500 X128.077 Y89.145
