;FLAVOR:Marlin
;TIME:1821
;Filament used: 1.76755m
;Layer height: 0.2
;MINX:111.815
;MINY:103.372
;MINZ:0.2
;MAXX:148.185
;MAXY:156.628
;MAXZ:25
;POSTPROCESSED
;LINEARADVANCEPROCESSED
;Generated with Cura_SteamEngine 5.2.1
;
;

M82 ;absolute extrusion mode
START_PRINT EXTRUDER_TEMP=220.0 BED_TEMP=60 RELATIVE_E_MODE=False PROBE=false PROBE_AREA_START=%MINX%,%MINY% PROBE_AREA_END=%MAXX%,%MAXY%
G92 E0
G92 E0
G1 F2100 E-5.5
;LAYER_COUNT:125
M900 K0.296000 T0 ;added by LinearAdvanceSettingPlugin
;LAYER:0
M107
G0 F6000 X118.639 Y108.34 Z0.2
;TYPE:SKIRT
G1 F2100 E0
G1 F1200 X119.297 Y107.668 E0.03363
G1 X119.88 Y107.144 E0.06165
G1 X120.117 Y106.943 E0.07277
G1 X120.805 Y106.404 E0.10402
G1 X121.138 Y106.164 E0.11869
G1 X122.109 Y105.539 E0.15998
G1 X122.542 Y105.291 E0.17782
G1 X123.377 Y104.858 E0.21145
G1 X123.851 Y104.651 E0.22994
G1 X124.457 Y104.403 E0.25336
G1 X125.713 Y103.975 E0.3008
G1 X126.532 Y103.765 E0.33103
G1 X126.864 Y103.692 E0.34318
G1 X127.612 Y103.555 E0.37037
G1 X128.464 Y103.445 E0.40109
G1 X128.81 Y103.413 E0.41351
G1 X130.191 Y103.372 E0.46291
G1 X130.804 Y103.392 E0.48484
G1 X132.152 Y103.519 E0.53325
G1 X132.517 Y103.576 E0.54646
G1 X133.288 Y103.719 E0.5745
G1 X134.111 Y103.927 E0.60485
G1 X134.365 Y104 E0.6143
G1 X134.983 Y104.197 E0.63749
G1 X135.304 Y104.31 E0.64966
G1 X135.957 Y104.563 E0.6747
G1 X136.256 Y104.69 E0.68631
G1 X137.311 Y105.206 E0.7283
G1 X137.674 Y105.408 E0.74316
G1 X138.468 Y105.895 E0.77646
G1 X138.822 Y106.133 E0.79171
G1 X139.58 Y106.691 E0.82537
G1 X139.945 Y106.997 E0.8424
G1 X140.351 Y107.353 E0.8617
G1 X141.145 Y108.123 E0.90125
G1 X141.482 Y108.484 E0.91891
G1 X142.183 Y109.312 E0.9577
G1 X142.375 Y109.563 E0.96899
G1 X143.086 Y110.614 E1.01436
G1 X143.384 Y111.113 E1.03514
G1 X143.769 Y111.812 E1.06368
G1 X143.92 Y112.112 E1.07569
G1 X144.427 Y113.283 E1.12131
G1 X144.561 Y113.649 E1.13525
G1 X144.788 Y114.338 E1.16118
G1 X144.959 Y114.94 E1.18356
G1 X145.203 Y115.879 E1.21825
G1 X147.607 Y125.718 E1.58039
G1 X147.779 Y126.463 E1.60772
G1 X147.912 Y127.128 E1.63197
G1 X148.015 Y127.743 E1.65427
G1 X148.152 Y128.987 E1.69902
G1 X148.171 Y129.346 E1.71187
G1 X148.185 Y130.102 E1.7389
G1 X148.181 Y130.361 E1.74817
G1 X148.145 Y131.097 E1.77451
G1 X148.116 Y131.45 E1.78718
G1 X147.948 Y132.665 E1.83103
G1 X147.808 Y133.382 E1.85715
G1 X147.613 Y134.252 E1.88903
G1 X145.144 Y144.364 E2.2612
G1 X144.963 Y145.058 E2.28685
G1 X144.784 Y145.668 E2.30958
G1 X144.636 Y146.126 E2.32679
G1 X144.388 Y146.816 E2.353
G1 X144.269 Y147.115 E2.36451
G1 X143.704 Y148.318 E2.41203
G1 X143.473 Y148.742 E2.42929
G1 X143.146 Y149.304 E2.45254
G1 X142.987 Y149.559 E2.46328
G1 X142.187 Y150.68 E2.51253
G1 X141.876 Y151.063 E2.53017
G1 X141.36 Y151.66 E2.55838
G1 X140.781 Y152.252 E2.58799
G1 X140.125 Y152.853 E2.6198
G1 X139.887 Y153.055 E2.63096
G1 X139.208 Y153.586 E2.66178
G1 X138.876 Y153.826 E2.67643
G1 X137.883 Y154.467 E2.71868
G1 X137.449 Y154.715 E2.73656
G1 X136.613 Y155.147 E2.7702
G1 X136.149 Y155.349 E2.7883
G1 X135.543 Y155.597 E2.81171
G1 X134.287 Y156.025 E2.85915
G1 X133.468 Y156.235 E2.88938
G1 X133.136 Y156.308 E2.90154
G1 X132.388 Y156.445 E2.92873
G1 X131.536 Y156.555 E2.95944
G1 X131.19 Y156.587 E2.97187
G1 X129.809 Y156.628 E3.02126
G1 X129.196 Y156.608 E3.04319
G1 X127.848 Y156.481 E3.0916
G1 X127.483 Y156.424 E3.10481
G1 X126.712 Y156.281 E3.13285
G1 X125.889 Y156.073 E3.1632
G1 X125.635 Y156 E3.17265
G1 X125.017 Y155.803 E3.19584
G1 X124.696 Y155.69 E3.20801
G1 X124.043 Y155.437 E3.23305
G1 X123.744 Y155.31 E3.24466
G1 X122.689 Y154.794 E3.28666
G1 X122.326 Y154.592 E3.30151
G1 X121.538 Y154.109 E3.33455
G1 X121.185 Y153.872 E3.34976
G1 X120.426 Y153.315 E3.38342
G1 X120.054 Y153.002 E3.4008
G1 X119.646 Y152.644 E3.42021
G1 X118.932 Y151.959 E3.45559
G1 X118.689 Y151.704 E3.46818
G1 X118.212 Y151.173 E3.4937
G1 X117.578 Y150.384 E3.52989
G1 X116.918 Y149.393 E3.57246
G1 X116.62 Y148.895 E3.59321
G1 X116.23 Y148.187 E3.62211
G1 X116.079 Y147.887 E3.63412
G1 X115.563 Y146.691 E3.68069
G1 X115.43 Y146.325 E3.69462
G1 X115.215 Y145.671 E3.71923
G1 X115.041 Y145.06 E3.74195
G1 X114.797 Y144.12 E3.77667
G1 X112.357 Y134.128 E4.14443
G1 X112.222 Y133.546 E4.16579
G1 X112.087 Y132.867 E4.19054
G1 X111.984 Y132.25 E4.21291
G1 X111.849 Y131.015 E4.25733
G1 X111.83 Y130.658 E4.27011
G1 X111.815 Y129.898 E4.29729
G1 X111.819 Y129.639 E4.30655
G1 X111.855 Y128.903 E4.3329
G1 X111.884 Y128.55 E4.34556
G1 X112.053 Y127.33 E4.3896
G1 X112.198 Y126.589 E4.4166
G1 X112.307 Y126.094 E4.43472
G1 X114.867 Y115.594 E4.82114
G1 X115.039 Y114.936 E4.84546
G1 X115.216 Y114.332 E4.86796
G1 X115.364 Y113.874 E4.88517
G1 X115.612 Y113.184 E4.91139
G1 X115.731 Y112.885 E4.92289
G1 X116.294 Y111.685 E4.97029
G1 X116.527 Y111.257 E4.98771
G1 X116.891 Y110.637 E5.01342
G1 X117.054 Y110.379 E5.02433
G1 X117.816 Y109.317 E5.07106
G1 X118.121 Y108.941 E5.08837
G1 X118.154 Y108.903 E5.09017
G0 F1080 X118.639 Y108.34
G0 F6000 X118.958 Y108.63
G1 F1200 X119.594 Y107.981 E5.12266
G1 X120.158 Y107.472 E5.14982
G1 X120.395 Y107.271 E5.16094
G1 X121.056 Y106.753 E5.19096
G1 X121.389 Y106.513 E5.20564
G1 X122.322 Y105.912 E5.24532
G1 X122.755 Y105.664 E5.26316
G1 X123.575 Y105.24 E5.29617
G1 X124.014 Y105.049 E5.31328
G1 X124.62 Y104.801 E5.3367
G1 X125.828 Y104.39 E5.38232
G1 X126.624 Y104.185 E5.41171
G1 X126.956 Y104.112 E5.42386
G1 X127.676 Y103.98 E5.45003
G1 X128.504 Y103.873 E5.47989
G1 X128.85 Y103.841 E5.49231
G1 X130.177 Y103.802 E5.53978
G1 X130.79 Y103.822 E5.56171
G1 X132.085 Y103.943 E5.60821
G1 X132.45 Y104 E5.62142
G1 X133.199 Y104.141 E5.64867
G1 X133.992 Y104.34 E5.6779
G1 X134.246 Y104.413 E5.68735
G1 X134.841 Y104.603 E5.70968
G1 X135.162 Y104.716 E5.72185
G1 X135.789 Y104.959 E5.74589
G1 X136.088 Y105.086 E5.75751
G1 X137.102 Y105.582 E5.79787
G1 X137.465 Y105.784 E5.81272
G1 X138.228 Y106.252 E5.84473
G1 X138.582 Y106.49 E5.85998
G1 X139.661 Y107.32 E5.90865
G1 X140.067 Y107.676 E5.92796
G1 X140.83 Y108.416 E5.96596
G1 X141.167 Y108.777 E5.98362
G1 X141.841 Y109.573 E6.02091
G1 X142.033 Y109.824 E6.03221
G1 X142.717 Y110.834 E6.07582
G1 X143.015 Y111.333 E6.09661
G1 X143.384 Y112.005 E6.12402
G1 X143.535 Y112.305 E6.13602
G1 X144.023 Y113.431 E6.1799
G1 X144.157 Y113.797 E6.19384
G1 X144.375 Y114.459 E6.21876
G1 X144.543 Y115.048 E6.24066
G1 X144.785 Y115.981 E6.27512
G1 X147.22 Y125.95 E6.64204
G1 X147.361 Y126.56 E6.66442
G1 X147.488 Y127.199 E6.68772
G1 X147.591 Y127.814 E6.71001
G1 X147.722 Y129.009 E6.753
G1 X147.741 Y129.368 E6.76585
G1 X147.755 Y130.095 E6.79185
G1 X147.751 Y130.354 E6.80111
G1 X147.716 Y131.062 E6.82645
G1 X147.687 Y131.415 E6.83912
G1 X147.526 Y132.583 E6.88127
G1 X147.386 Y133.3 E6.90739
G1 X147.195 Y134.15 E6.93854
G1 X144.768 Y144.093 E7.30449
G1 X144.546 Y144.949 E7.33611
G1 X144.375 Y145.536 E7.35797
G1 X144.227 Y145.994 E7.37518
G1 X143.988 Y146.657 E7.40038
G1 X143.869 Y146.956 E7.41188
G1 X143.327 Y148.113 E7.45757
G1 X143.096 Y148.537 E7.47483
G1 X142.781 Y149.076 E7.49715
G1 X142.622 Y149.331 E7.5079
G1 X141.853 Y150.409 E7.55524
G1 X141.542 Y150.792 E7.57288
G1 X141.042 Y151.371 E7.60023
G1 X140.483 Y151.941 E7.62878
G1 X139.846 Y152.525 E7.65968
G1 X139.608 Y152.727 E7.67084
G1 X138.956 Y153.238 E7.70046
G1 X138.624 Y153.478 E7.71511
G1 X137.669 Y154.093 E7.75572
G1 X137.235 Y154.341 E7.77359
G1 X136.415 Y154.764 E7.80658
G1 X135.986 Y154.951 E7.82331
G1 X135.38 Y155.199 E7.84672
G1 X134.172 Y155.61 E7.89235
G1 X133.376 Y155.815 E7.92174
G1 X133.044 Y155.888 E7.93389
G1 X132.324 Y156.02 E7.96006
G1 X131.496 Y156.127 E7.98991
G1 X131.15 Y156.159 E8.00234
G1 X129.823 Y156.198 E8.04981
G1 X129.21 Y156.178 E8.07173
G1 X127.915 Y156.057 E8.11824
G1 X127.55 Y156 E8.13145
G1 X126.801 Y155.859 E8.1587
G1 X126.008 Y155.66 E8.18793
G1 X125.754 Y155.587 E8.19738
G1 X125.159 Y155.397 E8.21971
G1 X124.838 Y155.284 E8.23188
G1 X124.211 Y155.041 E8.25592
G1 X123.912 Y154.914 E8.26754
G1 X122.898 Y154.418 E8.3079
G1 X122.535 Y154.216 E8.32275
G1 X121.777 Y153.752 E8.35453
G1 X121.424 Y153.515 E8.36973
G1 X120.337 Y152.678 E8.41878
G1 X119.929 Y152.32 E8.43819
G1 X119.244 Y151.663 E8.47213
G1 X119.001 Y151.408 E8.48472
G1 X118.536 Y150.891 E8.50958
G1 X117.923 Y150.127 E8.5446
G1 X117.287 Y149.172 E8.58563
G1 X116.989 Y148.674 E8.60638
G1 X116.615 Y147.994 E8.63413
G1 X116.464 Y147.694 E8.64614
G1 X115.967 Y146.544 E8.69093
G1 X115.834 Y146.178 E8.70485
G1 X115.628 Y145.55 E8.72848
G1 X115.457 Y144.952 E8.75072
G1 X115.215 Y144.018 E8.78522
G1 X112.776 Y134.03 E9.15283
G1 X112.641 Y133.448 E9.17419
G1 X112.511 Y132.796 E9.19796
G1 X112.408 Y132.179 E9.22033
G1 X112.278 Y130.992 E9.26302
G1 X112.259 Y130.635 E9.27581
G1 X112.245 Y129.905 E9.30191
G1 X112.249 Y129.646 E9.31117
G1 X112.284 Y128.938 E9.33652
G1 X112.313 Y128.585 E9.34918
G1 X112.475 Y127.413 E9.39149
G1 X112.62 Y126.672 E9.41848
G1 X112.725 Y126.196 E9.43591
G1 X115.283 Y115.703 E9.82207
G1 X115.455 Y115.045 E9.84639
G1 X115.625 Y114.464 E9.86803
G1 X115.773 Y114.006 E9.88524
G1 X116.012 Y113.343 E9.91044
G1 X116.131 Y113.044 E9.92195
G1 X116.672 Y111.89 E9.96752
G1 X116.905 Y111.462 E9.98494
G1 X117.255 Y110.866 E10.00965
G1 X117.418 Y110.608 E10.02056
G1 X118.15 Y109.588 E10.06545
G1 X118.455 Y109.212 E10.08276
G1 X118.472 Y109.193 E10.08368
G0 F1080 X118.958 Y108.63
G0 F6000 X119.273 Y108.922
G1 F1200 X119.813 Y108.37 E10.11129
G1 X120.436 Y107.799 E10.1415
G1 X120.673 Y107.598 E10.15261
G1 X121.307 Y107.102 E10.18139
G1 X121.64 Y106.862 E10.19607
G1 X122.536 Y106.285 E10.23417
G1 X122.969 Y106.037 E10.25202
G1 X124.177 Y105.447 E10.30008
G1 X124.783 Y105.199 E10.3235
G1 X125.942 Y104.804 E10.36728
G1 X126.716 Y104.605 E10.39585
G1 X127.048 Y104.532 E10.408
G1 X127.739 Y104.405 E10.43312
G1 X128.543 Y104.301 E10.46211
G1 X128.889 Y104.269 E10.47453
G1 X130.163 Y104.231 E10.52011
G1 X130.776 Y104.251 E10.54204
G1 X132.019 Y104.368 E10.58667
G1 X132.384 Y104.425 E10.59988
G1 X133.105 Y104.56 E10.62611
G1 X133.874 Y104.753 E10.65446
G1 X134.128 Y104.826 E10.66391
G1 X134.698 Y105.009 E10.68531
G1 X135.019 Y105.122 E10.69748
G1 X135.621 Y105.355 E10.72056
G1 X135.92 Y105.482 E10.73218
G1 X136.893 Y105.958 E10.7709
G1 X137.256 Y106.16 E10.78576
G1 X137.988 Y106.609 E10.81646
G1 X138.342 Y106.847 E10.83171
G1 X139.378 Y107.643 E10.87843
G1 X139.784 Y107.999 E10.89773
G1 X140.516 Y108.709 E10.93419
G1 X140.853 Y109.07 E10.95185
G1 X141.499 Y109.835 E10.98765
G1 X141.691 Y110.086 E10.99895
G1 X142.348 Y111.055 E11.04081
G1 X142.646 Y111.554 E11.06159
G1 X143 Y112.198 E11.08787
G1 X143.151 Y112.498 E11.09987
G1 X143.619 Y113.579 E11.14199
G1 X143.753 Y113.945 E11.15593
G1 X143.963 Y114.58 E11.17984
G1 X144.127 Y115.157 E11.20129
G1 X144.367 Y116.083 E11.23549
G1 X146.801 Y126.046 E11.60219
G1 X146.942 Y126.656 E11.62458
G1 X147.064 Y127.27 E11.64696
G1 X147.167 Y127.885 E11.66925
G1 X147.293 Y129.032 E11.71051
G1 X147.312 Y129.391 E11.72337
G1 X147.325 Y130.089 E11.74833
G1 X147.321 Y130.348 E11.75759
G1 X147.288 Y131.026 E11.78186
G1 X147.259 Y131.379 E11.79452
G1 X147.104 Y132.501 E11.83502
G1 X146.964 Y133.218 E11.86114
G1 X146.778 Y134.048 E11.89155
G1 X144.351 Y143.991 E12.2575
G1 X144.13 Y144.841 E12.2889
G1 X143.966 Y145.404 E12.30987
G1 X143.818 Y145.862 E12.32708
G1 X143.589 Y146.498 E12.35125
G1 X143.47 Y146.797 E12.36275
G1 X142.949 Y147.907 E12.40659
G1 X142.718 Y148.331 E12.42386
G1 X142.416 Y148.849 E12.4453
G1 X142.257 Y149.104 E12.45604
G1 X141.519 Y150.138 E12.50146
G1 X141.208 Y150.521 E12.5191
G1 X140.726 Y151.079 E12.54547
G1 X140.11 Y151.709 E12.57697
G1 X139.568 Y152.197 E12.60305
G1 X139.33 Y152.399 E12.61421
G1 X138.704 Y152.889 E12.64263
G1 X138.372 Y153.129 E12.65728
G1 X137.456 Y153.72 E12.69626
G1 X137.022 Y153.968 E12.71413
G1 X135.823 Y154.553 E12.76183
G1 X135.217 Y154.801 E12.78524
G1 X134.058 Y155.196 E12.82902
G1 X133.284 Y155.395 E12.85759
G1 X132.952 Y155.468 E12.86975
G1 X132.261 Y155.595 E12.89487
G1 X131.457 Y155.699 E12.92385
G1 X131.111 Y155.731 E12.93628
G1 X129.837 Y155.769 E12.98185
G1 X129.224 Y155.749 E13.00378
G1 X127.981 Y155.632 E13.04842
G1 X127.616 Y155.575 E13.06163
G1 X126.895 Y155.44 E13.08786
G1 X126.126 Y155.247 E13.1162
G1 X125.872 Y155.174 E13.12565
G1 X125.302 Y154.991 E13.14706
G1 X124.981 Y154.878 E13.15922
G1 X124.379 Y154.645 E13.1823
G1 X124.08 Y154.518 E13.19392
G1 X123.107 Y154.042 E13.23265
G1 X122.744 Y153.84 E13.2475
G1 X122.017 Y153.395 E13.27798
G1 X121.664 Y153.158 E13.29318
G1 X120.621 Y152.355 E13.34025
G1 X120.213 Y151.997 E13.35965
G1 X119.555 Y151.366 E13.39225
G1 X119.312 Y151.111 E13.40484
G1 X118.861 Y150.608 E13.429
G1 X118.27 Y149.872 E13.46275
G1 X117.656 Y148.951 E13.50232
G1 X117.358 Y148.453 E13.52307
G1 X116.999 Y147.801 E13.54969
G1 X116.848 Y147.501 E13.5617
G1 X116.371 Y146.397 E13.6047
G1 X116.238 Y146.031 E13.61862
G1 X116.04 Y145.428 E13.64131
G1 X115.873 Y144.843 E13.66306
G1 X115.671 Y144.068 E13.6917
G1 X113.195 Y133.933 E14.06473
G1 X113.06 Y133.351 E14.08609
G1 X112.935 Y132.725 E14.10892
G1 X112.832 Y132.108 E14.13128
G1 X112.707 Y130.969 E14.17225
G1 X112.688 Y130.612 E14.18503
G1 X112.675 Y129.911 E14.2101
G1 X112.679 Y129.652 E14.21936
G1 X112.712 Y128.974 E14.24363
G1 X112.741 Y128.621 E14.2563
G1 X112.897 Y127.495 E14.29694
G1 X113.042 Y126.754 E14.32394
G1 X113.142 Y126.298 E14.34063
G1 X115.657 Y115.977 E14.72045
G1 X115.871 Y115.154 E14.75086
G1 X116.034 Y114.596 E14.77164
G1 X116.182 Y114.138 E14.78885
G1 X116.411 Y113.502 E14.81302
G1 X116.53 Y113.203 E14.82453
G1 X117.049 Y112.096 E14.86824
G1 X117.282 Y111.668 E14.88566
G1 X117.618 Y111.096 E14.90938
G1 X117.781 Y110.838 E14.92029
G1 X118.484 Y109.859 E14.96339
G1 X118.787 Y109.486 E14.98057
G0 F1080 X118.789 Y109.483
G0 X119.273 Y108.922
G1 F2100 E9.48057
;MESH:KATANA-TEST_PRINT.stl
G0 F6000 X132.191 Y114.267
G0 X132.086 Y115.293
;TYPE:WALL-OUTER
G1 F2100 E14.98057
G1 F897.4 X131.74 Y115.104 E14.99942
G1 F895.8 X131.31 Y114.939 E15.02148
G1 F886.6 X131.068 Y114.865 E15.03373
G1 F894.3 X130.553 Y114.756 E15.05898
G1 F892.7 X130.127 Y114.724 E15.07951
G1 F885.1 X129.824 Y114.726 E15.0942
G1 F886.6 X129.572 Y114.744 E15.10643
G1 F889.7 X129.317 Y114.779 E15.11884
G1 X129.068 Y114.829 E15.13109
G1 F891.2 X128.807 Y114.899 E15.1441
G1 F892.7 X128.42 Y115.035 E15.16381
G1 F889.7 X128.134 Y115.172 E15.17911
G1 F892.7 X127.725 Y115.405 E15.20173
G1 F894.3 X127.365 Y115.68 E15.22347
G1 F888.1 X127.165 Y115.859 E15.23643
G1 X126.972 Y116.056 E15.24976
G1 F886.6 X126.798 Y116.259 E15.26269
G1 X126.633 Y116.48 E15.27604
G1 F888.1 X126.487 Y116.706 E15.28904
G1 X126.363 Y116.927 E15.30128
G1 F889.7 X126.128 Y117.451 E15.32898
G1 X126.015 Y117.851 E15.34902
G1 X123.242 Y129.205 E15.91269
G1 F894.3 X123.175 Y129.687 E15.93604
G1 F888.1 X123.171 Y130 E15.95116
G1 F883.6 X123.18 Y130.319 E15.96666
G1 F888.1 X123.233 Y130.73 E15.98668
G1 F889.7 X126.018 Y142.161 E16.55409
G1 F895.8 X126.131 Y142.549 E16.57344
G1 X126.282 Y142.907 E16.59205
G1 F889.7 X126.494 Y143.304 E16.61376
G1 F888.1 X126.763 Y143.708 E16.6372
G1 F886.6 X127.118 Y144.095 E16.66262
G1 F883.6 X127.382 Y144.334 E16.67991
G1 F888.1 X127.682 Y144.56 E16.69806
G1 F889.7 X127.912 Y144.706 E16.7112
G1 X128.148 Y144.835 E16.72417
G1 F892.7 X128.395 Y144.95 E16.73726
G1 F889.7 X128.648 Y145.048 E16.75035
G1 F886.6 X128.931 Y145.134 E16.76466
G1 F885.1 X129.179 Y145.192 E16.77701
G1 F891.2 X129.447 Y145.244 E16.79015
G1 F894.3 X129.873 Y145.276 E16.81065
G1 F888.1 X130.176 Y145.274 E16.82528
G1 X130.428 Y145.256 E16.83749
G1 F889.7 X130.683 Y145.221 E16.8499
G1 X130.932 Y145.171 E16.86215
G1 F891.2 X131.193 Y145.101 E16.87516
G1 F895.8 X131.58 Y144.965 E16.89481
G1 F891.2 X131.866 Y144.828 E16.91007
G1 F892.7 X132.275 Y144.595 E16.9327
G1 F895.8 X132.635 Y144.32 E16.95439
G1 F888.1 X132.835 Y144.141 E16.96736
G1 X133.028 Y143.944 E16.98068
G1 X133.202 Y143.741 E16.9936
G1 F886.6 X133.366 Y143.522 E17.00684
G1 F888.1 X133.504 Y143.31 E17.01906
G1 F891.2 X133.637 Y143.073 E17.03215
G1 F892.7 X133.826 Y142.657 E17.05411
G1 F891.2 X133.909 Y142.419 E17.06624
