;FLAVOR:Marlin
;TIME:2918
;Filament used: 1.27567m
;Layer height: 0.2
;MINX:107.184
;MINY:109.5
;MINZ:0.2
;MAXX:154.15
;MAXY:153.048
;MAXZ:40
;POSTPROCESSED
;Generated with Cura_SteamEngine 5.2.1
;
;

M82 ;absolute extrusion mode
START_PRINT EXTRUDER_TEMP=200 BED_TEMP=50 RELATIVE_E_MODE=False PROBE=false PROBE_AREA_START=%MINX%,%MINY% PROBE_AREA_END=%MAXX%,%MAXY%
G92 E0
G92 E0
G1 F1500 E-4.5
;LAYER_COUNT:200
;LAYER:0
M106 S63.8
G0 F6000 X112.671 Y116.969 Z0.2
;TYPE:SKIRT
G1 F1500 E0
G1 F1200 X113.475 Y116.229 E0.03634
G1 X114.257 Y115.624 E0.06923
G1 X114.743 Y115.278 E0.08907
G1 X115.53 Y114.767 E0.12028
G1 X115.996 Y114.507 E0.13803
G1 X116.634 Y114.182 E0.16184
G1 X116.925 Y114.044 E0.17256
G1 X118.181 Y113.54 E0.21757
G1 X118.622 Y113.394 E0.23302
G1 X119.523 Y113.138 E0.26417
G1 X119.837 Y113.063 E0.27491
G1 X120.54 Y112.919 E0.29878
G1 X121.696 Y112.721 E0.33779
G1 X124.179 Y112.263 E0.42176
G1 X126.618 Y111.742 E0.50472
G1 X129.118 Y111.133 E0.5903
G1 X131.559 Y110.464 E0.67448
G1 X132.628 Y110.145 E0.71158
G1 X133.173 Y109.997 E0.73037
G1 X133.646 Y109.882 E0.74656
G1 X134.325 Y109.74 E0.76963
G1 X134.686 Y109.676 E0.78182
G1 X135.615 Y109.552 E0.813
G1 X136.235 Y109.513 E0.83366
G1 X136.62 Y109.5 E0.84647
G1 X137.968 Y109.538 E0.89132
G1 X138.394 Y109.576 E0.90555
G1 X139.324 Y109.699 E0.93675
G1 X139.826 Y109.799 E0.95377
G1 X140.227 Y109.889 E0.96744
G1 X141.132 Y110.133 E0.99862
G1 X141.926 Y110.412 E1.02661
G1 X142.821 Y110.785 E1.05886
G1 X143.356 Y111.036 E1.07851
G1 X144.187 Y111.47 E1.1097
G1 X144.637 Y111.744 E1.12722
G1 X145.027 Y111.995 E1.14264
G1 X145.655 Y112.431 E1.16807
G1 X145.955 Y112.655 E1.18053
G1 X146.628 Y113.2 E1.20933
G1 X146.848 Y113.393 E1.21906
G1 X147.403 Y113.914 E1.24438
G1 X148.039 Y114.555 E1.27441
G1 X148.649 Y115.224 E1.30453
G1 X149.061 Y115.714 E1.32582
G1 X149.492 Y116.26 E1.34896
G1 X149.898 Y116.81 E1.37169
G1 X150.575 Y117.844 E1.4128
G1 X151.042 Y118.653 E1.44387
G1 X151.379 Y119.272 E1.46731
G1 X151.632 Y119.779 E1.48616
G1 X152.029 Y120.627 E1.5173
G1 X152.217 Y121.05 E1.53269
G1 X152.545 Y121.835 E1.56099
G1 X152.778 Y122.432 E1.58231
G1 X153.058 Y123.259 E1.61135
G1 X153.361 Y124.29 E1.64709
G1 X153.517 Y124.882 E1.66745
G1 X153.626 Y125.347 E1.68333
G1 X153.751 Y125.96 E1.70414
G1 X153.85 Y126.556 E1.72424
G1 X153.96 Y127.325 E1.75007
G1 X154.022 Y127.848 E1.76759
G1 X154.07 Y128.356 E1.78456
G1 X154.106 Y128.855 E1.8012
G1 X154.137 Y129.49 E1.82235
G1 X154.15 Y130.09 E1.84231
G1 X154.145 Y130.956 E1.87111
G1 X154.122 Y131.61 E1.89288
G1 X154.077 Y132.298 E1.91581
G1 X153.991 Y133.232 E1.94701
G1 X153.923 Y133.787 E1.9656
G1 X153.731 Y135.075 E2.00892
G1 X153.591 Y135.878 E2.03603
G1 X153.469 Y136.461 E2.05584
G1 X153.195 Y137.617 E2.09535
G1 X152.973 Y138.438 E2.12364
G1 X152.811 Y138.958 E2.14175
G1 X152.582 Y139.633 E2.16546
G1 X152.364 Y140.22 E2.18629
G1 X152.265 Y140.465 E2.19508
G1 X151.851 Y141.368 E2.22812
G1 X151.584 Y141.888 E2.24756
G1 X151.351 Y142.319 E2.26385
G1 X151.102 Y142.755 E2.28055
G1 X150.75 Y143.331 E2.30301
G1 X150.554 Y143.63 E2.3149
G1 X150.132 Y144.239 E2.33954
G1 X149.804 Y144.683 E2.3579
G1 X149.361 Y145.251 E2.38186
G1 X148.966 Y145.736 E2.40266
G1 X148.597 Y146.162 E2.42141
G1 X148.22 Y146.575 E2.44001
G1 X147.836 Y146.976 E2.45847
G1 X147.531 Y147.278 E2.47275
G1 X146.928 Y147.832 E2.49998
G1 X146.392 Y148.289 E2.52341
G1 X145.653 Y148.866 E2.5546
G1 X144.994 Y149.302 E2.58088
G1 X144.443 Y149.639 E2.60236
G1 X143.804 Y150.001 E2.62679
G1 X143.504 Y150.158 E2.63805
G1 X142.84 Y150.478 E2.66256
G1 X142.25 Y150.738 E2.68401
G1 X141.585 Y151.005 E2.70784
G1 X140.443 Y151.417 E2.74822
G1 X139.253 Y151.813 E2.78993
G1 X138.777 Y151.96 E2.8065
G1 X137.986 Y152.184 E2.83385
G1 X137.387 Y152.336 E2.8544
G1 X136.393 Y152.558 E2.88828
G1 X135.794 Y152.674 E2.90857
G1 X134.877 Y152.826 E2.93949
G1 X134.067 Y152.936 E2.96667
G1 X133.304 Y153.005 E2.99215
G1 X132.474 Y153.04 E3.01979
G1 X131.618 Y153.048 E3.04826
G1 X130.936 Y153.033 E3.07095
G1 X129.057 Y152.934 E3.13353
G1 X127.614 Y152.814 E3.18169
G1 X127.216 Y152.772 E3.195
G1 X126.019 Y152.623 E3.23512
G1 X125.374 Y152.523 E3.25683
G1 X124.597 Y152.379 E3.28311
G1 X123.983 Y152.252 E3.30397
G1 X123.349 Y152.096 E3.32568
G1 X122.323 Y151.812 E3.36109
G1 X121.39 Y151.509 E3.39372
G1 X120.575 Y151.203 E3.42267
G1 X119.912 Y150.929 E3.44653
G1 X119.496 Y150.741 E3.46172
G1 X118.829 Y150.418 E3.48636
G1 X118.414 Y150.202 E3.50192
G1 X117.833 Y149.876 E3.52408
G1 X117.399 Y149.619 E3.54086
G1 X116.823 Y149.253 E3.56356
G1 X116.084 Y148.751 E3.59327
G1 X115.276 Y148.147 E3.62682
G1 X114.43 Y147.451 E3.66326
G1 X113.982 Y147.061 E3.68302
G1 X113.715 Y146.816 E3.69507
G1 X113.257 Y146.371 E3.71631
G1 X112.704 Y145.801 E3.74272
G1 X112.235 Y145.291 E3.76577
G1 X111.787 Y144.761 E3.78885
G1 X111.459 Y144.347 E3.80642
G1 X111.134 Y143.915 E3.8244
G1 X110.712 Y143.325 E3.84852
G1 X110.402 Y142.872 E3.86678
G1 X109.971 Y142.174 E3.89407
G1 X109.621 Y141.557 E3.91766
G1 X109.164 Y140.657 E3.95123
G1 X108.81 Y139.873 E3.97984
G1 X108.404 Y138.839 E4.01679
G1 X108.189 Y138.197 E4.03931
G1 X107.909 Y137.209 E4.07346
G1 X107.76 Y136.572 E4.09522
G1 X107.627 Y135.913 E4.11758
G1 X107.508 Y135.214 E4.14116
G1 X107.446 Y134.802 E4.15502
G1 X107.34 Y133.996 E4.18206
G1 X107.27 Y133.29 E4.20566
G1 X107.223 Y132.581 E4.22929
G1 X107.196 Y131.997 E4.24874
G1 X107.184 Y131.018 E4.2813
G1 X107.192 Y130.521 E4.29783
G1 X107.223 Y129.898 E4.31858
G1 X107.299 Y128.878 E4.3526
G1 X107.407 Y127.957 E4.38344
G1 X107.459 Y127.632 E4.39439
G1 X107.601 Y126.902 E4.41912
G1 X107.773 Y126.155 E4.44462
G1 X107.993 Y125.343 E4.4726
G1 X108.192 Y124.706 E4.4948
G1 X108.406 Y124.073 E4.51702
G1 X108.846 Y122.896 E4.55881
G1 X109.075 Y122.339 E4.57884
G1 X109.293 Y121.847 E4.59674
G1 X109.622 Y121.168 E4.62184
G1 X109.745 Y120.935 E4.6306
G1 X110.083 Y120.341 E4.65333
G1 X110.446 Y119.746 E4.67651
G1 X111.031 Y118.881 E4.71124
G1 X111.368 Y118.431 E4.72994
G1 X111.962 Y117.705 E4.76114
G1 X112.369 Y117.273 E4.78088
G1 X112.671 Y116.969 E4.79514
G0 F6000 X112.955 Y117.25
G1 F1200 X113.733 Y116.536 E4.83026
G1 X114.489 Y115.95 E4.86207
G1 X114.975 Y115.604 E4.88191
G1 X115.748 Y115.103 E4.91255
G1 X116.183 Y114.861 E4.92911
G1 X116.805 Y114.543 E4.95234
G1 X117.096 Y114.405 E4.96305
G1 X118.307 Y113.92 E5.00644
G1 X118.748 Y113.774 E5.02189
G1 X119.616 Y113.527 E5.05191
G1 X119.93 Y113.452 E5.06265
G1 X120.607 Y113.314 E5.08563
G1 X121.683 Y113.13 E5.12193
G1 X124.27 Y112.653 E5.20943
G1 X126.725 Y112.128 E5.29293
G1 X129.214 Y111.522 E5.37813
G1 X131.651 Y110.854 E5.46218
G1 X132.743 Y110.528 E5.50008
G1 X133.268 Y110.386 E5.51817
G1 X133.741 Y110.271 E5.53436
G1 X134.395 Y110.134 E5.55658
G1 X134.756 Y110.07 E5.56878
G1 X135.668 Y109.949 E5.59938
G1 X136.248 Y109.913 E5.61871
G1 X136.633 Y109.9 E5.63152
G1 X137.933 Y109.936 E5.67477
G1 X138.359 Y109.974 E5.689
G1 X139.271 Y110.095 E5.7196
G1 X140.139 Y110.279 E5.74911
G1 X141.457 Y110.666 E5.7948
G1 X141.788 Y110.787 E5.80652
G1 X142.651 Y111.147 E5.83762
G1 X143.186 Y111.398 E5.85727
G1 X144.002 Y111.825 E5.8879
G1 X144.421 Y112.08 E5.90422
G1 X144.811 Y112.331 E5.91964
G1 X145.416 Y112.751 E5.94414
G1 X145.716 Y112.975 E5.95659
G1 X146.364 Y113.501 E5.98435
G1 X146.584 Y113.694 E5.99409
G1 X147.119 Y114.196 E6.01849
G1 X147.755 Y114.837 E6.04852
G1 X148.343 Y115.481 E6.07753
G1 X148.755 Y115.971 E6.09882
G1 X149.17 Y116.498 E6.12113
G1 X149.576 Y117.048 E6.14387
G1 X150.228 Y118.044 E6.18346
G1 X150.695 Y118.853 E6.21453
G1 X151.026 Y119.46 E6.23752
G1 X151.27 Y119.949 E6.2557
G1 X151.667 Y120.797 E6.28684
G1 X151.848 Y121.204 E6.30166
G1 X152.176 Y121.989 E6.32995
G1 X152.405 Y122.574 E6.35085
G1 X152.674 Y123.372 E6.37886
G1 X152.977 Y124.403 E6.4146
G1 X153.127 Y124.973 E6.4342
G1 X153.236 Y125.438 E6.45009
G1 X153.357 Y126.029 E6.47015
G1 X153.454 Y126.613 E6.48984
G1 X153.564 Y127.382 E6.51568
G1 X153.624 Y127.886 E6.53256
G1 X153.672 Y128.394 E6.54953
G1 X153.706 Y128.874 E6.56554
G1 X153.737 Y129.509 E6.58668
G1 X153.75 Y130.087 E6.60591
G1 X153.745 Y130.953 E6.63472
G1 X153.722 Y131.584 E6.65572
G1 X153.65 Y132.608 E6.68986
G1 X153.593 Y133.193 E6.70941
G1 X153.527 Y133.728 E6.72734
G1 X153.335 Y135.016 E6.77065
G1 X153.197 Y135.807 E6.79736
G1 X153.08 Y136.369 E6.81645
G1 X152.806 Y137.525 E6.85596
G1 X152.588 Y138.328 E6.88364
G1 X152.432 Y138.83 E6.90112
G1 X152.203 Y139.505 E6.92483
G1 X151.993 Y140.07 E6.94488
G1 X151.894 Y140.315 E6.95367
G1 X151.496 Y141.186 E6.98552
G1 X151.229 Y141.706 E7.00496
G1 X151.004 Y142.121 E7.02066
G1 X150.755 Y142.557 E7.03736
G1 X150.415 Y143.111 E7.05898
G1 X150.029 Y143.69 E7.08212
G1 X149.805 Y144.009 E7.09509
G1 X149.488 Y144.437 E7.1128
G1 X149.045 Y145.005 E7.13676
G1 X148.657 Y145.482 E7.15721
G1 X148.302 Y145.892 E7.17525
G1 X147.925 Y146.305 E7.19385
G1 X147.554 Y146.691 E7.21166
G1 X147.249 Y146.993 E7.22593
G1 X146.668 Y147.527 E7.25218
G1 X146.132 Y147.984 E7.27561
G1 X145.406 Y148.55 E7.30622
G1 X144.786 Y148.961 E7.33097
G1 X144.235 Y149.298 E7.35245
G1 X143.619 Y149.647 E7.376
G1 X143.319 Y149.804 E7.38726
G1 X142.679 Y150.112 E7.41088
G1 X142.089 Y150.372 E7.43233
G1 X141.448 Y150.63 E7.45531
G1 X140.317 Y151.038 E7.4953
G1 X139.127 Y151.434 E7.53701
G1 X138.668 Y151.575 E7.55298
G1 X137.877 Y151.799 E7.58032
G1 X137.299 Y151.945 E7.60015
G1 X136.305 Y152.167 E7.63403
G1 X135.728 Y152.279 E7.65358
G1 X134.811 Y152.431 E7.68449
G1 X134.018 Y152.539 E7.71111
G1 X133.282 Y152.606 E7.73569
G1 X132.47 Y152.64 E7.76272
G1 X131.614 Y152.648 E7.7912
G1 X130.957 Y152.633 E7.81305
G1 X128.71 Y152.509 E7.8879
G1 X127.649 Y152.416 E7.92333
G1 X127.266 Y152.375 E7.93614
G1 X126.069 Y152.226 E7.97626
G1 X125.446 Y152.13 E7.99722
G1 X124.669 Y151.986 E8.02351
G1 X124.066 Y151.861 E8.04399
G1 X123.455 Y151.711 E8.06491
G1 X122.429 Y151.427 E8.10032
G1 X121.531 Y151.135 E8.13173
G1 X120.716 Y150.829 E8.16068
G1 X120.077 Y150.564 E8.18369
G1 X119.322 Y150.216 E8.21134
G1 X118.607 Y149.851 E8.23804
G1 X118.037 Y149.532 E8.25977
G1 X117.603 Y149.275 E8.27654
G1 X117.048 Y148.922 E8.29842
G1 X116.309 Y148.42 E8.32813
G1 X115.531 Y147.838 E8.36045
G1 X114.685 Y147.142 E8.39689
G1 X114.252 Y146.766 E8.41596
G1 X113.985 Y146.521 E8.42801
G1 X113.544 Y146.092 E8.44848
G1 X112.991 Y145.522 E8.47489
G1 X112.532 Y145.023 E8.49744
G1 X112.101 Y144.513 E8.51965
G1 X111.773 Y144.099 E8.53722
G1 X111.459 Y143.683 E8.55455
G1 X111.037 Y143.093 E8.57868
G1 X110.734 Y142.65 E8.59653
G1 X110.319 Y141.977 E8.62283
G1 X109.969 Y141.36 E8.64642
G1 X109.528 Y140.492 E8.6788
G1 X109.174 Y139.708 E8.70741
G1 X108.784 Y138.712 E8.74299
G1 X108.569 Y138.07 E8.76551
G1 X108.299 Y137.118 E8.79842
G1 X108.15 Y136.481 E8.82018
G1 X108.021 Y135.846 E8.84173
G1 X107.842 Y134.75 E8.87867
G1 X107.736 Y133.944 E8.90571
G1 X107.669 Y133.263 E8.92847
G1 X107.622 Y132.554 E8.9521
G1 X107.596 Y131.982 E8.97114
G1 X107.584 Y131.015 E9.00331
G1 X107.592 Y130.536 E9.01924
G1 X107.622 Y129.927 E9.03952
G1 X107.698 Y128.907 E9.07354
G1 X107.802 Y128.02 E9.10325
G1 X107.854 Y127.695 E9.11419
G1 X107.991 Y126.992 E9.13801
G1 X108.163 Y126.245 E9.16351
G1 X108.375 Y125.462 E9.19049
G1 X108.574 Y124.825 E9.21269
G1 X108.784 Y124.203 E9.23452
G1 X109.22 Y123.038 E9.27589
G1 X109.441 Y122.501 E9.29521
G1 X109.659 Y122.009 E9.31311
G1 X109.976 Y121.354 E9.33731
G1 X110.099 Y121.121 E9.34607
G1 X110.424 Y120.549 E9.36795
G1 X110.787 Y119.954 E9.39114
G1 X111.351 Y119.121 E9.42459
G1 X111.688 Y118.671 E9.44329
G1 X112.272 Y117.959 E9.47392
G1 X112.653 Y117.554 E9.49242
G1 X112.955 Y117.25 E9.50667
G0 F6000 X113.239 Y117.532
G1 F1200 X113.99 Y116.842 E9.54059
G1 X114.721 Y116.276 E9.57134
G1 X115.207 Y115.93 E9.59118
G1 X115.965 Y115.439 E9.62122
G1 X116.369 Y115.215 E9.63658
G1 X116.976 Y114.905 E9.65925
G1 X117.267 Y114.767 E9.66996
G1 X118.432 Y114.3 E9.71171
G1 X118.873 Y114.154 E9.72716
G1 X119.709 Y113.916 E9.75607
G1 X120.023 Y113.841 E9.76681
G1 X120.674 Y113.708 E9.78891
G1 X121.758 Y113.523 E9.82548
G1 X124.348 Y113.045 E9.91308
G1 X126.839 Y112.513 E9.9978
G1 X129.277 Y111.919 E10.08126
G1 X131.774 Y111.234 E10.16738
G1 X132.857 Y110.911 E10.20497
G1 X133.362 Y110.775 E10.22236
G1 X133.835 Y110.66 E10.23855
G1 X134.464 Y110.528 E10.25993
G1 X134.825 Y110.464 E10.27212
G1 X135.721 Y110.345 E10.30219
G1 X136.262 Y110.313 E10.32021
G1 X136.647 Y110.3 E10.33302
G1 X137.897 Y110.334 E10.37461
G1 X138.323 Y110.372 E10.38884
G1 X139.651 Y110.58 E10.43355
G1 X140.052 Y110.67 E10.44722
G1 X141.32 Y111.042 E10.49117
G1 X141.651 Y111.163 E10.50289
G1 X142.481 Y111.509 E10.5328
G1 X143.016 Y111.76 E10.55245
G1 X143.816 Y112.179 E10.58249
G1 X144.594 Y112.668 E10.61305
G1 X145.177 Y113.072 E10.63664
G1 X145.477 Y113.296 E10.6491
G1 X146.101 Y113.801 E10.6758
G1 X146.321 Y113.994 E10.68553
G1 X146.835 Y114.478 E10.70901
G1 X147.471 Y115.119 E10.73905
G1 X148.037 Y115.739 E10.76697
G1 X148.449 Y116.229 E10.78826
G1 X148.848 Y116.735 E10.80969
G1 X149.254 Y117.285 E10.83243
G1 X149.882 Y118.244 E10.87056
G1 X150.349 Y119.053 E10.90163
G1 X150.673 Y119.648 E10.92416
G1 X150.908 Y120.118 E10.94164
G1 X151.305 Y120.966 E10.97278
G1 X151.478 Y121.359 E10.98706
G1 X151.806 Y122.144 E11.01536
G1 X152.031 Y122.717 E11.03583
G1 X152.29 Y123.485 E11.06279
G1 X152.593 Y124.516 E11.09853
G1 X152.738 Y125.064 E11.11739
G1 X152.847 Y125.529 E11.13327
G1 X152.963 Y126.098 E11.15258
G1 X153.058 Y126.67 E11.17187
G1 X153.168 Y127.439 E11.19771
G1 X153.226 Y127.923 E11.21392
G1 X153.274 Y128.431 E11.23089
G1 X153.307 Y128.894 E11.24633
G1 X153.338 Y129.529 E11.26748
G1 X153.35 Y130.085 E11.28597
G1 X153.345 Y130.951 E11.31478
G1 X153.323 Y131.558 E11.33498
G1 X153.252 Y132.569 E11.36869
G1 X153.195 Y133.154 E11.38824
G1 X153.132 Y133.669 E11.40549
G1 X152.94 Y134.957 E11.44881
G1 X152.804 Y135.736 E11.47511
G1 X152.691 Y136.276 E11.49346
G1 X152.417 Y137.432 E11.53297
G1 X152.204 Y138.219 E11.56009
G1 X152.053 Y138.701 E11.57689
G1 X151.824 Y139.376 E11.6006
G1 X151.622 Y139.92 E11.6199
G1 X151.523 Y140.165 E11.62869
G1 X151.14 Y141.003 E11.65933
G1 X150.873 Y141.523 E11.67877
G1 X150.407 Y142.358 E11.71058
G1 X150.081 Y142.892 E11.73139
G1 X149.702 Y143.461 E11.75412
G1 X149.478 Y143.78 E11.76709
G1 X149.173 Y144.191 E11.78411
G1 X148.73 Y144.759 E11.80807
G1 X148.348 Y145.228 E11.82819
G1 X148.006 Y145.623 E11.84557
G1 X147.629 Y146.036 E11.86417
G1 X147.273 Y146.407 E11.88127
G1 X146.968 Y146.709 E11.89554
G1 X146.409 Y147.223 E11.9208
G1 X145.873 Y147.68 E11.94423
G1 X145.16 Y148.235 E11.97428
G1 X144.577 Y148.62 E11.99752
G1 X144.026 Y148.957 E12.019
G1 X143.433 Y149.292 E12.04165
G1 X143.133 Y149.449 E12.05291
G1 X142.517 Y149.746 E12.07566
G1 X141.927 Y150.006 E12.0971
G1 X141.311 Y150.254 E12.11919
G1 X140.467 Y150.562 E12.14907
G1 X139.001 Y151.054 E12.2005
G1 X138.559 Y151.19 E12.21589
G1 X137.768 Y151.414 E12.24323
G1 X137.212 Y151.555 E12.26231
G1 X136.218 Y151.777 E12.29618
G1 X135.663 Y151.885 E12.31499
G1 X134.746 Y152.037 E12.3459
G1 X133.968 Y152.142 E12.37201
G1 X133.26 Y152.206 E12.39566
G1 X132.466 Y152.24 E12.42209
G1 X131.61 Y152.248 E12.45056
G1 X130.978 Y152.234 E12.47159
G1 X129.099 Y152.135 E12.53417
G1 X127.684 Y152.017 E12.5814
G1 X127.315 Y151.978 E12.59374
G1 X126.118 Y151.829 E12.63386
G1 X125.519 Y151.736 E12.65402
G1 X124.468 Y151.538 E12.68959
G1 X124.15 Y151.47 E12.70041
G1 X123.562 Y151.325 E12.72055
G1 X122.536 Y151.041 E12.75596
G1 X121.672 Y150.76 E12.78618
G1 X120.857 Y150.454 E12.81513
G1 X120.241 Y150.2 E12.83729
G1 X119.825 Y150.012 E12.85248
G1 X119.184 Y149.702 E12.87616
G1 X118.799 Y149.5 E12.89062
G1 X118.241 Y149.188 E12.91188
G1 X117.807 Y148.931 E12.92866
G1 X117.272 Y148.591 E12.94974
G1 X116.533 Y148.089 E12.97946
G1 X115.785 Y147.529 E13.01053
G1 X114.939 Y146.833 E13.04697
G1 X114.523 Y146.471 E13.06531
G1 X114.256 Y146.226 E13.07736
G1 X113.831 Y145.813 E13.09708
G1 X113.278 Y145.243 E13.12349
G1 X112.829 Y144.755 E13.14555
G1 X112.414 Y144.264 E13.16693
G1 X112.086 Y143.85 E13.1845
G1 X111.785 Y143.45 E13.20115
