;FLAVOR:Marlin
;TIME:3470
;Filament used: 3.84618m
;Layer height: 0.32
;MINX:83.55
;MINY:80.5
;MINZ:0.32
;MAXX:176.45
;MAXY:139.5
;MAXZ:8
;POSTPROCESSED
;Generated with Cura_SteamEngine 5.3.1
;
;

M82 ;absolute extrusion mode
START_PRINT EXTRUDER_TEMP=250.0 BED_TEMP=90 RELATIVE_E_MODE=False PROBE=alse PROBE_AREA_START=%MINX%,%MINY% PROBE_AREA_END=%MAXX%,%MAXY%
G92 E0
G92 E0
G1 F1500 E-6.5
;LAYER_COUNT:25
;LAYER:0
M107
G0 F6000 X87.539 Y89.519 Z0.32
;TYPE:SKIRT
G1 F1500 E0
G1 F900 X87.841 Y89.234 E0.02762
G1 X88.226 Y88.902 E0.06144
G1 X88.926 Y88.362 E0.12025
G1 X89.786 Y87.82 E0.18787
G1 X90.677 Y87.375 E0.25412
G1 X91.623 Y87.014 E0.32147
G1 X92.592 Y86.749 E0.3883
G1 X93.598 Y86.58 E0.45616
G1 X94.464 Y86.519 E0.51391
G1 X95.213 Y86.5 E0.56375
G1 X128.625 Y86.5 E2.78632
G1 X129.323 Y86.51 E2.83276
G1 X130.449 Y86.586 E2.90783
G1 X131.191 Y86.65 E2.95737
G1 X133.918 Y86.807 E3.13907
G1 X136.69 Y86.888 E3.32354
G1 X139.461 Y86.89 E3.50787
G1 X142.197 Y86.815 E3.68994
G1 X144.999 Y86.66 E3.87662
G1 X147.727 Y86.43 E4.05873
G1 X150.482 Y86.12 E4.24315
G1 X153.226 Y85.732 E4.42749
G1 X155.929 Y85.271 E4.60989
G1 X158.65 Y84.729 E4.79445
G1 X161.346 Y84.11 E4.97846
G1 X164.029 Y83.414 E5.16284
G1 X167.373 Y82.434 E5.39464
G1 X169.433 Y81.79 E5.53821
G1 X170.061 Y81.604 E5.58178
G1 X170.611 Y81.513 E5.61886
G1 X170.899 Y81.503 E5.63803
G1 X172.525 Y81.5 E5.74619
G1 X173.223 Y81.51 E5.79263
G1 X173.645 Y81.556 E5.82087
G1 X174.05 Y81.68 E5.84904
G1 X174.424 Y81.878 E5.87719
G1 X174.755 Y82.143 E5.9054
G1 X175.031 Y82.465 E5.93361
G1 X175.241 Y82.833 E5.96179
G1 X175.379 Y83.234 E5.99
G1 X175.44 Y83.697 E6.02107
G1 X175.45 Y84.08 E6.04655
G1 X175.45 Y113.078 E7.97551
G1 X175.439 Y113.785 E8.02254
G1 X175.388 Y114.225 E8.05201
G1 X175.136 Y115.393 E8.13149
G1 X174.596 Y118.092 E8.31459
G1 X174.13 Y120.816 E8.49842
G1 X173.739 Y123.565 E8.68313
G1 X173.426 Y126.323 E8.86777
G1 X173.191 Y129.097 E9.05296
G1 X173.037 Y131.821 E9.23445
G1 X172.972 Y134.884 E9.43824
G1 X172.958 Y135.007 E9.44648
G1 X172.94 Y136.273 E9.5307
G1 X172.894 Y136.694 E9.55887
G1 X172.77 Y137.1 E9.58711
G1 X172.572 Y137.474 E9.61526
G1 X172.307 Y137.805 E9.64347
G1 X171.985 Y138.081 E9.67168
G1 X171.617 Y138.291 E9.69986
G1 X171.216 Y138.429 E9.72807
G1 X170.753 Y138.49 E9.75914
G1 X170.37 Y138.5 E9.78462
G1 X131.375 Y138.5 E12.37858
G1 X130.671 Y138.49 E12.42542
G1 X130.046 Y138.392 E12.4675
G1 X129.224 Y138.141 E12.52467
G1 X128.082 Y137.774 E12.60447
G1 X125.481 Y137.017 E12.78466
G1 X122.75 Y136.306 E12.97239
G1 X120.089 Y135.693 E13.15403
G1 X117.365 Y135.148 E13.33882
G1 X114.614 Y134.676 E13.5245
G1 X111.94 Y134.295 E13.70417
G1 X109.152 Y133.979 E13.89081
G1 X106.388 Y133.743 E14.07534
G1 X103.658 Y133.588 E14.25724
G1 X100.882 Y133.51 E14.44197
G1 X99.481 Y133.5 E14.53517
G1 X87.475 Y133.5 E15.33381
G1 X86.777 Y133.49 E15.38025
G1 X86.355 Y133.444 E15.40848
G1 X85.95 Y133.32 E15.43666
G1 X85.576 Y133.122 E15.46481
G1 X85.245 Y132.857 E15.49301
G1 X84.969 Y132.535 E15.52123
G1 X84.759 Y132.167 E15.54941
G1 X84.621 Y131.766 E15.57762
G1 X84.56 Y131.301 E15.60882
G1 X84.55 Y130.908 E15.63497
G1 X84.55 Y97.327 E17.86879
G1 X84.562 Y96.445 E17.92746
G1 X84.6 Y95.866 E17.96606
G1 X84.71 Y94.984 E18.02519
G1 X84.942 Y93.977 E18.09393
G1 X85.257 Y93.031 E18.16025
G1 X85.674 Y92.101 E18.22805
G1 X86.162 Y91.248 E18.29342
G1 X86.76 Y90.405 E18.36217
G1 X87.539 Y89.519 E18.44065
G0 F6000 X87.196 Y89.155
G1 F900 X87.514 Y88.855 E18.46973
G1 X87.899 Y88.523 E18.50355
G1 X88.659 Y87.939 E18.56731
G1 X89.519 Y87.397 E18.63493
G1 X90.499 Y86.908 E18.70778
G1 X91.445 Y86.547 E18.77514
G1 X92.509 Y86.256 E18.84851
G1 X93.563 Y86.081 E18.91959
G1 X94.451 Y86.019 E18.9788
G1 X95.2 Y86 E19.02864
G1 X128.632 Y86 E21.25255
G1 X129.357 Y86.011 E21.30078
G1 X130.492 Y86.088 E21.37645
G1 X131.227 Y86.151 E21.42552
G1 X133.933 Y86.307 E21.60583
G1 X136.705 Y86.388 E21.7903
G1 X139.447 Y86.39 E21.9727
G1 X142.183 Y86.315 E22.15477
G1 X144.965 Y86.161 E22.34011
G1 X147.671 Y85.933 E22.52075
G1 X150.426 Y85.623 E22.70517
G1 X153.143 Y85.239 E22.8877
G1 X155.845 Y84.778 E23.07004
G1 X158.545 Y84.24 E23.25317
G1 X161.22 Y83.626 E23.43574
G1 X163.891 Y82.933 E23.6193
G1 X167.232 Y81.954 E23.85089
G1 X169.291 Y81.311 E23.99438
G1 X169.979 Y81.111 E24.04204
G1 X170.594 Y81.013 E24.08346
G1 X170.898 Y81.003 E24.1037
G1 X172.532 Y81 E24.21239
G1 X173.23 Y81.01 E24.25883
G1 X173.744 Y81.064 E24.29321
G1 X174.243 Y81.216 E24.32791
G1 X174.697 Y81.456 E24.36207
G1 X175.106 Y81.785 E24.39698
G1 X175.441 Y82.175 E24.43118
G1 X175.7 Y82.628 E24.4659
G1 X175.868 Y83.119 E24.50042
G1 X175.936 Y83.632 E24.53484
G1 X175.95 Y84.067 E24.56379
G1 X175.95 Y113.086 E26.49414
G1 X175.936 Y113.843 E26.54451
G1 X175.885 Y114.283 E26.57397
G1 X175.625 Y115.498 E26.65662
G1 X175.089 Y118.176 E26.8383
G1 X174.623 Y120.9 E27.02213
G1 X174.234 Y123.635 E27.2059
G1 X173.923 Y126.379 E27.3896
G1 X173.689 Y129.139 E27.57385
G1 X173.537 Y131.832 E27.75327
G1 X173.472 Y134.895 E27.95707
G1 X173.458 Y135.041 E27.96683
G1 X173.44 Y136.28 E28.04926
G1 X173.386 Y136.793 E28.08357
G1 X173.234 Y137.293 E28.11833
G1 X172.994 Y137.747 E28.15249
G1 X172.665 Y138.156 E28.18741
G1 X172.275 Y138.491 E28.22161
G1 X171.822 Y138.75 E28.25632
G1 X171.33 Y138.919 E28.29092
G1 X170.766 Y138.99 E28.32874
G1 X170.383 Y139 E28.35422
G1 X131.368 Y139 E30.94951
G1 X130.664 Y138.99 E30.99635
G1 X129.969 Y138.886 E31.04309
G1 X129.071 Y138.617 E31.10545
G1 X127.936 Y138.252 E31.18476
G1 X125.355 Y137.501 E31.36357
G1 X122.624 Y136.79 E31.55129
G1 X119.984 Y136.182 E31.7315
G1 X117.28 Y135.641 E31.91494
G1 X114.529 Y135.169 E32.10061
G1 X111.879 Y134.791 E32.27867
G1 X109.096 Y134.476 E32.46498
G1 X106.35 Y134.241 E32.64831
G1 X103.644 Y134.088 E32.8286
G1 X100.868 Y134.01 E33.01334
G1 X99.477 Y134 E33.10587
G1 X87.468 Y134 E33.90471
G1 X86.77 Y133.99 E33.95115
G1 X86.256 Y133.936 E33.98553
G1 X85.757 Y133.784 E34.02023
G1 X85.303 Y133.544 E34.05439
G1 X84.894 Y133.215 E34.0893
G1 X84.559 Y132.825 E34.1235
G1 X84.3 Y132.372 E34.15821
G1 X84.132 Y131.881 E34.19273
G1 X84.064 Y131.366 E34.22729
G1 X84.05 Y130.921 E34.25691
G1 X84.05 Y97.32 E36.49205
G1 X84.063 Y96.412 E36.55246
G1 X84.101 Y95.833 E36.59106
G1 X84.214 Y94.922 E36.65212
G1 X84.455 Y93.865 E36.72424
G1 X84.801 Y92.826 E36.79709
G1 X85.218 Y91.896 E36.86488
G1 X85.754 Y90.959 E36.93669
G1 X86.352 Y90.116 E37.00544
G1 X87.196 Y89.155 E37.09052
G0 F6000 X86.82 Y88.825
G1 F900 X87.187 Y88.476 E37.12421
G1 X87.572 Y88.144 E37.15803
G1 X88.392 Y87.516 E37.22674
G1 X89.252 Y86.974 E37.29436
G1 X90.321 Y86.441 E37.37382
G1 X91.267 Y86.08 E37.44117
G1 X92.427 Y85.763 E37.52116
G1 X93.528 Y85.582 E37.59538
G1 X94.438 Y85.519 E37.65606
G1 X95.187 Y85.5 E37.7059
G1 X128.64 Y85.5 E39.9312
G1 X129.391 Y85.512 E39.98117
G1 X130.535 Y85.59 E40.05744
G1 X131.263 Y85.652 E40.10605
G1 X133.948 Y85.807 E40.28495
G1 X136.72 Y85.888 E40.46942
G1 X139.433 Y85.89 E40.64989
G1 X142.169 Y85.815 E40.83196
G1 X144.931 Y85.662 E41.01597
G1 X147.615 Y85.436 E41.19514
G1 X150.37 Y85.126 E41.37956
G1 X153.06 Y84.746 E41.56028
G1 X155.761 Y84.285 E41.74255
G1 X158.44 Y83.751 E41.92426
G1 X161.094 Y83.142 E42.1054
G1 X163.753 Y82.452 E42.28813
G1 X167.091 Y81.474 E42.51951
G1 X169.151 Y80.831 E42.66306
G1 X169.9 Y80.617 E42.71488
G1 X170.515 Y80.519 E42.75631
G1 X170.897 Y80.503 E42.78174
G1 X172.539 Y80.5 E42.89097
G1 X173.237 Y80.51 E42.9374
G1 X173.843 Y80.572 E42.97792
G1 X174.436 Y80.752 E43.01915
G1 X174.973 Y81.036 E43.05956
G1 X175.455 Y81.424 E43.10072
G1 X175.851 Y81.885 E43.14114
G1 X176.158 Y82.422 E43.18229
G1 X176.358 Y83.006 E43.22335
G1 X176.432 Y83.566 E43.26093
G1 X176.45 Y84.051 E43.29321
G1 X176.45 Y113.095 E45.22523
G1 X176.433 Y113.901 E45.27885
G1 X176.382 Y114.341 E45.30832
G1 X176.114 Y115.603 E45.39414
G1 X175.582 Y118.26 E45.57439
G1 X175.116 Y120.984 E45.75823
G1 X174.729 Y123.705 E45.94105
G1 X174.42 Y126.435 E46.12381
G1 X174.187 Y129.181 E46.30713
G1 X174.037 Y131.843 E46.48449
G1 X173.97 Y134.943 E46.69075
G1 X173.958 Y135.072 E46.69937
G1 X173.94 Y136.287 E46.7802
G1 X173.878 Y136.891 E46.82059
G1 X173.697 Y137.487 E46.86202
G1 X173.414 Y138.023 E46.90234
G1 X173.026 Y138.505 E46.9435
G1 X172.565 Y138.901 E46.98393
G1 X172.029 Y139.208 E47.02502
G1 X171.443 Y139.409 E47.06623
G1 X170.779 Y139.49 E47.11072
G1 X170.396 Y139.5 E47.13621
G1 X131.361 Y139.5 E49.73283
G1 X130.657 Y139.49 E49.77966
G1 X129.826 Y139.365 E49.83556
G1 X128.918 Y139.093 E49.89862
G1 X127.79 Y138.73 E49.97744
G1 X125.229 Y137.985 E50.15486
G1 X122.498 Y137.274 E50.34258
G1 X119.879 Y136.671 E50.52136
G1 X117.195 Y136.134 E50.70344
G1 X114.444 Y135.662 E50.88911
G1 X111.818 Y135.287 E51.06556
G1 X109.04 Y134.973 E51.25153
G1 X106.312 Y134.739 E51.43367
G1 X103.63 Y134.588 E51.61236
G1 X100.854 Y134.51 E51.79709
G1 X99.473 Y134.5 E51.88896
G1 X87.461 Y134.5 E52.688
G1 X86.763 Y134.49 E52.73443
G1 X86.157 Y134.428 E52.77495
G1 X85.564 Y134.248 E52.81618
G1 X85.027 Y133.964 E52.85659
G1 X84.545 Y133.576 E52.89775
G1 X84.149 Y133.115 E52.93817
G1 X83.842 Y132.578 E52.97932
G1 X83.642 Y131.994 E53.02038
G1 X83.568 Y131.431 E53.05816
G1 X83.55 Y130.937 E53.09104
G1 X83.55 Y97.313 E55.32772
G1 X83.564 Y96.379 E55.38985
G1 X83.602 Y95.8 E55.42845
G1 X83.718 Y94.86 E55.49146
G1 X83.981 Y93.707 E55.57012
G1 X84.345 Y92.621 E55.64631
G1 X84.762 Y91.691 E55.71411
G1 X85.346 Y90.67 E55.79236
G1 X85.976 Y89.786 E55.86456
G1 X86.82 Y88.825 E55.94964
G1 F1500 E49.44964
;MESH:bed_bracket.stl
G0 F6000 X90.666 Y89.133
G0 X91.224 Y90.063
G0 X94.753 Y90.5
;TYPE:WALL-INNER
G1 F1500 E55.94964
G1 F900 X94.183 Y90.529 E55.98761
G1 X93.585 Y90.618 E56.02783
G1 X92.985 Y90.768 E56.06897
G1 X92.416 Y90.973 E56.1092
G1 X91.861 Y91.235 E56.15003
G1 X91.323 Y91.557 E56.19173
G1 X90.833 Y91.921 E56.23234
G1 X90.38 Y92.33 E56.27294
G1 X89.971 Y92.783 E56.31353
G1 X89.608 Y93.271 E56.35399
G1 X89.281 Y93.817 E56.39633
G1 X89.025 Y94.361 E56.43632
G1 X88.817 Y94.936 E56.477
G1 X88.668 Y95.53 E56.51773
G1 X88.579 Y96.125 E56.55775
G1 X88.55 Y96.703 E56.59625
G1 X88.55 Y129.5 E58.77792
G1 X127.55 Y129.5 E61.37221
G1 X127.55 Y90.5 E63.9665
G1 X94.753 Y90.5 E66.14816
G0 F6000 X94.741 Y90
G1 F900 X94.133 Y90.031 E66.18866
G1 X93.488 Y90.127 E66.23204
G1 X92.84 Y90.288 E66.27645
G1 X92.224 Y90.51 E66.32001
G1 X91.625 Y90.793 E66.36408
G1 X91.045 Y91.141 E66.40907
G1 X90.516 Y91.534 E66.45291
G1 X90.026 Y91.976 E66.49681
G1 X89.584 Y92.466 E66.5407
G1 X89.192 Y92.992 E66.58434
G1 X88.839 Y93.582 E66.63008
G1 X88.562 Y94.169 E66.67325
G1 X88.338 Y94.791 E66.71723
G1 X88.177 Y95.432 E66.76119
G1 X88.081 Y96.076 E66.80451
G1 X88.05 Y96.69 E66.8454
G1 X88.05 Y130 E69.06119
G1 X128.05 Y130 E71.722
G1 X128.05 Y90 E74.38281
G1 X94.741 Y90 E76.59854
G0 F6000 X94.728 Y89.5
G1 F900 X94.084 Y89.533 E76.64143
G1 X93.391 Y89.636 E76.68804
G1 X92.695 Y89.809 E76.73574
G1 X92.032 Y90.048 E76.78262
G1 X91.39 Y90.351 E76.82985
G1 X90.766 Y90.724 E76.87821
G1 X90.199 Y91.147 E76.92526
G1 X89.672 Y91.622 E76.97246
G1 X89.197 Y92.149 E77.01965
G1 X88.776 Y92.713 E77.06647
G1 X88.397 Y93.346 E77.11555
G1 X88.099 Y93.977 E77.16197
G1 X87.859 Y94.645 E77.20918
G1 X87.687 Y95.334 E77.25642
G1 X87.583 Y96.026 E77.30297
G1 X87.55 Y96.678 E77.3464
G1 X87.55 Y130.5 E79.59625
G1 X128.55 Y130.5 E82.32358
G1 X128.55 Y89.5 E85.05091
G1 X94.728 Y89.5 E87.30076
G1 F1500 E80.80076
G0 F6000 X94.728 Y89.65
G0 X97.408 Y90.71
G0 X96.81 Y92.897
G0 X97.383 Y95.969
G0 X97.408 Y98.78
G1 F1500 E87.30076
G1 F900 X96.864 Y99.331 E87.35226
G1 X96.122 Y99.828 E87.41167
G1 X95.778 Y99.974 E87.43653
G1 X94.849 Y100.247 E87.50094
G1 X93.795 Y100.24 E87.57105
G1 X93.463 Y100.167 E87.59367
G1 X92.665 Y99.927 E87.6491
G1 X92.353 Y99.752 E87.67289
G1 X91.892 Y99.442 E87.70985
G1 X91.631 Y99.227 E87.73234
G1 X91.323 Y98.919 E87.76132
G1 X91.107 Y98.657 E87.78391
G1 X90.86 Y98.289 E87.81339
G1 X90.698 Y97.987 E87.83618
G1 X90.527 Y97.578 E87.86567
G1 X90.425 Y97.24 E87.88916
G1 X90.308 Y96.644 E87.92956
G1 X90.308 Y95.877 E87.98058
G1 X90.425 Y95.26 E88.02236
G1 X90.495 Y95.004 E88.04001
G1 X90.758 Y94.367 E88.08585
G1 X91.203 Y93.704 E88.13897
G1 X91.754 Y93.153 E88.1908
G1 X92.338 Y92.761 E88.23759
G1 X92.562 Y92.648 E88.25428
G1 X93.053 Y92.446 E88.2896
G1 X93.314 Y92.374 E88.30761
G1 X93.954 Y92.254 E88.35092
G1 X94.736 Y92.266 E88.40295
G1 X95.292 Y92.375 E88.44064
G1 X95.628 Y92.477 E88.464
G1 X96.037 Y92.648 E88.49349
G1 X96.339 Y92.81 E88.51628
G1 X96.707 Y93.057 E88.54577
G1 X96.969 Y93.273 E88.56835
G1 X97.277 Y93.581 E88.59733
G1 X97.493 Y93.843 E88.61991
G1 X97.74 Y94.211 E88.6494
G1 X97.902 Y94.513 E88.67219
G1 X98.073 Y94.923 E88.70174
G1 X98.176 Y95.264 E88.72544
G1 X98.288 Y95.842 E88.7646
G1 X98.293 Y96.64 E88.81769
G1 X98.144 Y97.396 E88.86894
G1 X97.828 Y98.159 E88.92388
G1 X97.408 Y98.78 E88.97375
G0 F6000 X97.017 Y98.467
G1 F900 X96.517 Y98.967 E89.02079
G1 X95.879 Y99.391 E89.07174
G1 X95.634 Y99.495 E89.08945
G1 X94.782 Y99.746 E89.14853
G1 X93.778 Y99.74 E89.21532
G1 X92.85 Y99.46 E89.2798
G1 X92.632 Y99.337 E89.29645
G1 X92.073 Y98.961 E89.34126
G1 X91.59 Y98.478 E89.3867
G1 X91.206 Y97.906 E89.43253
G1 X90.989 Y97.385 E89.47007
G1 X90.916 Y97.144 E89.48682
G1 X90.813 Y96.59 E89.52431
G1 X90.807 Y95.926 E89.56848
G1 X90.936 Y95.246 E89.61452
G1 X91.204 Y94.599 E89.6611
G1 X91.59 Y94.024 E89.70717
G1 X92.074 Y93.54 E89.75271
G1 X92.65 Y93.153 E89.79887
G1 X93.292 Y92.887 E89.84509
G1 X93.993 Y92.755 E89.89254
G1 X94.679 Y92.763 E89.93818
G1 X95.195 Y92.866 E89.97318
G1 X95.435 Y92.939 E89.98987
G1 X95.956 Y93.156 E90.02741
G1 X96.528 Y93.54 E90.07324
G1 X97.01 Y94.022 E90.11858
G1 X97.394 Y94.594 E90.16441
G1 X97.611 Y95.115 E90.20195
G1 X97.685 Y95.359 E90.21891
G1 X97.79 Y95.901 E90.25564
G1 X97.792 Y96.57 E90.30014
G1 X97.653 Y97.283 E90.34846
G1 X97.396 Y97.901 E90.39299
G1 X97.017 Y98.467 E90.4383
G0 F6000 X96.609 Y98.17
G1 F900 X96.22 Y98.559 E90.47489
G1 X95.601 Y98.977 E90.52458
G1 X94.737 Y99.241 E90.58467
G1 X93.854 Y99.241 E90.64341
G1 X93.006 Y98.986 E90.70232
G1 X92.389 Y98.571 E90.75178
G1 X91.979 Y98.161 E90.79035
G1 X91.649 Y97.67 E90.8297
G1 X91.419 Y97.118 E90.86948
G1 X91.311 Y96.542 E90.90846
G1 X91.308 Y95.966 E90.94678
G1 X91.418 Y95.389 E90.98585
G1 X91.647 Y94.836 E91.02567
G1 X91.977 Y94.343 E91.06513
G1 X92.393 Y93.927 E91.10427
G1 X92.888 Y93.596 E91.14388
G1 X93.435 Y93.369 E91.18327
G1 X94.03 Y93.255 E91.22357
G1 X94.594 Y93.261 E91.26109
G1 X95.168 Y93.369 E91.29995
G1 X95.72 Y93.599 E91.33972
G1 X96.211 Y93.929 E91.37908
G1 X96.621 Y94.339 E91.41765
G1 X96.951 Y94.83 E91.457
G1 X97.18 Y95.381 E91.49669
G1 X97.292 Y95.98 E91.53723
G1 X97.288 Y96.55 E91.57515
G1 X97.181 Y97.102 E91.61255
G1 X96.953 Y97.666 E91.65302
G1 X96.609 Y98.17 E91.69361
G0 F6000 X96.223 Y97.851
;TYPE:WALL-OUTER
G1 F900 X95.901 Y98.173 E91.7239
G1 X95.376 Y98.529 E91.76609
G1 X94.647 Y98.744 E91.81665
G1 X93.932 Y98.739 E91.86422
G1 X93.222 Y98.529 E91.91347
G1 X92.729 Y98.197 E91.95301
G1 X92.353 Y97.821 E91.98838
G1 X92.106 Y97.453 E92.01786
G1 X91.897 Y96.952 E92.05397
G1 X91.811 Y96.513 E92.08373
G1 X91.812 Y95.982 E92.11905
G1 X91.897 Y95.548 E92.14847
G1 X92.083 Y95.09 E92.18135
G1 X92.363 Y94.665 E92.21521
G1 X92.701 Y94.325 E92.2471
G1 X93.108 Y94.049 E92.27981
G1 X93.562 Y93.857 E92.3126
G1 X94.063 Y93.758 E92.34657
G1 X94.546 Y93.759 E92.3787
G1 X95.002 Y93.847 E92.40959
G1 X95.46 Y94.033 E92.44247
G1 X95.871 Y94.303 E92.47519
G1 X96.247 Y94.679 E92.51056
G1 X96.494 Y95.047 E92.54004
G1 X96.703 Y95.549 E92.57621
G1 X96.794 Y96.024 E92.60838
G1 X96.791 Y96.498 E92.63991
G1 X96.699 Y96.97 E92.6719
G1 X96.494 Y97.453 E92.70681
G1 X96.223 Y97.851 E92.73884
G1 F1500 E86.23884
G0 F6000 X96.681 Y98.31
G0 X97.031 Y97.709
G0 X97.263 Y97.148
G0 X97.381 Y96.556
G0 X97.383 Y95.969
G0 X97.264 Y95.353
G0 X97.031 Y94.791
G0 X96.84 Y94.506
G0 X94.729 Y92.068
G0 X94.659 Y90.715
G0 X94.723 Y89.649
G0 X94.716 Y89
G1 F1500 E92.73884
G1 F900 X94.034 Y89.035 E92.78426
G1 X93.293 Y89.145 E92.83409
G1 X92.549 Y89.33 E92.88509
G1 X91.84 Y89.586 E92.93524
