;FLAVOR:Marlin
;TIME:3319
;Filament used: 2.70052m
;Layer height: 0.2
;MINX:98.51
;MINY:80.734
;MINZ:0.32
;MAXX:161.773
;MAXY:139.234
;MAXZ:11.92
;POSTPROCESSED
;Generated with Cura_SteamEngine 5.3.1
;
;

M82 ;absolute extrusion mode
START_PRINT EXTRUDER_TEMP=250.0 BED_TEMP=90 RELATIVE_E_MODE=False PROBE=alse PROBE_AREA_START=%MINX%,%MINY% PROBE_AREA_END=%MAXX%,%MAXY%
G92 E0
G92 E0
G1 F2100 E-0.5
;LAYER_COUNT:59
;LAYER:0
M107
G0 F6000 X100.153 Y90.676 Z0.32
;TYPE:SKIRT
G1 F2100 E0
G1 F900 X99.888 Y91.007 E0.02821
G1 X99.69 Y91.381 E0.05636
G1 X99.566 Y91.787 E0.08459
G1 X99.52 Y92.208 E0.11277
G1 X99.51 Y92.909 E0.1594
G1 X99.51 Y127.404 E2.45402
G1 X99.526 Y127.975 E2.49202
G1 X99.639 Y128.45 E2.52449
G1 X99.812 Y128.837 E2.55269
G1 X100.054 Y129.185 E2.58089
G1 X100.358 Y129.481 E2.60911
G1 X102.574 Y131.268 E2.79848
G1 X104.676 Y133.062 E2.98231
G1 X106.715 Y134.907 E3.16523
G1 X108.75 Y136.854 E3.35257
G1 X109.49 Y137.58 E3.42153
G1 X109.833 Y137.856 E3.45082
G1 X110.207 Y138.054 E3.47897
G1 X110.613 Y138.178 E3.50721
G1 X111.034 Y138.224 E3.53538
G1 X111.735 Y138.234 E3.58202
G1 X117.23 Y138.234 E3.94754
G1 X117.612 Y138.224 E3.97296
G1 X117.931 Y138.192 E3.99429
G1 X119.294 Y137.957 E4.0863
G1 X121.445 Y137.608 E4.23125
G1 X124.152 Y137.239 E4.41299
G1 X126.91 Y136.942 E4.59751
G1 X129.672 Y136.723 E4.78182
G1 X132.44 Y136.583 E4.96618
G1 X135.176 Y136.521 E5.14823
G1 X137.947 Y136.538 E5.33256
G1 X140.718 Y136.633 E5.51699
G1 X143.512 Y136.807 E5.70321
G1 X146.264 Y137.049 E5.88698
G1 X147.037 Y137.06 E5.93841
G1 X157.096 Y137.06 E6.60753
G1 X157.882 Y137.048 E6.65983
G1 X158.254 Y137.011 E6.68469
G1 X158.662 Y136.896 E6.71289
G1 X159.041 Y136.706 E6.74109
G1 X159.607 Y136.352 E6.7855
G1 X159.97 Y136.07 E6.81608
G1 X160.247 Y135.749 E6.84428
G1 X160.459 Y135.382 E6.87248
G1 X160.599 Y134.982 E6.90067
G1 X160.698 Y134.58 E6.92821
G1 X160.763 Y134.073 E6.96221
G1 X160.773 Y133.357 E7.00984
G1 X160.77 Y116.212 E8.15033
G1 X160.758 Y115.791 E8.17835
G1 X160.673 Y114.121 E8.28958
G1 X160.598 Y111.363 E8.47311
G1 X160.602 Y108.591 E8.65751
G1 X160.684 Y105.816 E8.84218
G1 X160.714 Y105.3 E8.87656
G1 X160.762 Y104.171 E8.95173
G1 X160.772 Y103.466 E8.99863
G1 X160.772 Y86.646 E10.1175
G1 X160.762 Y85.954 E10.16354
G1 X160.744 Y85.701 E10.18041
G1 X160.651 Y85.288 E10.20857
G1 X160.53 Y84.918 E10.23447
G1 X160.363 Y84.533 E10.26238
G1 X160.124 Y84.183 E10.29058
G1 X159.825 Y83.883 E10.31875
G1 X159.474 Y83.645 E10.34696
G1 X158.738 Y83.241 E10.40281
G1 X158.266 Y83.095 E10.43568
G1 X157.845 Y83.049 E10.46385
G1 X157.16 Y83.039 E10.50942
G1 X147.278 Y83.04 E11.16677
G1 X145.829 Y83.075 E11.26319
G1 X144.637 Y83.176 E11.34277
G1 X140.507 Y83.439 E11.61805
G1 X137.743 Y83.517 E11.80199
G1 X134.973 Y83.517 E11.98625
G1 X132.201 Y83.439 E12.17071
G1 X129.471 Y83.284 E12.35261
G1 X126.711 Y83.049 E12.53687
G1 X123.95 Y82.734 E12.72172
G1 X121.209 Y82.345 E12.90588
G1 X118.457 Y81.873 E13.09162
G1 X117.966 Y81.782 E13.12483
G1 X117.587 Y81.744 E13.15017
G1 X116.885 Y81.734 E13.19687
G1 X111.39 Y81.734 E13.5624
G1 X110.996 Y81.745 E13.58862
G1 X110.626 Y81.787 E13.61339
G1 X110.22 Y81.909 E13.64159
G1 X109.844 Y82.104 E13.66977
G1 X109.512 Y82.366 E13.6979
G1 X109.139 Y82.722 E13.7322
G1 X107.957 Y83.89 E13.84274
G1 X105.948 Y85.767 E14.02563
G1 X103.851 Y87.62 E14.21178
G1 X101.752 Y89.369 E14.39353
G1 X100.361 Y90.486 E14.5122
G1 X100.153 Y90.676 E14.53094
G0 F6000 X99.816 Y90.307
G1 F900 X100.048 Y90.096 E14.5518
G1 X101.439 Y88.979 E14.67047
G1 X103.52 Y87.245 E14.85065
G1 X105.617 Y85.392 E15.0368
G1 X107.606 Y83.534 E15.21786
G1 X108.794 Y82.36 E15.32896
G1 X109.202 Y81.973 E15.36637
G1 X109.569 Y81.683 E15.39749
G1 X110.032 Y81.443 E15.43218
G1 X110.526 Y81.295 E15.46648
G1 X110.982 Y81.245 E15.497
G1 X111.376 Y81.234 E15.52321
G1 X116.892 Y81.234 E15.89014
G1 X117.637 Y81.246 E15.9397
G1 X118.057 Y81.29 E15.9678
G1 X118.55 Y81.381 E16.00114
G1 X121.294 Y81.852 E16.18635
G1 X124.007 Y82.237 E16.36862
G1 X126.768 Y82.552 E16.55348
G1 X129.506 Y82.785 E16.73627
G1 X132.215 Y82.939 E16.91676
G1 X134.987 Y83.017 E17.10123
G1 X137.729 Y83.017 E17.28363
G1 X140.489 Y82.939 E17.4673
G1 X144.605 Y82.677 E17.74165
G1 X145.817 Y82.575 E17.82256
G1 X147.278 Y82.54 E17.91977
G1 X157.167 Y82.539 E18.57759
G1 X157.852 Y82.549 E18.62316
G1 X158.369 Y82.603 E18.65774
G1 X158.933 Y82.777 E18.697
G1 X159.755 Y83.231 E18.75947
G1 X160.144 Y83.495 E18.79074
G1 X160.511 Y83.864 E18.82536
G1 X160.803 Y84.291 E18.85977
G1 X160.989 Y84.719 E18.89081
G1 X161.139 Y85.178 E18.92293
G1 X161.232 Y85.591 E18.95109
G1 X161.262 Y85.947 E18.97486
G1 X161.272 Y86.639 E19.0209
G1 X161.272 Y103.473 E20.1407
G1 X161.262 Y104.192 E20.18853
G1 X161.213 Y105.329 E20.26424
G1 X161.184 Y105.831 E20.29768
G1 X161.102 Y108.606 E20.48236
G1 X161.098 Y111.364 E20.66582
G1 X161.173 Y114.107 E20.84835
G1 X161.258 Y115.777 E20.95959
G1 X161.27 Y116.212 E20.98853
G1 X161.273 Y133.364 E22.12949
G1 X161.259 Y134.137 E22.18092
G1 X161.194 Y134.644 E22.21492
G1 X161.071 Y135.147 E22.24937
G1 X160.916 Y135.591 E22.28065
G1 X160.655 Y136.043 E22.31537
G1 X160.317 Y136.434 E22.34975
G1 X159.914 Y136.747 E22.38369
G1 X159.306 Y137.13 E22.43149
G1 X158.845 Y137.364 E22.46588
G1 X158.344 Y137.505 E22.5005
G1 X157.931 Y137.546 E22.52811
G1 X157.104 Y137.56 E22.58313
G1 X147.03 Y137.56 E23.25326
G1 X146.22 Y137.547 E23.30715
G1 X143.475 Y137.306 E23.49045
G1 X140.701 Y137.133 E23.67533
G1 X137.93 Y137.038 E23.85977
G1 X135.184 Y137.021 E24.04244
G1 X132.451 Y137.083 E24.22428
G1 X129.704 Y137.222 E24.40725
G1 X126.964 Y137.439 E24.59008
G1 X124.206 Y137.736 E24.77461
G1 X121.525 Y138.102 E24.9546
G1 X119.374 Y138.451 E25.09956
G1 X117.981 Y138.69 E25.19358
G1 X117.662 Y138.722 E25.2149
G1 X117.243 Y138.734 E25.24279
G1 X111.728 Y138.734 E25.60965
G1 X111.027 Y138.724 E25.65628
G1 X110.514 Y138.67 E25.69059
G1 X110.014 Y138.518 E25.72536
G1 X109.556 Y138.275 E25.75985
G1 X109.14 Y137.937 E25.7955
G1 X108.4 Y137.211 E25.86446
G1 X106.369 Y135.268 E26.05143
G1 X104.351 Y133.442 E26.23247
G1 X102.249 Y131.648 E26.41629
G1 X100.044 Y129.87 E26.60472
G1 X99.671 Y129.51 E26.6392
G1 X99.376 Y129.087 E26.6735
G1 X99.164 Y128.61 E26.70823
G1 X99.027 Y128.038 E26.74735
G1 X99.01 Y127.418 E26.78861
G1 X99.01 Y92.902 E29.08462
G1 X99.02 Y92.201 E29.13126
G1 X99.074 Y91.688 E29.16557
G1 X99.226 Y91.188 E29.20034
G1 X99.468 Y90.732 E29.23468
G1 X99.816 Y90.307 E29.27122
G0 F6000 X99.429 Y89.99
G1 F900 X99.735 Y89.706 E29.29899
G1 X101.126 Y88.589 E29.41766
G1 X103.189 Y86.87 E29.59629
G1 X105.286 Y85.017 E29.78244
G1 X107.255 Y83.178 E29.96166
G1 X108.45 Y81.997 E30.07342
G1 X108.858 Y81.61 E30.11083
G1 X109.297 Y81.261 E30.14813
G1 X109.843 Y80.978 E30.18904
G1 X110.427 Y80.803 E30.2296
G1 X110.968 Y80.745 E30.26579
G1 X111.362 Y80.734 E30.29201
G1 X116.9 Y80.734 E30.6604
G1 X117.645 Y80.746 E30.70996
G1 X118.148 Y80.798 E30.7436
G1 X121.379 Y81.359 E30.96174
G1 X124.064 Y81.74 E31.14214
G1 X126.825 Y82.055 E31.32699
G1 X129.541 Y82.286 E31.50831
G1 X132.229 Y82.439 E31.68741
G1 X135.001 Y82.517 E31.87188
G1 X137.715 Y82.517 E32.05241
G1 X140.471 Y82.439 E32.23582
G1 X144.573 Y82.178 E32.50923
G1 X145.805 Y82.075 E32.59147
G1 X147.278 Y82.04 E32.68948
G1 X157.174 Y82.039 E33.34777
G1 X157.859 Y82.049 E33.39334
G1 X158.471 Y82.111 E33.43426
G1 X159.131 Y82.315 E33.48021
G1 X159.997 Y82.793 E33.54601
G1 X160.465 Y83.108 E33.58354
G1 X160.896 Y83.541 E33.62418
G1 X161.243 Y84.049 E33.6651
G1 X161.448 Y84.52 E33.69927
G1 X161.627 Y85.068 E33.73762
G1 X161.72 Y85.481 E33.76578
G1 X161.762 Y85.94 E33.79644
G1 X161.772 Y86.632 E33.84248
G1 X161.772 Y103.48 E34.96321
G1 X161.762 Y104.214 E35.01204
G1 X161.684 Y105.846 E35.12073
G1 X161.602 Y108.621 E35.3054
G1 X161.598 Y111.365 E35.48793
G1 X161.673 Y114.093 E35.66947
G1 X161.758 Y115.763 E35.7807
G1 X161.77 Y116.212 E35.81058
G1 X161.773 Y133.373 E36.95213
G1 X161.755 Y134.201 E37.00723
G1 X161.68 Y134.763 E37.04494
G1 X161.557 Y135.266 E37.07939
G1 X161.373 Y135.799 E37.1169
G1 X161.065 Y136.333 E37.1579
G1 X160.661 Y136.8 E37.19898
G1 X160.221 Y137.142 E37.23605
G1 X159.532 Y137.576 E37.29022
G1 X159.03 Y137.831 E37.32767
G1 X158.433 Y137.999 E37.36893
G1 X157.98 Y138.044 E37.39921
G1 X157.112 Y138.06 E37.45696
G1 X147.022 Y138.06 E38.12815
G1 X146.176 Y138.045 E38.18443
G1 X143.438 Y137.805 E38.36726
G1 X140.684 Y137.633 E38.55082
G1 X137.913 Y137.538 E38.73525
G1 X135.192 Y137.521 E38.91626
G1 X132.462 Y137.583 E39.09791
G1 X129.733 Y137.721 E39.27967
G1 X127.018 Y137.936 E39.46084
G1 X124.26 Y138.233 E39.64536
G1 X121.605 Y138.596 E39.82362
G1 X119.454 Y138.945 E39.96857
G1 X118.031 Y139.188 E40.0646
G1 X117.712 Y139.22 E40.08593
G1 X117.257 Y139.234 E40.11621
G1 X111.721 Y139.234 E40.48447
G1 X111.02 Y139.224 E40.5311
G1 X110.416 Y139.162 E40.57149
G1 X109.819 Y138.981 E40.61299
G1 X109.279 Y138.694 E40.65367
G1 X108.79 Y138.294 E40.69569
G1 X108.05 Y137.568 E40.76465
G1 X106.023 Y135.629 E40.95125
G1 X104.026 Y133.822 E41.1304
G1 X101.924 Y132.028 E41.31422
G1 X99.697 Y130.23 E41.50462
G1 X99.289 Y129.836 E41.54235
G1 X98.938 Y129.333 E41.58315
G1 X98.689 Y128.773 E41.62392
G1 X98.528 Y128.101 E41.66989
G1 X98.51 Y127.432 E41.7144
G1 X98.51 Y92.895 E44.01181
G1 X98.52 Y92.194 E44.05845
G1 X98.582 Y91.59 E44.09884
G1 X98.763 Y90.993 E44.14034
G1 X99.05 Y90.453 E44.18102
G1 X99.429 Y89.99 E44.22082
G1 F2100 E43.72082
G0 F6000 X111.31 Y91.033
G1 F2100 E44.22082
G1 F900 X111.31 Y84.234 E44.67309
G1 X117.31 Y84.234 E45.07221
G1 X117.31 Y91.061 E45.52634
G1 X117.228 Y91.177 E45.53579
G1 X117.226 Y91.184 E45.53628
G1 X111.421 Y91.184 E45.92243
G1 X111.369 Y91.071 E45.9307
G1 X111.31 Y91.033 E45.93537
G0 F6000 X111.81 Y90.684
G1 F900 X111.81 Y84.734 E46.33117
G1 X116.81 Y84.734 E46.66377
G1 X116.81 Y90.684 E47.05956
G1 X111.81 Y90.684 E47.39217
G0 F6000 X112.31 Y90.184
G1 F900 X112.31 Y85.234 E47.72144
G1 X116.31 Y85.234 E47.98752
G1 X116.31 Y90.184 E48.3168
G1 X112.31 Y90.184 E48.58288
G0 F6000 X112.81 Y89.684
G1 F900 X112.81 Y85.734 E48.84563
G1 X115.81 Y85.734 E49.04519
G1 X115.81 Y89.684 E49.30795
G1 X112.81 Y89.684 E49.50751
G0 F6000 X113.31 Y89.184
G1 F900 X113.31 Y86.234 E49.70374
G1 X115.31 Y86.234 E49.83678
G1 X115.31 Y89.184 E50.03302
G1 X113.31 Y89.184 E50.16606
G0 F6000 X113.81 Y88.684
G1 F900 X113.81 Y86.734 E50.29577
G1 X114.81 Y86.734 E50.3623
G1 X114.81 Y88.684 E50.49201
G1 X113.81 Y88.684 E50.55853
G1 F2100 E50.05853
G0 F6000 X122.413 Y91.581
G0 X122.413 Y128.387
G0 X113.81 Y131.284
G1 F2100 E50.55853
G1 F900 X114.81 Y131.284 E50.62505
G1 X114.81 Y133.234 E50.75476
G1 X113.81 Y133.234 E50.82128
G1 X113.81 Y131.284 E50.951
G0 F6000 X113.31 Y130.784
G1 F900 X115.31 Y130.784 E51.08404
G1 X115.31 Y133.734 E51.28027
G1 X113.31 Y133.734 E51.41332
G1 X113.31 Y130.784 E51.60955
G0 F6000 X112.81 Y130.284
G1 F900 X115.81 Y130.284 E51.80911
G1 X115.81 Y134.234 E52.07187
G1 X112.81 Y134.234 E52.27143
G1 X112.81 Y130.284 E52.53418
G0 F6000 X112.31 Y129.784
G1 F900 X116.31 Y129.784 E52.80026
G1 X116.31 Y134.734 E53.12954
G1 X112.31 Y134.734 E53.39562
G1 X112.31 Y129.784 E53.72489
G0 F6000 X111.81 Y129.284
G1 F900 X116.81 Y129.284 E54.0575
G1 X116.81 Y135.234 E54.45329
G1 X111.81 Y135.234 E54.78589
G1 X111.81 Y129.284 E55.18169
G0 F6000 X111.31 Y128.908
G1 F900 X111.394 Y128.79 E55.19132
G1 X111.395 Y128.784 E55.19173
G1 X117.201 Y128.784 E55.57795
G1 X117.253 Y128.898 E55.58628
G1 X117.31 Y128.935 E55.5908
G1 X117.31 Y135.734 E56.04307
G1 X111.31 Y135.734 E56.44219
G1 X111.31 Y128.908 E56.89626
G1 F2100 E56.39626
;MESH:Silicone Tray & Holder.stl 1
G0 F6000 X111.31 Y126.274
G0 X120.51 Y93.484
;TYPE:WALL-INNER
G1 F2100 E56.89626
G1 F900 X103.01 Y93.484 E58.06037
G1 X103.01 Y126.484 E60.25553
G1 X120.51 Y126.484 E61.41964
G1 X120.51 Y93.484 E63.61481
G0 F6000 X121.01 Y92.984
G1 F900 X102.51 Y92.984 E64.84543
G1 X102.51 Y126.984 E67.10712
G1 X121.01 Y126.984 E68.33775
G1 X121.01 Y92.984 E70.59944
G0 F6000 X121.51 Y92.484
;TYPE:WALL-OUTER
G1 F900 X102.01 Y92.484 E71.89658
G1 X102.01 Y127.484 E74.22479
G1 X121.51 Y127.484 E75.52194
G1 X121.51 Y92.484 E77.85015
G0 F6000 X120.89 Y93.104
G0 X120.05 Y93.594
G0 X120.05 Y93.944
;TYPE:SKIN
G1 F900 X120.05 Y126.024 E79.98412
G1 X103.47 Y126.024 E81.08702
G1 X103.47 Y93.944 E83.22099
G1 X120.05 Y93.944 E84.3239
G0 F6000 X119.65 Y94.194
G1 F900 X119.8 Y94.344 E84.33801
G0 F6000 X119.8 Y95.051
G1 F900 X118.943 Y94.194 E84.41863
G0 F6000 X118.236 Y94.194
G1 F900 X119.8 Y95.758 E84.56576
G0 F6000 X119.8 Y96.465
G1 F900 X117.528 Y94.194 E84.77945
G0 F6000 X116.821 Y94.194
G1 F900 X119.8 Y97.172 E85.05965
G0 F6000 X119.8 Y97.879
G1 F900 X116.114 Y94.194 E85.40636
G0 F6000 X115.407 Y94.194
G1 F900 X119.8 Y98.586 E85.81958
G0 F6000 X119.8 Y99.294
G1 F900 X114.7 Y94.194 E86.29936
G0 F6000 X113.993 Y94.194
G1 F900 X119.8 Y100.001 E86.84564
G0 F6000 X119.8 Y100.708
G1 F900 X113.286 Y94.194 E87.45844
G0 F6000 X112.579 Y94.194
G1 F900 X119.8 Y101.415 E88.13775
G0 F6000 X119.8 Y102.122
G1 F900 X111.872 Y94.194 E88.88356
G0 F6000 X111.164 Y94.194
G1 F900 X119.8 Y102.829 E89.69594
G0 F6000 X119.8 Y103.536
G1 F900 X110.457 Y94.194 E90.57482
G0 F6000 X109.75 Y94.194
G1 F900 X119.8 Y104.243 E91.52022
G0 F6000 X119.8 Y104.95
G1 F900 X109.043 Y94.194 E92.53213
G0 F6000 X108.336 Y94.194
G1 F900 X119.8 Y105.658 E93.61059
G0 F6000 X119.8 Y106.365
G1 F900 X107.629 Y94.194 E94.75556
G0 F6000 X106.922 Y94.194
G1 F900 X119.8 Y107.072 E95.96704
G0 F6000 X119.8 Y107.779
G1 F900 X106.215 Y94.194 E97.24504
G0 F6000 X105.508 Y94.194
G1 F900 X119.8 Y108.486 E98.58954
G0 F6000 X119.8 Y109.193
G1 F900 X104.801 Y94.194 E100.00056
G0 F6000 X104.093 Y94.194
G1 F900 X119.8 Y109.9 E101.47813
G0 F6000 X119.8 Y110.607
G1 F900 X103.719 Y94.526 E102.99093
G0 F6000 X103.719 Y95.233
G1 F900 X119.8 Y111.314 E104.50373
G0 F6000 X119.8 Y112.021
G1 F900 X103.719 Y95.94 E106.01653
G0 F6000 X103.719 Y96.648
G1 F900 X119.8 Y112.729 E107.52933
G0 F6000 X119.8 Y113.436
G1 F900 X103.719 Y97.355 E109.04214
G0 F6000 X103.719 Y98.062
G1 F900 X119.8 Y114.143 E110.55494
G0 F6000 X119.8 Y114.85
G1 F900 X103.719 Y98.769 E112.06774
G0 F6000 X103.719 Y99.476
G1 F900 X119.8 Y115.557 E113.58054
G0 F6000 X119.8 Y116.264
G1 F900 X103.719 Y100.183 E115.09334
G0 F6000 X103.719 Y100.89
G1 F900 X119.8 Y116.971 E116.60615
G0 F6000 X119.8 Y117.678
G1 F900 X103.719 Y101.597 E118.11895
G0 F6000 X103.719 Y102.304
G1 F900 X119.8 Y118.385 E119.63175
G0 F6000 X119.8 Y119.093
G1 F900 X103.719 Y103.012 E121.14455
G0 F6000 X103.719 Y103.719
G1 F900 X119.8 Y119.8 E122.65735
G0 F6000 X119.8 Y120.507
G1 F900 X103.719 Y104.426 E124.17016
G0 F6000 X103.719 Y105.133
G1 F900 X119.8 Y121.214 E125.68296
G0 F6000 X119.8 Y121.921
G1 F900 X103.719 Y105.84 E127.19576
G0 F6000 X103.719 Y106.547
G1 F900 X119.8 Y122.628 E128.70856
G0 F6000 X119.8 Y123.335
G1 F900 X103.719 Y107.254 E130.22136
G0 F6000 X103.719 Y107.961
G1 F900 X119.8 Y124.042 E131.73416
G0 F6000 X119.8 Y124.749
G1 F900 X103.719 Y108.668 E133.24697
G0 F6000 X103.719 Y109.375
G1 F900 X119.8 Y125.457 E134.75982
G0 F6000 X119.409 Y125.773
G1 F900 X103.719 Y110.083 E136.23583
G0 F6000 X103.719 Y110.79
G1 F900 X118.702 Y125.773 E137.64534
G0 F6000 X117.994 Y125.773
G1 F900 X103.719 Y111.497 E138.98829
G0 F6000 X103.719 Y112.204
G1 F900 X117.287 Y125.773 E140.26474
G0 F6000 X116.58 Y125.773
G1 F900 X103.719 Y112.911 E141.47467
G0 F6000 X103.719 Y113.618
G1 F900 X115.873 Y125.773 E142.61809
G0 F6000 X115.166 Y125.773
G1 F900 X103.719 Y114.325 E143.695
G0 F6000 X103.719 Y115.032
G1 F900 X114.459 Y125.773 E144.7054
G0 F6000 X113.752 Y125.773
G1 F900 X103.719 Y115.739 E145.64929
G0 F6000 X103.719 Y116.447
G1 F900 X113.045 Y125.773 E146.52662
G0 F6000 X112.338 Y125.773
G1 F900 X103.719 Y117.154 E147.33744
G0 F6000 X103.719 Y117.861
G1 F900 X111.63 Y125.773 E148.08171
G0 F6000 X110.923 Y125.773
G1 F900 X103.719 Y118.568 E148.75947
G0 F6000 X103.719 Y119.275
G1 F900 X110.216 Y125.773 E149.37071
G0 F6000 X109.509 Y125.773
G1 F900 X103.719 Y119.982 E149.91545
G0 F6000 X103.719 Y120.689
G1 F900 X108.802 Y125.773 E150.39367
