;FLAVOR:Marlin
;TIME:5767
;Filament used: 3.07103m
;Layer height: 0.2
;MINX:89.185
;MINY:72.701
;MINZ:0.32
;MAXX:170.842
;MAXY:143.851
;MAXZ:43.72
;POSTPROCESSED
;Generated with Cura_SteamEngine 5.3.1
;
;

M82 ;absolute extrusion mode
START_PRINT EXTRUDER_TEMP=250.0 BED_TEMP=90 RELATIVE_E_MODE=False PROBE=alse PROBE_AREA_START=%MINX%,%MINY% PROBE_AREA_END=%MAXX%,%MAXY%
G92 E0
G92 E0
G1 F1500 E-6.5
;LAYER_COUNT:218
;LAYER:0
M107
G0 F6000 X90.828 Y104.408 Z0.32
;TYPE:SKIRT
G1 F1500 E0
G1 F900 X91.207 Y104.093 E0.03278
G1 X93.346 Y102.683 E0.2032
G1 X95.603 Y101.108 E0.38628
G1 X97.86 Y99.435 E0.57316
G1 X100.016 Y97.741 E0.75556
G1 X102.115 Y95.995 E0.93717
G1 X104.213 Y94.144 E1.12329
G1 X106.228 Y92.266 E1.30651
G1 X108.182 Y90.335 E1.48926
G1 X110.12 Y88.311 E1.67566
G1 X111.965 Y86.27 E1.85868
G1 X113.759 Y84.169 E2.04245
G1 X115.495 Y82.016 E2.22643
G1 X117.168 Y79.817 E2.41023
G1 X118.926 Y77.358 E2.61131
G1 X119.372 Y76.72 E2.66309
G1 X119.755 Y76.218 E2.70509
G1 X119.98 Y75.966 E2.72756
G1 X120.224 Y75.73 E2.75014
G1 X120.462 Y75.53 E2.77082
G1 X121.309 Y74.913 E2.84053
G1 X121.747 Y74.617 E2.87569
G1 X122.257 Y74.36 E2.91368
G1 X123.029 Y74.088 E2.96813
G1 X123.576 Y73.914 E3.00632
G1 X123.889 Y73.838 E3.02774
G1 X124.411 Y73.751 E3.06294
G1 X125.149 Y73.705 E3.11213
G1 X126.26 Y73.701 E3.18604
G1 X126.909 Y73.714 E3.22922
G1 X127.169 Y73.735 E3.24657
G1 X127.822 Y73.825 E3.29042
G1 X128.142 Y73.879 E3.312
G1 X128.432 Y73.948 E3.33183
G1 X128.811 Y74.065 E3.35822
G1 X129.285 Y74.274 E3.39268
G1 X130.267 Y74.851 E3.46844
G1 X131.166 Y75.417 E3.53911
G1 X131.608 Y75.782 E3.57724
G1 X131.887 Y76.083 E3.60454
G1 X132.395 Y76.677 E3.65653
G1 X132.636 Y77.018 E3.68431
G1 X132.855 Y77.401 E3.71366
G1 X133.062 Y77.794 E3.74321
G1 X134.376 Y80.193 E3.92516
G1 X135.789 Y82.611 E4.11145
G1 X137.258 Y84.967 E4.29614
G1 X138.759 Y87.23 E4.47678
G1 X140.37 Y89.514 E4.66271
G1 X142.035 Y91.74 E4.84762
G1 X143.744 Y93.895 E5.03058
G1 X145.533 Y96.024 E5.21556
G1 X147.359 Y98.074 E5.39818
G1 X149.248 Y100.081 E5.58152
G1 X151.206 Y102.046 E5.76605
G1 X153.221 Y103.957 E5.95078
G1 X155.27 Y105.792 E6.13375
G1 X157.391 Y107.587 E6.31858
G1 X159.541 Y109.304 E6.50161
G1 X161.754 Y110.971 E6.68591
G1 X163.998 Y112.564 E6.86897
G1 X165.786 Y113.747 E7.01158
G1 X166.915 Y114.511 E7.10227
G1 X167.169 Y114.711 E7.12377
G1 X167.631 Y115.132 E7.16535
G1 X167.883 Y115.375 E7.18864
G1 X168.073 Y115.584 E7.20742
G1 X168.448 Y116.05 E7.24721
G1 X168.92 Y116.79 E7.3056
G1 X169.081 Y117.109 E7.32937
G1 X169.237 Y117.47 E7.35553
G1 X169.477 Y118.081 E7.3992
G1 X169.599 Y118.514 E7.42912
G1 X169.724 Y119.231 E7.47754
G1 X169.83 Y119.982 E7.52799
G1 X169.842 Y120.443 E7.55866
G1 X169.828 Y123.654 E7.77226
G1 X169.814 Y124.384 E7.82083
G1 X169.772 Y124.776 E7.84706
G1 X169.622 Y125.538 E7.89872
G1 X169.543 Y125.832 E7.91897
G1 X169.364 Y126.355 E7.95574
G1 X169.203 Y126.783 E7.98616
G1 X169.096 Y127.024 E8.0037
G1 X168.921 Y127.357 E8.02872
G1 X168.639 Y127.849 E8.06644
G1 X168.443 Y128.137 E8.08962
G1 X168.039 Y128.641 E8.13259
G1 X167.745 Y128.943 E8.16062
G1 X167.326 Y129.341 E8.19906
G1 X166.907 Y129.673 E8.23463
G1 X166.632 Y129.86 E8.25675
G1 X166.125 Y130.15 E8.2956
G1 X165.503 Y130.48 E8.34244
G1 X165.153 Y130.629 E8.36774
G1 X164.729 Y130.769 E8.39744
G1 X164.317 Y130.892 E8.42605
G1 X163.967 Y130.966 E8.44984
G1 X163.456 Y131.031 E8.48411
G1 X162.701 Y131.102 E8.53455
G1 X162.042 Y131.112 E8.5784
G1 X151.556 Y131.112 E9.27593
G1 X148.752 Y131.152 E9.46247
G1 X145.984 Y131.269 E9.64676
G1 X143.253 Y131.463 E9.82889
G1 X140.497 Y131.736 E10.01311
G1 X137.746 Y132.088 E10.1976
G1 X135.002 Y132.519 E10.38237
G1 X132.311 Y133.019 E10.56444
G1 X129.568 Y133.61 E10.75109
G1 X126.936 Y134.254 E10.93134
G1 X124.254 Y134.992 E11.11638
G1 X121.486 Y135.842 E11.30899
G1 X120.925 Y136.023 E11.3482
G1 X120.301 Y136.131 E11.39033
G1 X119.904 Y136.142 E11.41675
G1 X93.113 Y136.142 E13.19889
G1 X92.415 Y136.133 E13.24533
G1 X91.994 Y136.087 E13.2735
G1 X91.588 Y135.964 E13.30172
G1 X91.213 Y135.767 E13.3299
G1 X90.882 Y135.502 E13.3581
G1 X90.606 Y135.181 E13.38626
G1 X90.395 Y134.813 E13.41448
G1 X90.257 Y134.412 E13.44269
G1 X90.195 Y133.944 E13.47409
G1 X90.185 Y133.55 E13.50031
G1 X90.185 Y106.641 E15.29031
G1 X90.195 Y105.94 E15.33694
G1 X90.241 Y105.519 E15.36511
G1 X90.365 Y105.113 E15.39335
G1 X90.563 Y104.739 E15.4215
G1 X90.828 Y104.408 E15.44971
G0 F6000 X90.474 Y104.051
G1 F900 X90.141 Y104.466 E15.4851
G1 X89.901 Y104.92 E15.51926
G1 X89.749 Y105.42 E15.55403
G1 X89.695 Y105.933 E15.58834
G1 X89.685 Y106.634 E15.63497
G1 X89.685 Y133.563 E17.4263
G1 X89.699 Y134.01 E17.45605
G1 X89.768 Y134.527 E17.49074
G1 X89.938 Y135.021 E17.5255
G1 X90.195 Y135.469 E17.55985
G1 X90.532 Y135.861 E17.59424
G1 X90.943 Y136.19 E17.62926
G1 X91.397 Y136.429 E17.66339
G1 X91.891 Y136.579 E17.69773
G1 X92.361 Y136.63 E17.72918
G1 X93.107 Y136.642 E17.77881
G1 X119.918 Y136.642 E19.56229
G1 X120.386 Y136.624 E19.59344
G1 X121.01 Y136.516 E19.63557
G1 X124.396 Y135.471 E19.87129
G1 X127.055 Y134.74 E20.05473
G1 X129.687 Y134.096 E20.23497
G1 X132.402 Y133.511 E20.41972
G1 X135.093 Y133.011 E20.60179
G1 X137.821 Y132.582 E20.78549
G1 X140.546 Y132.234 E20.96823
G1 X143.302 Y131.961 E21.15245
G1 X146.005 Y131.769 E21.33271
G1 X148.773 Y131.652 E21.517
G1 X151.563 Y131.612 E21.70261
G1 X162.05 Y131.612 E22.40021
G1 X162.748 Y131.6 E22.44665
G1 X163.503 Y131.529 E22.49709
G1 X164.03 Y131.462 E22.53243
G1 X164.46 Y131.371 E22.56167
G1 X164.872 Y131.248 E22.59027
G1 X165.31 Y131.104 E22.62094
G1 X165.737 Y130.922 E22.65182
G1 X166.359 Y130.592 E22.69866
G1 X166.88 Y130.294 E22.73858
G1 X167.218 Y130.065 E22.76574
G1 X167.637 Y129.733 E22.8013
G1 X168.089 Y129.306 E22.84266
G1 X168.429 Y128.954 E22.87522
G1 X168.833 Y128.45 E22.91819
G1 X169.073 Y128.098 E22.94653
G1 X169.355 Y127.606 E22.98425
G1 X169.539 Y127.257 E23.01049
G1 X169.66 Y126.986 E23.03024
G1 X169.832 Y126.531 E23.06259
G1 X170.026 Y125.962 E23.10258
G1 X170.113 Y125.635 E23.12509
G1 X170.263 Y124.873 E23.17675
G1 X170.314 Y124.394 E23.2088
G1 X170.328 Y123.664 E23.25736
G1 X170.342 Y120.445 E23.4715
G1 X170.33 Y119.969 E23.50317
G1 X170.219 Y119.161 E23.55742
G1 X170.092 Y118.428 E23.60691
G1 X169.958 Y117.945 E23.64025
G1 X169.702 Y117.287 E23.68722
G1 X169.54 Y116.911 E23.71445
G1 X169.342 Y116.521 E23.74355
G1 X168.87 Y115.781 E23.80193
G1 X168.463 Y115.271 E23.84534
G1 X168.23 Y115.015 E23.86836
G1 X167.978 Y114.772 E23.89165
G1 X167.506 Y114.341 E23.93417
G1 X167.224 Y114.118 E23.95808
G1 X166.066 Y113.333 E24.05114
G1 X164.274 Y112.147 E24.19409
G1 X162.043 Y110.563 E24.3761
G1 X159.853 Y108.913 E24.5585
G1 X157.703 Y107.196 E24.74153
G1 X155.593 Y105.41 E24.92542
G1 X153.564 Y103.593 E25.10659
G1 X151.55 Y101.683 E25.29123
G1 X149.612 Y99.738 E25.47388
G1 X147.723 Y97.731 E25.65722
G1 X145.916 Y95.702 E25.83795
G1 X144.127 Y93.573 E26.02294
G1 X142.427 Y91.429 E26.20495
G1 X140.778 Y89.226 E26.388
G1 X139.168 Y86.942 E26.57388
G1 X137.675 Y84.691 E26.75356
G1 X136.213 Y82.346 E26.93739
G1 X134.808 Y79.941 E27.12267
G1 X133.501 Y77.554 E27.30369
G1 X133.297 Y77.168 E27.33274
G1 X133.044 Y76.729 E27.36644
G1 X132.775 Y76.352 E27.39725
G1 X132.267 Y75.758 E27.44924
G1 X131.975 Y75.442 E27.47786
G1 X131.484 Y75.031 E27.52046
G1 X130.533 Y74.428 E27.59536
G1 X129.487 Y73.816 E27.67598
G1 X129.013 Y73.607 E27.71044
G1 X128.579 Y73.47 E27.74071
G1 X128.225 Y73.386 E27.76491
G1 X127.905 Y73.332 E27.7865
G1 X127.237 Y73.24 E27.83136
G1 X126.919 Y73.214 E27.85258
G1 X126.27 Y73.201 E27.89576
G1 X125.147 Y73.205 E27.97046
G1 X124.38 Y73.252 E28.02158
G1 X123.771 Y73.352 E28.06263
G1 X123.458 Y73.428 E28.08406
G1 X122.877 Y73.612 E28.1246
G1 X122.091 Y73.888 E28.18001
G1 X121.522 Y74.17 E28.22226
G1 X121.029 Y74.499 E28.26168
G1 X120.14 Y75.147 E28.33486
G1 X119.902 Y75.347 E28.35554
G1 X119.632 Y75.607 E28.38048
G1 X119.357 Y75.915 E28.40794
G1 X118.974 Y76.417 E28.44994
G1 X118.519 Y77.067 E28.50272
G1 X116.77 Y79.514 E28.7028
G1 X115.097 Y81.713 E28.8866
G1 X113.379 Y83.844 E29.06869
G1 X111.594 Y85.935 E29.25157
G1 X109.759 Y87.965 E29.4336
G1 X107.831 Y89.979 E29.61906
G1 X105.887 Y91.9 E29.80086
G1 X103.882 Y93.769 E29.9832
G1 X101.784 Y95.62 E30.16931
G1 X99.707 Y97.348 E30.34903
G1 X97.562 Y99.033 E30.53048
G1 X95.305 Y100.706 E30.71737
G1 X93.06 Y102.273 E30.89948
G1 X90.887 Y103.708 E31.07271
G1 X90.474 Y104.051 E31.10842
G0 F6000 X90.116 Y103.698
G1 F900 X90.611 Y103.291 E31.15105
G1 X92.784 Y101.856 E31.32427
G1 X95.007 Y100.304 E31.50462
G1 X97.264 Y98.631 E31.6915
G1 X99.398 Y96.955 E31.87201
G1 X101.453 Y95.245 E32.04984
G1 X103.551 Y93.394 E32.23595
G1 X105.546 Y91.534 E32.41739
G1 X107.48 Y89.623 E32.59825
G1 X109.398 Y87.619 E32.78277
G1 X111.223 Y85.6 E32.96382
G1 X112.999 Y83.519 E33.1458
G1 X114.699 Y81.41 E33.326
G1 X116.372 Y79.211 E33.5098
G1 X118.112 Y76.776 E33.70888
G1 X118.576 Y76.114 E33.76265
G1 X118.959 Y75.612 E33.80466
G1 X119.285 Y75.247 E33.83721
G1 X119.58 Y74.964 E33.8644
G1 X119.845 Y74.743 E33.88736
G1 X120.751 Y74.083 E33.96192
G1 X121.244 Y73.754 E34.00135
G1 X121.925 Y73.416 E34.05192
G1 X122.726 Y73.135 E34.10839
G1 X123.307 Y72.951 E34.14893
G1 X123.653 Y72.866 E34.17263
G1 X124.349 Y72.753 E34.21953
G1 X125.145 Y72.705 E34.27258
G1 X126.28 Y72.701 E34.34808
G1 X126.929 Y72.714 E34.39126
G1 X127.305 Y72.745 E34.41636
G1 X127.988 Y72.839 E34.46222
G1 X128.308 Y72.893 E34.4838
G1 X128.73 Y72.993 E34.51265
G1 X129.215 Y73.149 E34.54654
G1 X129.689 Y73.358 E34.581
G1 X130.801 Y74.006 E34.66662
G1 X131.752 Y74.609 E34.74152
G1 X132.296 Y75.059 E34.78849
G1 X132.647 Y75.433 E34.8226
G1 X133.155 Y76.027 E34.8746
G1 X133.477 Y76.479 E34.91151
G1 X133.739 Y76.934 E34.94644
G1 X133.94 Y77.314 E34.97504
G1 X135.24 Y79.689 E35.15514
G1 X136.637 Y82.081 E35.33941
G1 X138.092 Y84.415 E35.52236
G1 X139.577 Y86.654 E35.70108
G1 X141.187 Y88.938 E35.88697
G1 X142.819 Y91.118 E36.06811
G1 X144.51 Y93.251 E36.24918
G1 X146.299 Y95.38 E36.43416
G1 X148.087 Y97.388 E36.61302
G1 X149.976 Y99.395 E36.79636
G1 X151.894 Y101.32 E36.97712
G1 X153.907 Y103.229 E37.16166
G1 X155.916 Y105.028 E37.34105
G1 X158.015 Y106.805 E37.524
G1 X160.165 Y108.522 E37.70702
G1 X162.332 Y110.155 E37.88752
G1 X164.55 Y111.73 E38.06848
G1 X166.347 Y112.919 E38.21181
G1 X167.505 Y113.704 E38.30487
G1 X167.843 Y113.972 E38.33357
G1 X168.325 Y114.412 E38.37698
G1 X168.6 Y114.678 E38.40243
G1 X168.833 Y114.934 E38.42546
G1 X169.292 Y115.512 E38.47455
G1 X169.764 Y116.252 E38.53294
G1 X169.986 Y116.685 E38.56531
G1 X170.168 Y117.106 E38.59582
G1 X170.44 Y117.811 E38.64608
G1 X170.585 Y118.343 E38.68276
G1 X170.714 Y119.093 E38.73339
G1 X170.83 Y119.956 E38.79131
G1 X170.842 Y120.447 E38.82398
G1 X170.828 Y123.674 E39.03864
G1 X170.814 Y124.404 E39.08721
G1 X170.754 Y124.97 E39.12507
G1 X170.604 Y125.732 E39.17674
G1 X170.509 Y126.091 E39.20144
G1 X170.3 Y126.708 E39.24477
G1 X170.117 Y127.19 E39.27907
G1 X169.996 Y127.461 E39.29881
G1 X169.789 Y127.855 E39.32842
G1 X169.507 Y128.347 E39.36614
G1 X169.246 Y128.732 E39.39708
G1 X168.819 Y129.267 E39.44261
G1 X168.449 Y129.653 E39.47818
G1 X167.948 Y130.125 E39.52397
G1 X167.529 Y130.457 E39.55953
G1 X167.128 Y130.728 E39.59172
G1 X166.593 Y131.034 E39.63272
G1 X165.971 Y131.364 E39.67956
G1 X165.506 Y131.564 E39.71323
G1 X165.015 Y131.727 E39.74765
G1 X164.564 Y131.86 E39.77892
G1 X164.093 Y131.958 E39.81093
G1 X163.55 Y132.027 E39.84734
G1 X162.795 Y132.098 E39.89778
G1 X162.059 Y132.112 E39.94675
G1 X151.57 Y132.112 E40.64448
G1 X148.794 Y132.152 E40.82916
G1 X146.026 Y132.269 E41.01345
G1 X143.351 Y132.459 E41.19184
G1 X140.595 Y132.732 E41.37607
G1 X137.896 Y133.076 E41.55706
G1 X135.184 Y133.503 E41.73969
G1 X132.493 Y134.003 E41.92176
G1 X129.806 Y134.582 E42.1046
G1 X127.174 Y135.226 E42.28484
G1 X124.539 Y135.95 E42.46662
G1 X121.157 Y136.994 E42.70207
G1 X120.471 Y137.117 E42.74843
G1 X119.937 Y137.142 E42.78399
G1 X93.099 Y137.142 E44.56926
G1 X92.353 Y137.13 E44.61889
G1 X91.794 Y137.071 E44.65628
G1 X91.206 Y136.893 E44.69715
G1 X90.669 Y136.61 E44.73753
G1 X90.182 Y136.22 E44.77903
G1 X89.784 Y135.757 E44.81964
G1 X89.481 Y135.229 E44.86014
G1 X89.279 Y134.642 E44.90143
G1 X89.203 Y134.076 E44.93942
G1 X89.185 Y133.579 E44.97251
G1 X89.185 Y106.627 E46.76536
G1 X89.195 Y105.926 E46.81199
G1 X89.257 Y105.322 E46.85238
G1 X89.438 Y104.726 E46.89382
G1 X89.721 Y104.19 E46.93414
G1 X90.116 Y103.698 E46.97611
G1 F1500 E40.47611
;MESH:Kobra 5015 Fan Shroud.stl
G0 F6000 X121.595 Y105.97
;TYPE:WALL-INNER
G1 F1500 E46.97611
G1 F684.9 X121.534 Y105.198 E47.0438
G1 F786.7 X121.476 Y101.909 E47.29413
G1 F762.7 X121.536 Y100.806 E47.38083
G1 F663.7 X121.596 Y99.703 E47.48047
G1 F1500 E40.98047
G0 F6000 X126.853 Y76.705
G1 F1500 E47.48047
G1 F900 X125.198 Y76.696 E47.59057
G1 X124.827 Y76.713 E47.61527
G1 X124.484 Y76.762 E47.63832
G1 X123.358 Y77.139 E47.71731
G1 X122.332 Y77.857 E47.80061
G1 X122.086 Y78.096 E47.82342
G1 X121.6 Y78.752 E47.87773
G1 X121.336 Y79.261 E47.91587
G1 X121.111 Y79.975 E47.96567
G1 X120.986 Y80.973 E48.03258
G1 X120.986 Y105.969 E49.69532
G1 X120.848 Y106.401 E49.72549
G1 X120.537 Y106.663 E49.75254
G1 X120.234 Y106.716 E49.773
G1 X93.185 Y106.716 E51.57231
G1 X93.185 Y133.142 E53.33017
G1 X119.484 Y133.142 E55.07959
G1 X119.484 Y128.862 E55.36429
G1 X119.512 Y128.656 E55.37812
G1 X119.628 Y128.418 E55.39573
G1 X119.831 Y128.228 E55.41423
G1 X119.993 Y128.151 E55.42616
G1 X120.234 Y128.111 E55.44241
G1 X162.559 Y128.112 E58.25788
G1 X163.516 Y128.008 E58.32192
G1 X164.148 Y127.811 E58.36595
G1 X165.104 Y127.287 E58.43847
G1 X165.339 Y127.105 E58.45825
G1 X165.786 Y126.666 E58.49992
G1 X166.091 Y126.277 E58.5328
G1 X166.422 Y125.678 E58.57833
G1 X166.692 Y124.936 E58.63085
G1 X166.796 Y124.344 E58.67084
G1 X166.824 Y124.232 E58.67851
G1 X166.843 Y120.217 E58.9456
G1 X166.673 Y119.125 E59.01911
G1 X166.348 Y118.328 E59.07637
G1 X166.045 Y117.832 E59.11503
G1 X165.792 Y117.515 E59.14201
G1 X165.22 Y116.977 E59.19425
G1 X164.652 Y116.604 E59.23945
G1 X163.629 Y116.198 E59.31266
G1 X162.823 Y116.082 E59.36683
G1 X160.532 Y116.07 E59.51923
G1 X159.72 Y116.181 E59.57375
G1 X159.067 Y116.372 E59.619
G1 X158.388 Y116.728 E59.67
G1 X156.912 Y118.028 E59.80084
G1 X155.696 Y119.084 E59.90797
G1 X154.735 Y119.806 E59.98793
G1 X152.981 Y120.933 E60.12661
G1 X151.442 Y121.728 E60.24184
G1 X149.789 Y122.411 E60.36082
G1 X148.369 Y122.875 E60.46019
G1 X147.146 Y123.178 E60.544
G1 X145.383 Y123.488 E60.66308
G1 X143.654 Y123.64 E60.77854
G1 X141.775 Y123.641 E60.90353
G1 X140.012 Y123.489 E61.02124
G1 X138.313 Y123.195 E61.13593
G1 X136.51 Y122.718 E61.26
G1 X134.317 Y121.886 E61.41602
G1 X132.439 Y120.953 E61.55551
G1 X130.153 Y119.422 E61.73853
G1 X128.213 Y117.771 E61.90799
G1 X126.887 Y116.347 E62.03742
G1 X125.084 Y113.893 E62.23999
G1 X124.023 Y111.915 E62.3893
G1 X122.994 Y109.406 E62.56969
G1 X122.494 Y107.624 E62.6928
G1 X122.085 Y105.232 E62.85423
G1 X121.971 Y101.916 E63.07494
G1 X122.193 Y99.831 E63.21442
G1 X122.773 Y97.145 E63.39721
G1 X123.385 Y95.347 E63.52355
G1 X124.108 Y93.713 E63.64241
G1 X124.947 Y92.186 E63.75831
G1 X125.914 Y90.727 E63.87475
G1 X127.092 Y89.254 E64.00021
G1 X127.902 Y88.377 E64.07963
G1 X128.861 Y87.476 E64.16716
G1 X129.71 Y86.65 E64.24595
G1 X130.281 Y85.858 E64.3109
G1 X130.529 Y85.328 E64.34982
G1 X130.784 Y84.225 E64.42513
G1 X130.805 Y80.863 E64.64878
G1 X130.782 Y80.494 E64.67337
G1 X130.685 Y79.951 E64.71006
G1 X130.461 Y79.275 E64.75743
G1 X130.073 Y78.565 E64.81126
G1 X129.481 Y77.891 E64.87093
G1 X127.883 Y76.909 E64.9957
G1 X127.562 Y76.815 E65.01795
G1 X126.853 Y76.705 E65.06567
G0 F6000 X127.611 Y77.329
G1 F900 X126.813 Y77.205 E65.11939
G1 X125.208 Y77.196 E65.22616
G1 X124.875 Y77.211 E65.24833
G1 X124.6 Y77.251 E65.26682
G1 X123.586 Y77.59 E65.33794
G1 X122.656 Y78.241 E65.41345
G1 X122.456 Y78.436 E65.43204
G1 X122.026 Y79.018 E65.48017
G1 X121.8 Y79.453 E65.51278
G1 X121.602 Y80.082 E65.55664
G1 X121.486 Y81.004 E65.61846
G1 X121.485 Y96.955 E66.67953
