;FLAVOR:Marlin
;TIME:4541
;Filament used: 6.40883m
;Layer height: 0.32
;MINX:77.765
;MINY:83.523
;MINZ:0.32
;MAXX:182.466
;MAXY:136.476
;MAXZ:16
;POSTPROCESSED
;Generated with Cura_SteamEngine 5.3.1
;
;

M82 ;absolute extrusion mode


; Pre-Processed for Cancel-Object support by preprocess_cancellation v0.2.0
; 1 known objects
EXCLUDE_OBJECT_DEFINE NAME=dube_stl CENTER=125.169,110.484 POLYGON=[[79.704,85.704],[79.704,134.296],[180.288,134.296],[180.288,85.704]]
START_PRINT EXTRUDER_TEMP=250.0 BED_TEMP=90 RELATIVE_E_MODE=False PROBE=alse PROBE_AREA_START=%MINX%,%MINY% PROBE_AREA_END=%MAXX%,%MAXY%
G92 E0
G92 E0
G1 F2100 E-0.5
;LAYER_COUNT:50
;LAYER:0
M107
G0 F6000 X86.095 Y92.219 Z0.32
;TYPE:SKIRT
G1 F2100 E0
G1 F900 X86.981 Y91.403 E0.08012
G1 X88.158 Y90.356 E0.18491
G1 X88.876 Y89.823 E0.2444
G1 X89.689 Y89.241 E0.31091
G1 X90.328 Y88.796 E0.3627
G1 X90.976 Y88.416 E0.41267
G1 X92.833 Y87.37 E0.55445
G1 X93.322 Y87.147 E0.5902
G1 X94.629 Y86.589 E0.68474
G1 X95.375 Y86.282 E0.7384
G1 X95.967 Y86.092 E0.77976
G1 X97.213 Y85.716 E0.86633
G1 X98.043 Y85.478 E0.92377
G1 X99.397 Y85.214 E1.01553
G1 X100.963 Y84.944 E1.12124
G1 X102.789 Y84.812 E1.24302
G1 X103.533 Y84.769 E1.2926
G1 X105.008 Y84.804 E1.39074
G1 X106.388 Y84.877 E1.48267
G1 X107.57 Y85.04 E1.56204
G1 X108.945 Y85.264 E1.65471
G1 X111.006 Y85.667 E1.79441
G1 X113.767 Y86.156 E1.98093
G1 X116.509 Y86.56 E2.1653
G1 X119.231 Y86.885 E2.34765
G1 X121.986 Y87.133 E2.53165
G1 X124.755 Y87.305 E2.7162
G1 X127.526 Y87.398 E2.90063
G1 X130.296 Y87.413 E3.0849
G1 X133.032 Y87.35 E3.26695
G1 X135.798 Y87.208 E3.45118
G1 X138.565 Y86.987 E3.63583
G1 X141.319 Y86.689 E3.8201
G1 X144.032 Y86.318 E4.00225
G1 X146.801 Y85.858 E4.18897
G1 X149.136 Y85.407 E4.34716
G1 X150.548 Y85.116 E4.44306
G1 X152.559 Y84.751 E4.57902
G1 X152.959 Y84.701 E4.60583
G1 X153.439 Y84.656 E4.6379
G1 X155.263 Y84.53 E4.75953
G1 X155.89 Y84.523 E4.80124
G1 X157.402 Y84.574 E4.90187
G1 X158.114 Y84.606 E4.94928
G1 X158.595 Y84.653 E4.98143
G1 X160.113 Y84.87 E5.08344
G1 X161.035 Y85.019 E5.14556
G1 X161.683 Y85.169 E5.18981
G1 X163.568 Y85.666 E5.31948
G1 X164.045 Y85.82 E5.35283
G1 X165.211 Y86.258 E5.43568
G1 X166.209 Y86.649 E5.50698
G1 X166.512 Y86.784 E5.52905
G1 X168.086 Y87.583 E5.64647
G1 X168.825 Y87.971 E5.70199
G1 X169.717 Y88.538 E5.7723
G1 X169.789 Y88.594 E5.77837
G1 X170.521 Y89.077 E5.83671
G1 X171.239 Y89.564 E5.89442
G1 X172.292 Y90.428 E5.98502
G1 X173.339 Y91.316 E6.07635
G1 X174.063 Y92.041 E6.1445
G1 X174.116 Y92.105 E6.15003
G1 X174.74 Y92.752 E6.20982
G1 X175.376 Y93.431 E6.27171
G1 X176.494 Y94.88 E6.39345
G1 X177.028 Y95.593 E6.45271
G1 X177.636 Y96.565 E6.52898
G1 X178.517 Y98.045 E6.64355
G1 X179.091 Y99.259 E6.73288
G1 X179.688 Y100.578 E6.82919
G1 X180.32 Y102.435 E6.95967
G1 X180.574 Y103.224 E7.01481
G1 X180.873 Y104.533 E7.10413
G1 X181.174 Y105.992 E7.20322
G1 X181.346 Y107.665 E7.3151
G1 X181.468 Y109.373 E7.429
G1 X181.442 Y110.9 E7.5306
G1 X181.381 Y112.145 E7.61351
G1 X181.217 Y113.72 E7.71885
G1 X180.987 Y114.954 E7.80235
G1 X180.639 Y116.519 E7.909
G1 X180.516 Y116.946 E7.93855
G1 X180.266 Y117.749 E7.9945
G1 X179.826 Y119.046 E8.08561
G1 X179.687 Y119.402 E8.11103
G1 X179.239 Y120.437 E8.18605
G1 X178.782 Y121.418 E8.25804
G1 X178.507 Y121.956 E8.29823
G1 X177.95 Y122.929 E8.37281
G1 X177.251 Y124.067 E8.46165
G1 X176.797 Y124.719 E8.5145
G1 X176.363 Y125.309 E8.56322
G1 X175.553 Y126.344 E8.65065
G1 X175.14 Y126.823 E8.69272
G1 X174.615 Y127.397 E8.74446
G1 X173.732 Y128.304 E8.82867
G1 X173.217 Y128.788 E8.87568
G1 X172.557 Y129.365 E8.934
G1 X171.721 Y130.056 E9.00614
G1 X171.478 Y130.246 E9.02666
G1 X170.87 Y130.693 E9.07686
G1 X170.292 Y131.092 E9.12358
G1 X169.451 Y131.642 E9.19043
G1 X169.051 Y131.886 E9.22159
G1 X168.383 Y132.271 E9.27288
G1 X167.966 Y132.497 E9.30443
G1 X167.054 Y132.959 E9.37244
G1 X166.59 Y133.179 E9.4066
G1 X165.946 Y133.462 E9.45339
G1 X165.298 Y133.725 E9.49991
G1 X164.437 Y134.043 E9.56097
G1 X163.936 Y134.212 E9.59614
G1 X162.961 Y134.512 E9.664
G1 X161.893 Y134.79 E9.73741
G1 X161.276 Y134.928 E9.77946
G1 X160.305 Y135.116 E9.84526
G1 X159.889 Y135.185 E9.87331
G1 X159.428 Y135.25 E9.90428
G1 X158.447 Y135.362 E9.96996
G1 X157.507 Y135.438 E10.03269
G1 X157.073 Y135.462 E10.0616
G1 X156.566 Y135.476 E10.09534
G1 X155.619 Y135.476 E10.15834
G1 X154.716 Y135.451 E10.21843
G1 X154.309 Y135.429 E10.24554
G1 X153.72 Y135.379 E10.28486
G1 X152.795 Y135.275 E10.34678
G1 X151.83 Y135.139 E10.41161
G1 X151.447 Y135.073 E10.43746
G1 X150.876 Y134.96 E10.47618
G1 X148.529 Y134.464 E10.63575
G1 X145.751 Y133.952 E10.82366
G1 X143.057 Y133.534 E11.00501
G1 X140.303 Y133.187 E11.18965
G1 X137.575 Y132.92 E11.37199
G1 X134.777 Y132.727 E11.55855
G1 X132.044 Y132.616 E11.7405
G1 X129.272 Y132.581 E11.92491
G1 X126.501 Y132.626 E12.10926
G1 X123.732 Y132.748 E12.29364
G1 X121.001 Y132.947 E12.47578
G1 X118.212 Y133.228 E12.66225
G1 X115.489 Y133.581 E12.8449
G1 X112.766 Y134.013 E13.0283
G1 X108.988 Y134.742 E13.28425
G1 X107.763 Y134.967 E13.3671
G1 X106.242 Y135.127 E13.46883
G1 X104.04 Y135.225 E13.61546
G1 X103.381 Y135.239 E13.6593
G1 X102.471 Y135.181 E13.71996
G1 X101.286 Y135.086 E13.79904
G1 X100.601 Y135.021 E13.84481
G1 X99.277 Y134.776 E13.93438
G1 X97.895 Y134.497 E14.02816
G1 X97.044 Y134.243 E14.08724
G1 X95.676 Y133.811 E14.18267
G1 X94.948 Y133.57 E14.23368
G1 X94.065 Y133.188 E14.29768
G1 X93.107 Y132.756 E14.36759
G1 X92.381 Y132.415 E14.42094
G1 X90.775 Y131.478 E14.54463
G1 X89.996 Y131 E14.60542
G1 X88.59 Y129.963 E14.72164
G1 X87.924 Y129.45 E14.77756
G1 X87.404 Y128.988 E14.82383
G1 X86.612 Y128.258 E14.89548
G1 X85.728 Y127.416 E14.97669
G1 X85.087 Y126.686 E15.04131
G1 X83.933 Y125.317 E15.16042
G1 X83.471 Y124.656 E15.21406
G1 X82.813 Y123.685 E15.29209
G1 X82.384 Y123.031 E15.34412
G1 X82.018 Y122.357 E15.39513
G1 X81.157 Y120.723 E15.518
G1 X80.863 Y120.025 E15.56838
G1 X80.427 Y118.944 E15.64591
G1 X80.166 Y118.271 E15.69393
G1 X79.999 Y117.756 E15.72994
G1 X79.746 Y116.877 E15.79079
G1 X79.593 Y116.312 E15.82973
G1 X79.304 Y115.185 E15.90712
G1 X79.138 Y114.201 E15.9735
G1 X78.997 Y113.283 E16.03528
G1 X78.876 Y112.408 E16.09404
G1 X78.836 Y111.638 E16.14533
G1 X78.765 Y109.845 E16.2647
G1 X78.815 Y108.819 E16.33303
G1 X78.87 Y107.968 E16.38976
G1 X78.932 Y107.19 E16.44167
G1 X79.192 Y105.571 E16.55075
G1 X79.477 Y104.064 E16.65277
G1 X79.71 Y103.245 E16.70941
G1 X80.023 Y102.202 E16.78185
G1 X80.276 Y101.4 E16.83779
G1 X80.571 Y100.681 E16.88949
G1 X81.013 Y99.642 E16.9646
G1 X81.34 Y98.905 E17.01823
G1 X82.193 Y97.349 E17.13627
G1 X82.616 Y96.607 E17.19308
G1 X83.072 Y95.939 E17.24689
G1 X83.73 Y95.005 E17.32289
G1 X84.202 Y94.361 E17.376
G1 X84.635 Y93.842 E17.42096
G1 X86.095 Y92.219 E17.56618
G0 F6000 X85.756 Y91.851
G1 F900 X84.263 Y93.508 E17.71455
G1 X83.799 Y94.065 E17.76277
G1 X83.327 Y94.709 E17.81588
G1 X82.663 Y95.651 E17.89255
G1 X82.203 Y96.325 E17.94683
G1 X81.759 Y97.101 E18.0063
G1 X80.883 Y98.702 E18.1277
G1 X80.556 Y99.439 E18.18133
G1 X80.111 Y100.485 E18.25695
G1 X79.813 Y101.21 E18.30909
G1 X79.546 Y102.052 E18.36785
G1 X79.231 Y103.101 E18.44071
G1 X78.996 Y103.927 E18.49783
G1 X78.701 Y105.478 E18.60286
G1 X78.438 Y107.111 E18.71288
G1 X78.372 Y107.928 E18.76741
G1 X78.316 Y108.787 E18.82467
G1 X78.265 Y109.865 E18.89646
G1 X78.336 Y111.658 E19.01582
G1 X78.377 Y112.434 E19.06751
G1 X78.502 Y113.351 E19.12908
G1 X78.644 Y114.277 E19.1914
G1 X78.811 Y115.268 E19.25825
G1 X79.109 Y116.436 E19.33843
G1 X79.263 Y117.008 E19.37784
G1 X79.523 Y117.91 E19.44028
G1 X79.69 Y118.425 E19.47629
G1 X79.961 Y119.125 E19.52623
G1 X80.399 Y120.212 E19.60418
G1 X80.696 Y120.917 E19.65507
G1 X81.576 Y122.59 E19.78082
G1 X81.945 Y123.27 E19.83228
G1 X82.395 Y123.959 E19.88702
G1 X83.057 Y124.936 E19.96553
G1 X83.523 Y125.603 E20.01965
G1 X84.705 Y127.008 E20.14179
G1 X85.352 Y127.746 E20.20707
G1 X86.267 Y128.62 E20.29125
G1 X87.065 Y129.356 E20.36346
G1 X87.592 Y129.824 E20.41034
G1 X88.285 Y130.359 E20.46858
G1 X89.699 Y131.402 E20.58546
G1 X90.514 Y131.904 E20.64913
G1 X92.168 Y132.868 E20.77648
G1 X92.894 Y133.209 E20.82984
G1 X93.859 Y133.644 E20.90025
G1 X94.749 Y134.029 E20.96475
G1 X95.519 Y134.286 E21.01875
G1 X96.893 Y134.72 E21.1146
G1 X97.796 Y134.987 E21.17724
G1 X99.178 Y135.266 E21.27103
G1 X100.51 Y135.513 E21.36114
G1 X101.239 Y135.584 E21.40987
G1 X102.431 Y135.679 E21.48941
G1 X103.392 Y135.739 E21.55346
G1 X104.051 Y135.725 E21.59731
G1 X106.264 Y135.627 E21.74466
G1 X107.853 Y135.459 E21.85095
G1 X109.078 Y135.234 E21.9338
G1 X112.852 Y134.506 E22.18948
G1 X115.561 Y134.076 E22.37193
G1 X118.276 Y133.724 E22.55405
G1 X121.037 Y133.445 E22.73865
G1 X123.754 Y133.248 E22.91986
G1 X126.523 Y133.126 E23.10423
G1 X129.274 Y133.081 E23.28725
G1 X132.024 Y133.116 E23.4702
G1 X134.757 Y133.227 E23.65215
G1 X137.526 Y133.418 E23.83678
G1 X140.254 Y133.685 E24.01911
G1 X142.988 Y134.029 E24.20241
G1 X145.66 Y134.444 E24.38229
G1 X148.438 Y134.956 E24.57019
G1 X150.773 Y135.449 E24.72894
G1 X151.35 Y135.563 E24.76807
G1 X151.745 Y135.632 E24.79474
G1 X152.725 Y135.77 E24.86057
G1 X153.664 Y135.876 E24.92343
G1 X154.267 Y135.927 E24.96369
G1 X154.689 Y135.95 E24.9918
G1 X155.605 Y135.976 E25.05276
G1 X156.58 Y135.976 E25.11761
G1 X157.087 Y135.962 E25.15135
G1 X157.535 Y135.937 E25.1812
G1 X158.487 Y135.86 E25.24473
G1 X159.485 Y135.747 E25.31155
G1 X159.959 Y135.68 E25.34339
G1 X160.387 Y135.609 E25.37225
G1 X161.371 Y135.419 E25.43892
G1 X162.002 Y135.278 E25.48192
G1 X163.087 Y134.996 E25.5565
G1 X164.096 Y134.686 E25.62671
G1 X164.597 Y134.517 E25.66188
G1 X165.471 Y134.194 E25.72387
G1 X166.134 Y133.925 E25.77146
G1 X166.791 Y133.637 E25.81918
G1 X167.268 Y133.411 E25.85429
G1 X168.192 Y132.943 E25.92319
G1 X168.621 Y132.711 E25.95563
G1 X169.301 Y132.319 E26.00784
G1 X169.711 Y132.069 E26.03979
G1 X170.566 Y131.51 E26.10774
G1 X171.154 Y131.104 E26.15527
G1 X171.774 Y130.649 E26.20643
G1 X172.029 Y130.45 E26.22794
G1 X172.876 Y129.75 E26.30104
G1 X173.546 Y129.164 E26.36025
G1 X174.074 Y128.668 E26.40844
G1 X174.973 Y127.746 E26.4941
G1 X175.519 Y127.15 E26.54787
G1 X175.932 Y126.671 E26.58994
G1 X176.757 Y125.617 E26.67898
G1 X177.2 Y125.015 E26.72869
G1 X177.677 Y124.329 E26.78427
G1 X178.376 Y123.191 E26.87311
G1 X178.941 Y122.204 E26.94877
G1 X179.227 Y121.646 E26.99048
G1 X179.692 Y120.648 E27.06372
G1 X180.146 Y119.601 E27.13963
G1 X180.292 Y119.228 E27.16627
G1 X180.739 Y117.91 E27.25885
G1 X180.993 Y117.095 E27.31564
G1 X181.127 Y116.628 E27.34796
G1 X181.475 Y115.063 E27.4546
G1 X181.709 Y113.812 E27.53926
G1 X181.878 Y112.197 E27.64728
G1 X181.941 Y110.924 E27.73206
G1 X181.967 Y109.337 E27.83765
G1 X181.845 Y107.629 E27.95155
G1 X181.664 Y105.891 E28.06779
G1 X181.363 Y104.432 E28.16689
G1 X181.05 Y103.071 E28.25978
G1 X180.796 Y102.282 E28.31492
G1 X180.144 Y100.372 E28.44917
G1 X179.547 Y99.053 E28.54548
G1 X178.947 Y97.789 E28.63856
G1 X178.066 Y96.309 E28.75313
G1 X177.452 Y95.328 E28.83011
G1 X176.894 Y94.58 E28.89219
G1 X175.741 Y93.089 E29.01757
G1 X175.105 Y92.41 E29.07945
G1 X174.489 Y91.771 E29.1385
G1 X174.417 Y91.688 E29.14581
G1 X173.693 Y90.963 E29.21396
G1 X172.615 Y90.047 E29.30806
G1 X171.52 Y89.15 E29.40222
G1 X170.802 Y88.663 E29.45993
G1 X170.088 Y88.193 E29.5168
G1 X169.985 Y88.116 E29.52535
G1 X169.057 Y87.528 E29.59843
G1 X168.318 Y87.14 E29.65395
G1 X166.738 Y86.338 E29.77182
G1 X166.412 Y86.192 E29.79558
G1 X165.393 Y85.792 E29.8684
G1 X164.221 Y85.352 E29.95167
G1 X163.722 Y85.19 E29.98657
G1 X161.81 Y84.686 E30.1181
G1 X161.115 Y84.525 E30.16556
G1 X160.193 Y84.376 E30.22769
G1 X158.666 Y84.158 E30.33029
G1 X158.163 Y84.108 E30.36392
G1 X157.424 Y84.075 E30.41313
G1 X155.907 Y84.023 E30.5141
G1 X155.257 Y84.03 E30.55734
G1 X153.405 Y84.157 E30.68082
G1 X152.912 Y84.203 E30.71376
G1 X152.497 Y84.255 E30.74158
G1 X150.459 Y84.624 E30.87935
G1 X149.035 Y84.917 E30.97606
G1 X146.706 Y85.367 E31.13385
G1 X143.953 Y85.825 E31.3195
G1 X141.265 Y86.192 E31.49997
G1 X138.511 Y86.49 E31.68423
G1 X135.768 Y86.709 E31.86728
G1 X133.02 Y86.85 E32.05032
G1 X130.287 Y86.913 E32.23216
G1 X127.543 Y86.898 E32.4147
G1 X124.772 Y86.805 E32.59913
G1 X122.026 Y86.635 E32.78214
G1 X119.276 Y86.387 E32.96582
G1 X116.582 Y86.066 E33.14629
G1 X113.84 Y85.661 E33.33067
G1 X111.102 Y85.177 E33.51562
G1 X109.041 Y84.773 E33.65533
G1 X107.65 Y84.547 E33.74907
G1 X106.456 Y84.382 E33.82925
G1 X105.034 Y84.305 E33.92399
G1 X103.545 Y84.269 E34.02306
G1 X102.76 Y84.313 E34.07536
G1 X100.927 Y84.445 E34.19761
G1 X99.312 Y84.721 E34.3066
G1 X97.905 Y84.997 E34.40198
G1 X97.075 Y85.235 E34.45941
G1 X95.823 Y85.613 E34.54641
G1 X95.222 Y85.806 E34.5884
G1 X94.439 Y86.127 E34.64469
G1 X93.126 Y86.687 E34.73964
G1 X92.588 Y86.934 E34.77902
G1 X90.731 Y87.98 E34.9208
G1 X90.042 Y88.386 E34.974
G1 X89.403 Y88.831 E35.0258
G1 X88.585 Y89.416 E35.09269
G1 X87.826 Y89.982 E35.15567
G1 X86.649 Y91.029 E35.26046
G1 X85.756 Y91.851 E35.3412
G0 F6000 X85.417 Y91.483
G1 F900 X86.317 Y90.655 E35.42255
G1 X87.527 Y89.581 E35.53017
G1 X88.294 Y89.009 E35.59382
G1 X89.117 Y88.421 E35.6611
G1 X89.788 Y87.955 E35.71545
G1 X90.486 Y87.544 E35.76933
G1 X92.343 Y86.498 E35.91111
G1 X92.93 Y86.227 E35.95411
G1 X94.249 Y85.664 E36.04951
G1 X95.032 Y85.343 E36.10581
G1 X95.678 Y85.134 E36.15097
G1 X96.937 Y84.754 E36.23845
G1 X97.767 Y84.516 E36.29589
G1 X99.228 Y84.228 E36.39494
G1 X100.891 Y83.946 E36.50715
G1 X102.732 Y83.814 E36.62993
G1 X103.557 Y83.769 E36.68489
G1 X105.061 Y83.806 E36.78496
G1 X106.524 Y83.887 E36.88243
G1 X107.73 Y84.053 E36.96341
G1 X109.137 Y84.282 E37.05824
G1 X111.198 Y84.687 E37.19796
G1 X113.913 Y85.166 E37.38135
G1 X116.655 Y85.572 E37.56574
G1 X119.321 Y85.889 E37.74433
G1 X122.066 Y86.137 E37.92767
G1 X124.789 Y86.305 E38.10915
G1 X127.56 Y86.398 E38.29358
G1 X130.278 Y86.413 E38.47439
G1 X133.008 Y86.35 E38.65603
G1 X135.738 Y86.21 E38.83787
G1 X138.457 Y85.993 E39.01932
G1 X141.211 Y85.695 E39.20358
G1 X143.874 Y85.332 E39.38236
G1 X146.611 Y84.876 E39.56694
G1 X148.934 Y84.427 E39.72433
G1 X150.37 Y84.132 E39.82184
G1 X152.435 Y83.759 E39.96143
G1 X152.866 Y83.705 E39.99033
G1 X153.371 Y83.658 E40.02406
G1 X155.252 Y83.53 E40.14948
G1 X155.924 Y83.523 E40.19418
G1 X157.446 Y83.575 E40.29548
G1 X158.212 Y83.61 E40.34649
G1 X158.737 Y83.663 E40.38159
G1 X160.273 Y83.882 E40.4848
G1 X161.195 Y84.031 E40.54693
G1 X161.937 Y84.203 E40.5976
G1 X163.876 Y84.714 E40.73098
G1 X164.397 Y84.884 E40.76744
G1 X165.576 Y85.327 E40.85122
G1 X166.616 Y85.736 E40.92556
G1 X166.964 Y85.892 E40.95093
G1 X168.55 Y86.697 E41.06924
G1 X169.289 Y87.085 E41.12476
G1 X170.253 Y87.694 E41.20061
G1 X170.363 Y87.775 E41.2097
G1 X171.083 Y88.249 E41.26704
G1 X171.801 Y88.736 E41.32475
G1 X172.939 Y89.666 E41.42251
G1 X174.017 Y90.582 E41.51662
G1 X174.795 Y91.36 E41.5898
G1 X174.864 Y91.44 E41.59683
G1 X175.47 Y92.068 E41.65489
G1 X176.137 Y92.783 E41.71993
G1 X177.295 Y94.281 E41.84588
G1 X177.853 Y95.029 E41.90796
G1 X178.496 Y96.053 E41.98839
G1 X179.377 Y97.533 E42.10296
G1 X180.003 Y98.847 E42.19978
G1 X180.6 Y100.166 E42.29609
G1 X181.272 Y102.129 E42.43411
G1 X181.526 Y102.918 E42.48925
G1 X181.853 Y104.331 E42.58572
G1 X182.154 Y105.79 E42.68482
G1 X182.344 Y107.593 E42.80542
G1 X182.466 Y109.301 E42.91933
G1 X182.44 Y110.949 E43.02897
G1 X182.375 Y112.249 E43.11555
G1 X182.206 Y113.864 E43.22357
G1 X181.963 Y115.172 E43.31206
G1 X181.608 Y116.766 E43.42069
G1 X181.47 Y117.244 E43.45379
G1 X181.213 Y118.071 E43.5114
G1 X180.758 Y119.41 E43.60547
G1 X180.605 Y119.8 E43.63334
G1 X180.145 Y120.859 E43.71014
G1 X179.672 Y121.874 E43.78463
G1 X179.375 Y122.452 E43.82786
G1 X178.802 Y123.453 E43.90458
G1 X178.088 Y124.614 E43.99525
G1 X177.603 Y125.311 E44.05173
G1 X177.151 Y125.925 E44.10245
G1 X176.311 Y126.998 E44.1931
G1 X175.888 Y127.488 E44.23616
G1 X175.331 Y128.095 E44.29096
G1 X174.416 Y129.032 E44.37808
G1 X173.875 Y129.54 E44.42744
G1 X173.195 Y130.135 E44.48755
G1 X172.337 Y130.844 E44.56159
G1 X172.07 Y131.052 E44.5841
G1 X171.438 Y131.515 E44.63622
