;FLAVOR:Marlin
;TIME:4924
;Filament used: 2.3542m
;Layer height: 0.28
;MINX:109.008
;MINY:109.005
;MINZ:0.28
;MAXX:150.992
;MAXY:150.995
;MAXZ:350
;POSTPROCESSED
;Generated with Cura_SteamEngine 5.2.1
;
;

M82 ;absolute extrusion mode
START_PRINT EXTRUDER_TEMP=210 BED_TEMP=50 RELATIVE_E_MODE=False PROBE=false PROBE_AREA_START=%MINX%,%MINY% PROBE_AREA_END=%MAXX%,%MAXY%
G92 E0
G92 E0
G1 F1500 E-6.5
;LAYER_COUNT:1250
;LAYER:0
M106 S63.8
G0 F6000 X112.206 Y112.269 Z0.28
;TYPE:SKIRT
G1 F1500 E0
G1 F1200 X112.894 Y111.632 E0.04366
G1 X113.634 Y111.056 E0.08732
G1 X114.42 Y110.544 E0.131
G1 X115.247 Y110.102 E0.17467
G1 X116.109 Y109.732 E0.21835
G1 X116.999 Y109.436 E0.26202
G1 X117.911 Y109.218 E0.30568
G1 X118.838 Y109.077 E0.34935
G1 X119.709 Y109.018 E0.39
G1 X120.338 Y109.005 E0.41929
G1 X139.443 Y109.006 E1.3089
G1 X140.141 Y109.016 E1.34141
G1 X141.077 Y109.07 E1.38506
G1 X142.005 Y109.202 E1.42871
G1 X142.919 Y109.414 E1.4724
G1 X143.811 Y109.703 E1.51606
G1 X144.676 Y110.066 E1.55974
G1 X145.506 Y110.502 E1.6034
G1 X146.297 Y111.007 E1.64709
G1 X147.041 Y111.578 E1.69077
G1 X147.734 Y112.21 E1.73444
G1 X148.371 Y112.898 E1.7781
G1 X148.946 Y113.639 E1.82177
G1 X149.457 Y114.425 E1.86543
G1 X149.899 Y115.253 E1.90913
G1 X150.268 Y116.115 E1.95279
G1 X150.563 Y117.005 E1.99645
G1 X150.781 Y117.917 E2.04011
G1 X150.921 Y118.845 E2.08381
G1 X150.979 Y119.706 E2.124
G1 X150.992 Y120.335 E2.15329
G1 X150.991 Y139.395 E3.04081
G1 X150.982 Y140.122 E3.07466
G1 X150.931 Y141.059 E3.11835
G1 X150.799 Y141.987 E3.162
G1 X150.59 Y142.901 E3.20566
G1 X150.303 Y143.794 E3.24934
G1 X149.941 Y144.66 E3.29304
G1 X149.507 Y145.491 E3.3367
G1 X149.003 Y146.282 E3.38037
G1 X148.434 Y147.027 E3.42402
G1 X147.803 Y147.722 E3.46773
G1 X147.116 Y148.36 E3.51139
G1 X146.377 Y148.937 E3.55505
G1 X145.591 Y149.449 E3.59873
G1 X144.765 Y149.892 E3.64237
G1 X143.903 Y150.264 E3.68609
G1 X143.014 Y150.56 E3.72972
G1 X142.102 Y150.78 E3.7734
G1 X141.175 Y150.921 E3.81706
G1 X140.291 Y150.982 E3.85832
G1 X139.662 Y150.995 E3.88762
G1 X120.573 Y150.994 E4.77648
G1 X119.875 Y150.985 E4.80899
G1 X118.939 Y150.933 E4.85264
G1 X118.01 Y150.801 E4.89633
G1 X117.096 Y150.591 E4.94
G1 X116.203 Y150.304 E4.98368
G1 X115.338 Y149.941 E5.02736
G1 X114.507 Y149.507 E5.07101
G1 X113.716 Y149.003 E5.11468
G1 X112.971 Y148.433 E5.15836
G1 X112.277 Y147.802 E5.20204
G1 X111.64 Y147.115 E5.24566
G1 X111.063 Y146.375 E5.28936
G1 X110.551 Y145.589 E5.33304
G1 X110.108 Y144.762 E5.37672
G1 X109.737 Y143.901 E5.42038
G1 X109.441 Y143.011 E5.46405
G1 X109.222 Y142.099 E5.50773
G1 X109.081 Y141.172 E5.55139
G1 X109.021 Y140.283 E5.59288
G1 X109.008 Y139.653 E5.62222
G1 X109.009 Y120.53 E6.51267
G1 X109.018 Y119.865 E6.54363
G1 X109.071 Y118.929 E6.58729
G1 X109.203 Y118 E6.63098
G1 X109.414 Y117.086 E6.67466
G1 X109.702 Y116.194 E6.71831
G1 X110.065 Y115.329 E6.76199
G1 X110.5 Y114.498 E6.80566
G1 X111.004 Y113.708 E6.8493
G1 X111.574 Y112.963 E6.89298
G1 X112.206 Y112.269 E6.93668
G0 F6000 X112.597 Y112.444
G1 F1200 X113.282 Y111.828 E6.97958
G1 X114.018 Y111.275 E7.02245
G1 X114.799 Y110.787 E7.06533
G1 X115.619 Y110.369 E7.10819
G1 X116.473 Y110.024 E7.15108
G1 X117.353 Y109.754 E7.19394
G1 X118.253 Y109.562 E7.23679
G1 X119.167 Y109.448 E7.27968
G1 X119.72 Y109.418 E7.30547
G1 X120.338 Y109.405 E7.33425
G1 X139.285 Y109.405 E8.2165
G1 X140.135 Y109.416 E8.25608
G1 X141.054 Y109.469 E8.29895
G1 X141.965 Y109.602 E8.34182
G1 X142.861 Y109.813 E8.38468
G1 X143.735 Y110.101 E8.42753
G1 X144.582 Y110.464 E8.47044
G1 X145.393 Y110.899 E8.51329
G1 X146.163 Y111.403 E8.55614
G1 X146.887 Y111.972 E8.59902
G1 X147.559 Y112.602 E8.64191
G1 X148.174 Y113.287 E8.68478
G1 X148.727 Y114.023 E8.72765
G1 X149.214 Y114.804 E8.7705
G1 X149.631 Y115.625 E8.81338
G1 X149.976 Y116.479 E8.85627
G1 X150.245 Y117.359 E8.89912
G1 X150.437 Y118.26 E8.94201
G1 X150.55 Y119.173 E8.98485
G1 X150.579 Y119.717 E9.01022
G1 X150.592 Y120.335 E9.039
G1 X150.591 Y139.39 E9.92628
G1 X150.582 Y140.117 E9.96014
G1 X150.531 Y141.036 E10.00299
G1 X150.4 Y141.948 E10.0459
G1 X150.19 Y142.844 E10.08875
G1 X149.904 Y143.719 E10.13161
G1 X149.543 Y144.566 E10.17449
G1 X149.109 Y145.378 E10.21736
G1 X148.607 Y146.15 E10.26024
G1 X148.039 Y146.875 E10.30312
G1 X147.411 Y147.548 E10.34599
G1 X146.727 Y148.164 E10.38885
G1 X145.992 Y148.718 E10.43171
G1 X145.212 Y149.207 E10.47457
G1 X144.392 Y149.626 E10.51745
G1 X143.539 Y149.972 E10.56031
G1 X142.659 Y150.243 E10.60319
G1 X141.759 Y150.436 E10.64605
G1 X140.845 Y150.551 E10.68895
G1 X140.28 Y150.582 E10.71529
G1 X139.662 Y150.595 E10.74408
G1 X120.578 Y150.594 E11.63271
G1 X119.88 Y150.585 E11.66521
G1 X118.961 Y150.533 E11.70807
G1 X118.05 Y150.402 E11.75093
G1 X117.154 Y150.192 E11.79378
G1 X116.279 Y149.905 E11.83666
G1 X115.432 Y149.543 E11.87955
G1 X114.62 Y149.109 E11.92242
G1 X113.849 Y148.607 E11.96526
G1 X113.124 Y148.039 E12.00815
G1 X112.451 Y147.41 E12.05104
G1 X111.836 Y146.726 E12.09387
G1 X111.282 Y145.991 E12.13673
G1 X110.794 Y145.21 E12.17961
G1 X110.375 Y144.39 E12.22249
G1 X110.029 Y143.537 E12.26536
G1 X109.759 Y142.657 E12.30822
G1 X109.566 Y141.756 E12.35112
G1 X109.452 Y140.843 E12.39397
G1 X109.421 Y140.272 E12.42059
G1 X109.408 Y139.653 E12.44942
G1 X109.409 Y120.536 E13.33959
G1 X109.418 Y119.871 E13.37056
G1 X109.47 Y118.951 E13.41347
G1 X109.602 Y118.04 E13.45633
G1 X109.813 Y117.144 E13.49919
G1 X110.1 Y116.269 E13.54207
G1 X110.463 Y115.423 E13.58494
G1 X110.897 Y114.611 E13.62781
G1 X111.4 Y113.84 E13.67068
G1 X111.969 Y113.116 E13.71355
G1 X112.597 Y112.444 E13.75638
G0 F6000 X112.989 Y112.622
G1 F1200 X113.67 Y112.029 E13.79843
G1 X114.402 Y111.499 E13.84051
G1 X115.177 Y111.036 E13.88255
G1 X115.99 Y110.643 E13.9246
G1 X116.835 Y110.323 E13.96667
G1 X117.704 Y110.08 E14.00869
G1 X118.592 Y109.914 E14.05075
G1 X119.731 Y109.818 E14.10398
G1 X120.338 Y109.805 E14.13225
G1 X139.285 Y109.805 E15.0145
G1 X140.129 Y109.816 E15.0538
G1 X141.031 Y109.869 E15.09587
G1 X141.924 Y110.001 E15.13791
G1 X142.802 Y110.212 E15.17996
G1 X143.658 Y110.5 E15.22201
G1 X144.485 Y110.862 E15.26405
G1 X145.277 Y111.297 E15.30612
G1 X146.028 Y111.799 E15.34818
G1 X146.731 Y112.366 E15.39024
G1 X147.381 Y112.993 E15.43229
G1 X147.973 Y113.675 E15.47434
G1 X148.503 Y114.406 E15.51639
G1 X148.965 Y115.182 E15.55844
G1 X149.358 Y115.995 E15.60049
G1 X149.676 Y116.84 E15.64253
G1 X149.919 Y117.71 E15.68459
G1 X150.084 Y118.598 E15.72665
G1 X150.179 Y119.728 E15.77945
G1 X150.192 Y120.335 E15.80772
G1 X150.191 Y139.385 E16.69477
G1 X150.182 Y140.112 E16.72862
G1 X150.131 Y141.014 E16.77069
G1 X150 Y141.908 E16.81277
G1 X149.791 Y142.786 E16.85479
G1 X149.505 Y143.643 E16.89686
G1 X149.144 Y144.471 E16.93892
G1 X148.712 Y145.263 E16.98093
G1 X148.211 Y146.015 E17.023
G1 X147.645 Y146.719 E17.06507
G1 X147.02 Y147.37 E17.10709
G1 X146.339 Y147.964 E17.14917
G1 X145.608 Y148.495 E17.19124
G1 X144.834 Y148.959 E17.23326
G1 X144.021 Y149.353 E17.27533
G1 X143.177 Y149.673 E17.31736
G1 X142.307 Y149.918 E17.35944
G1 X141.42 Y150.084 E17.40146
G1 X140.269 Y150.182 E17.45525
G1 X139.662 Y150.195 E17.48352
G1 X120.583 Y150.194 E18.37192
G1 X119.885 Y150.185 E18.40443
G1 X118.984 Y150.134 E18.44645
G1 X118.09 Y150.002 E18.48853
G1 X117.212 Y149.793 E18.53055
G1 X116.355 Y149.506 E18.57264
G1 X115.528 Y149.145 E18.61465
G1 X114.735 Y148.712 E18.65672
G1 X113.984 Y148.211 E18.69876
G1 X113.28 Y147.645 E18.74082
G1 X112.629 Y147.019 E18.78288
G1 X112.036 Y146.338 E18.82493
G1 X111.506 Y145.607 E18.86697
G1 X111.042 Y144.832 E18.90903
G1 X110.648 Y144.019 E18.9511
G1 X110.328 Y143.175 E18.99313
G1 X110.084 Y142.305 E19.0352
G1 X109.918 Y141.417 E19.07727
G1 X109.821 Y140.262 E19.13124
G1 X109.808 Y139.653 E19.1596
G1 X109.809 Y120.541 E20.04954
G1 X109.818 Y119.876 E20.0805
G1 X109.87 Y118.974 E20.12258
G1 X110.002 Y118.081 E20.16461
G1 X110.212 Y117.203 E20.20665
G1 X110.499 Y116.346 E20.24873
G1 X110.861 Y115.519 E20.29077
G1 X111.294 Y114.727 E20.3328
G1 X111.796 Y113.976 E20.37486
G1 X112.363 Y113.272 E20.41695
G1 X112.989 Y112.622 E20.45897
G1 F1500 E13.95897
;MESH:Z_wobble_test_tube.stl
G0 F6000 X120.422 Y119.34
G0 X120.608 Y139.395
;TYPE:WALL-INNER
G1 F1500 E20.45897
G1 F1200 X139.392 Y139.395 E21.33363
G1 X139.392 Y130.003 E21.77096
G1 X139.392 Y120.605 E22.20857
G1 X120.608 Y120.605 E23.08324
G1 X120.608 Y139.395 E23.95818
G0 F6000 X120.208 Y139.795
;TYPE:WALL-OUTER
G1 F1200 X139.792 Y139.795 E24.87009
G1 X139.792 Y130.003 E25.32605
G1 X139.792 Y120.205 E25.78228
G1 X120.208 Y120.205 E26.6942
G1 X120.208 Y139.795 E27.60639
G0 F6000 X120.478 Y139.525
G0 X120.708 Y139.035
G0 X120.968 Y139.035
;TYPE:SKIN
G1 F1200 X139.032 Y139.035 E28.44752
G1 X139.032 Y129.997 E28.86837
G1 X139.032 Y120.965 E29.28894
G1 X120.968 Y120.965 E30.13007
G1 X120.968 Y139.035 E30.97149
G0 F6000 X121.297 Y138.834
G1 F1200 X121.167 Y138.703 E30.98008
G0 F6000 X121.167 Y138.138
G1 F1200 X121.863 Y138.834 E31.02592
G0 F6000 X122.429 Y138.834
G1 F1200 X121.167 Y137.572 E31.10902
G0 F6000 X121.167 Y137.006
G1 F1200 X122.994 Y138.834 E31.22936
G0 F6000 X123.56 Y138.834
G1 F1200 X121.167 Y136.441 E31.38695
G0 F6000 X121.167 Y135.875
G1 F1200 X124.126 Y138.834 E31.5818
G0 F6000 X124.691 Y138.834
G1 F1200 X121.167 Y135.309 E31.8139
G0 F6000 X121.167 Y134.744
G1 F1200 X125.257 Y138.834 E32.08323
G0 F6000 X125.823 Y138.834
G1 F1200 X121.167 Y134.178 E32.38984
G0 F6000 X121.167 Y133.612
G1 F1200 X126.388 Y138.834 E32.73368
G0 F6000 X126.954 Y138.834
G1 F1200 X121.167 Y133.047 E33.11476
G0 F6000 X121.167 Y132.481
G1 F1200 X127.52 Y138.834 E33.53312
G0 F6000 X128.086 Y138.834
G1 F1200 X121.167 Y131.915 E33.98875
G0 F6000 X121.167 Y131.35
G1 F1200 X128.651 Y138.834 E34.48158
G0 F6000 X129.217 Y138.834
G1 F1200 X121.167 Y130.784 E35.01169
G0 F6000 X121.167 Y130.218
G1 F1200 X129.783 Y138.834 E35.57907
G0 F6000 X130.348 Y138.834
G1 F1200 X121.167 Y129.652 E36.18368
G0 F6000 X121.167 Y129.087
G1 F1200 X130.914 Y138.834 E36.82554
G0 F6000 X131.48 Y138.834
G1 F1200 X121.167 Y128.521 E37.50467
G0 F6000 X121.167 Y127.955
G1 F1200 X132.045 Y138.834 E38.22104
G0 F6000 X132.611 Y138.834
G1 F1200 X121.167 Y127.39 E38.97464
G0 F6000 X121.167 Y126.824
G1 F1200 X133.177 Y138.834 E39.76552
G0 F6000 X133.742 Y138.834
G1 F1200 X121.167 Y126.258 E40.59364
G0 F6000 X121.167 Y125.693
G1 F1200 X134.308 Y138.834 E41.459
G0 F6000 X134.874 Y138.834
G1 F1200 X121.167 Y125.127 E42.36163
G0 F6000 X121.167 Y124.561
G1 F1200 X135.439 Y138.834 E43.3015
G0 F6000 X136.005 Y138.834
G1 F1200 X121.167 Y123.996 E44.2786
G0 F6000 X121.167 Y123.43
G1 F1200 X136.571 Y138.834 E45.29298
G0 F6000 X137.136 Y138.834
G1 F1200 X121.167 Y122.864 E46.3446
G0 F6000 X121.167 Y122.299
G1 F1200 X137.702 Y138.834 E47.43346
G0 F6000 X138.268 Y138.834
G1 F1200 X121.167 Y121.733 E48.55959
G0 F6000 X121.167 Y121.167
G1 F1200 X138.831 Y138.831 E49.7228
G0 F6000 X138.831 Y138.266
G1 F1200 X121.73 Y121.164 E50.84896
G0 F6000 X122.296 Y121.164
G1 F1200 X138.831 Y137.7 E51.93785
G0 F6000 X138.831 Y137.134
G1 F1200 X122.861 Y121.164 E52.9895
G0 F6000 X123.427 Y121.164
G1 F1200 X138.831 Y136.569 E54.00391
G0 F6000 X138.831 Y136.003
G1 F1200 X123.993 Y121.164 E54.98105
G0 F6000 X124.558 Y121.164
G1 F1200 X138.831 Y135.437 E55.92096
G0 F6000 X138.831 Y134.872
G1 F1200 X125.124 Y121.164 E56.82362
G0 F6000 X125.69 Y121.164
G1 F1200 X138.831 Y134.306 E57.68901
G0 F6000 X138.831 Y133.74
G1 F1200 X126.256 Y121.164 E58.51713
G0 F6000 X126.821 Y121.164
G1 F1200 X138.831 Y133.175 E59.30804
G0 F6000 X138.831 Y132.609
G1 F1200 X127.387 Y121.164 E60.06168
G0 F6000 X127.953 Y121.164
G1 F1200 X138.831 Y132.043 E60.77805
G0 F6000 X138.831 Y131.478
G1 F1200 X128.518 Y121.164 E61.45721
G0 F6000 X129.084 Y121.164
G1 F1200 X138.831 Y130.912 E62.0991
G0 F6000 X138.831 Y130.346
G1 F1200 X129.65 Y121.164 E62.70371
G0 F6000 X130.215 Y121.164
G1 F1200 X138.831 Y129.78 E63.27109
G0 F6000 X138.831 Y129.215
G1 F1200 X130.781 Y121.164 E63.80123
G0 F6000 X131.347 Y121.164
G1 F1200 X138.831 Y128.649 E64.2941
G0 F6000 X138.831 Y128.083
G1 F1200 X131.912 Y121.164 E64.74973
G0 F6000 X132.478 Y121.164
G1 F1200 X138.831 Y127.518 E65.16812
G0 F6000 X138.831 Y126.952
G1 F1200 X133.044 Y121.164 E65.54923
G0 F6000 X133.609 Y121.164
G1 F1200 X138.831 Y126.386 E65.89311
G0 F6000 X138.831 Y125.821
G1 F1200 X134.175 Y121.164 E66.19975
G0 F6000 X134.741 Y121.164
G1 F1200 X138.831 Y125.255 E66.46912
G0 F6000 X138.831 Y124.689
G1 F1200 X135.307 Y121.164 E66.70121
G0 F6000 X135.872 Y121.164
G1 F1200 X138.831 Y124.124 E66.8961
G0 F6000 X138.831 Y123.558
G1 F1200 X136.438 Y121.164 E67.05371
G0 F6000 X137.004 Y121.164
G1 F1200 X138.831 Y122.992 E67.17406
G0 F6000 X138.831 Y122.427
G1 F1200 X137.569 Y121.164 E67.2572
G0 F6000 X138.135 Y121.164
G1 F1200 X138.831 Y121.861 E67.30306
G0 F6000 X138.831 Y121.295
M104 S210
G1 F1200 X138.701 Y121.164 E67.31165
G1 F1500 E60.81165
;MESH:NONMESH
G0 F300 X138.701 Y121.164 Z0.56
G0 F6000 X138.701 Y120.705
G0 X120.78 Y120.777
G0 X120.608 Y139.395
;TIME_ELAPSED:84.037477
;LAYER:1
M106 S127.5
;TYPE:WALL-INNER
;MESH:Z_wobble_test_tube.stl
G1 F1500 E67.31165
G1 F2850 X139.392 Y139.395 E68.18632
G1 X139.392 Y129.997 E68.62393
G1 X139.392 Y120.605 E69.06126
G1 X120.608 Y120.605 E69.93592
G1 X120.608 Y139.395 E70.81086
G0 F10500 X120.208 Y139.795
;TYPE:WALL-OUTER
G1 F2850 X139.792 Y139.795 E71.72277
G1 X139.792 Y129.997 E72.17901
G1 X139.792 Y120.205 E72.63497
G1 X120.208 Y120.205 E73.54688
G1 X120.208 Y139.795 E74.45907
G0 F10500 X120.478 Y139.525
G0 X120.708 Y139.035
G0 X120.968 Y139.035
;TYPE:SKIN
G1 F2850 X139.032 Y139.035 E75.30021
G1 X139.032 Y129.997 E75.72105
G1 X139.032 Y120.965 E76.14162
G1 X120.968 Y120.965 E76.98276
G1 X120.968 Y139.035 E77.82417
G0 F10500 X120.708 Y139.035
G0 X138.351 Y139.295
G0 X138.351 Y138.834
G1 F2850 X138.831 Y138.354 E77.85578
G0 F10500 X138.831 Y137.788
G1 F2850 X137.785 Y138.834 E77.92466
G0 F10500 X137.219 Y138.834
G1 F2850 X138.831 Y137.223 E78.03078
G0 F10500 X138.831 Y136.657
G1 F2850 X136.654 Y138.834 E78.17414
G0 F10500 X136.088 Y138.834
G1 F2850 X138.831 Y136.091 E78.35477
G0 F10500 X138.831 Y135.526
G1 F2850 X135.522 Y138.834 E78.57264
G0 F10500 X134.956 Y138.834
G1 F2850 X138.831 Y134.96 E78.82779
G0 F10500 X138.831 Y134.394
G1 F2850 X134.391 Y138.834 E79.12017
G0 F10500 X133.825 Y138.834
G1 F2850 X138.831 Y133.829 E79.44979
G0 F10500 X138.831 Y133.263
G1 F2850 X133.259 Y138.834 E79.81668
G0 F10500 X132.694 Y138.834
G1 F2850 X138.831 Y132.697 E80.22081
G0 F10500 X138.831 Y132.132
G1 F2850 X132.128 Y138.834 E80.66218
G0 F10500 X131.562 Y138.834
G1 F2850 X138.831 Y131.566 E81.14083
G0 F10500 X138.831 Y131
G1 F2850 X130.997 Y138.834 E81.65671
G0 F10500 X130.431 Y138.834
G1 F2850 X138.831 Y130.435 E82.20983
G0 F10500 X138.831 Y129.869
G1 F2850 X129.865 Y138.834 E82.80022
G0 F10500 X129.3 Y138.834
G1 F2850 X138.831 Y129.303 E83.42786
G0 F10500 X138.831 Y128.737
G1 F2850 X128.734 Y138.834 E84.09276
G0 F10500 X128.168 Y138.834
G1 F2850 X138.831 Y128.172 E84.79491
G0 F10500 X138.831 Y127.606
G1 F2850 X127.603 Y138.834 E85.53429
G0 F10500 X127.037 Y138.834
G1 F2850 X138.831 Y127.04 E86.31094
G0 F10500 X138.831 Y126.475
G1 F2850 X126.471 Y138.834 E87.12484
G0 F10500 X125.906 Y138.834
G1 F2850 X138.831 Y125.909 E87.97597
G0 F10500 X138.831 Y125.343
G1 F2850 X125.34 Y138.834 E88.86438
G0 F10500 X124.774 Y138.834
G1 F2850 X138.831 Y124.778 E89.79002
G0 F10500 X138.831 Y124.212
G1 F2850 X124.208 Y138.834 E90.75294
G0 F10500 X123.643 Y138.834
G1 F2850 X138.831 Y123.646 E91.75309
G0 F10500 X138.831 Y123.081
G1 F2850 X123.077 Y138.834 E92.79049
G0 F10500 X122.511 Y138.834
G1 F2850 X138.831 Y122.515 E93.86515
G0 F10500 X138.831 Y121.949
G1 F2850 X121.946 Y138.834 E94.97706
G0 F10500 X121.38 Y138.834
G1 F2850 X138.831 Y121.384 E96.12621
G0 F10500 X138.484 Y121.164
G1 F2850 X121.167 Y138.481 E97.26656
G0 F10500 X121.167 Y137.916
G1 F2850 X137.919 Y121.164 E98.36971
G0 F10500 X137.353 Y121.164
G1 F2850 X121.167 Y137.35 E99.43558
G0 F10500 X121.167 Y136.784
G1 F2850 X136.787 Y121.164 E100.46419
G0 F10500 X136.222 Y121.164
