;FLAVOR:Marlin
;TIME:10272
;Filament used: 10.8907m
;Layer height: 0.32
;MINX:94.925
;MINY:59.5
;MINZ:0.32
;MAXX:165.075
;MAXY:160.5
;MAXZ:86.72
;POSTPROCESSED
;Generated with Cura_SteamEngine 5.3.1
;
;

M82 ;absolute extrusion mode
START_PRINT EXTRUDER_TEMP=240 BED_TEMP=80 RELATIVE_E_MODE=False PROBE=false PROBE_AREA_START=%MINX%,%MINY% PROBE_AREA_END=%MAXX%,%MAXY%
G92 E0
G92 E0
G1 F1500 E-6.5
;LAYER_COUNT:271
;LAYER:0
M107
G0 F6000 X96.733 Y62.531 Z0.32
;TYPE:SKIRT
G1 F1500 E0
G1 F900 X97.046 Y62.124 E0.03279
G1 X97.446 Y61.712 E0.06946
G1 X97.863 Y61.374 E0.10374
G1 X98.397 Y61.039 E0.14399
G1 X98.722 Y60.871 E0.16736
G1 X99.262 Y60.645 E0.20474
G1 X99.666 Y60.519 E0.23176
G1 X100.052 Y60.472 E0.25659
G1 X100.38 Y60.461 E0.27755
G1 X159.056 Y60.46 E4.02457
G1 X159.772 Y60.472 E4.0703
G1 X160.388 Y60.57 E4.11013
G1 X160.879 Y60.72 E4.14292
G1 X161.254 Y60.872 E4.16876
G1 X161.801 Y61.155 E4.20809
G1 X162.244 Y61.456 E4.24229
G1 X162.695 Y61.849 E4.28049
G1 X163.053 Y62.246 E4.31463
G1 X163.384 Y62.715 E4.35129
G1 X163.636 Y63.18 E4.38506
G1 X163.862 Y63.749 E4.42416
G1 X163.999 Y64.269 E4.4585
G1 X164.077 Y64.832 E4.49479
G1 X164.098 Y65.098 E4.51183
G1 X164.115 Y66.026 E4.5711
G1 X164.115 Y154.125 E10.19706
G1 X164.105 Y154.867 E10.24445
G1 X164.03 Y155.573 E10.28979
G1 X163.914 Y156.084 E10.32325
G1 X163.719 Y156.636 E10.36063
G1 X163.485 Y157.111 E10.39445
G1 X163.156 Y157.617 E10.43299
G1 X162.817 Y158.024 E10.46682
G1 X162.397 Y158.421 E10.50372
G1 X161.965 Y158.74 E10.53802
G1 X161.397 Y159.063 E10.57974
G1 X160.948 Y159.257 E10.61098
G1 X160.382 Y159.431 E10.64879
G1 X159.792 Y159.529 E10.68698
G1 X159.395 Y159.54 E10.71235
G1 X100.8 Y159.54 E14.45419
G1 X100.096 Y159.53 E14.49915
G1 X99.676 Y159.484 E14.52613
G1 X99.263 Y159.356 E14.55375
G1 X98.747 Y159.14 E14.58947
G1 X98.458 Y158.994 E14.61015
G1 X97.954 Y158.691 E14.6477
G1 X97.548 Y158.378 E14.68044
G1 X97.137 Y157.979 E14.71702
G1 X96.799 Y157.562 E14.75129
G1 X96.464 Y157.028 E14.79155
G1 X96.298 Y156.707 E14.81463
G1 X96.071 Y156.168 E14.85198
G1 X95.944 Y155.765 E14.87896
G1 X95.896 Y155.367 E14.90456
G1 X95.885 Y154.97 E14.92992
G1 X95.885 Y65.356 E20.65262
G1 X95.895 Y64.671 E20.69637
G1 X95.941 Y64.251 E20.72335
G1 X96.054 Y63.875 E20.74842
G1 X96.17 Y63.584 E20.76843
G1 X96.303 Y63.281 E20.78956
G1 X96.431 Y63.034 E20.80733
G1 X96.733 Y62.531 E20.84479
G0 F6000 X96.321 Y62.284
G1 F900 X96.019 Y62.787 E20.88226
G1 X95.863 Y63.088 E20.90391
G1 X95.73 Y63.391 E20.92504
G1 X95.608 Y63.697 E20.94608
G1 X95.469 Y64.153 E20.97652
G1 X95.415 Y64.664 E21.00933
G1 X95.405 Y65.349 E21.05308
G1 X95.405 Y154.983 E26.77706
G1 X95.419 Y155.424 E26.80524
G1 X95.472 Y155.865 E26.8336
G1 X95.613 Y156.312 E26.86353
G1 X95.856 Y156.893 E26.90375
G1 X96.057 Y157.283 E26.93177
G1 X96.392 Y157.817 E26.97202
G1 X96.764 Y158.281 E27.01
G1 X97.255 Y158.758 E27.05372
G1 X97.661 Y159.071 E27.08645
G1 X98.211 Y159.405 E27.12755
G1 X98.562 Y159.583 E27.15268
G1 X99.078 Y159.799 E27.1884
G1 X99.58 Y159.956 E27.22199
G1 X100.089 Y160.01 E27.25468
G1 X100.793 Y160.02 E27.29964
G1 X159.408 Y160.02 E31.04276
G1 X159.871 Y160.003 E31.07235
G1 X160.461 Y159.905 E31.11054
G1 X161.089 Y159.716 E31.15242
G1 X161.587 Y159.504 E31.18698
G1 X162.25 Y159.126 E31.23572
G1 X162.727 Y158.77 E31.27373
G1 X163.147 Y158.373 E31.31064
G1 X163.525 Y157.924 E31.34812
G1 X163.916 Y157.323 E31.3939
G1 X164.172 Y156.796 E31.43132
G1 X164.367 Y156.244 E31.4687
G1 X164.498 Y155.679 E31.50574
G1 X164.585 Y154.873 E31.55751
G1 X164.595 Y154.131 E31.6049
G1 X164.595 Y66.017 E37.23181
G1 X164.577 Y65.06 E37.29294
G1 X164.556 Y64.794 E37.30998
G1 X164.463 Y64.147 E37.35172
G1 X164.308 Y63.572 E37.38975
G1 X164.058 Y62.951 E37.4325
G1 X163.806 Y62.486 E37.46627
G1 X163.445 Y61.969 E37.50654
G1 X163.01 Y61.487 E37.548
G1 X162.514 Y61.059 E37.58984
G1 X162.071 Y60.758 E37.62404
G1 X161.475 Y60.446 E37.667
G1 X161.059 Y60.275 E37.69572
G1 X160.463 Y60.096 E37.73546
G1 X159.78 Y59.992 E37.77958
G1 X159.064 Y59.98 E37.82531
G1 X100.38 Y59.981 E41.57284
G1 X100.036 Y59.992 E41.59482
G1 X99.563 Y60.048 E41.62523
G1 X99.077 Y60.202 E41.65779
G1 X98.537 Y60.428 E41.69517
G1 X98.142 Y60.632 E41.72356
G1 X97.608 Y60.967 E41.76382
G1 X97.144 Y61.339 E41.8018
G1 X96.666 Y61.831 E41.8456
G1 X96.321 Y62.284 E41.88197
G0 F6000 X95.909 Y62.037
G1 F900 X96.284 Y61.54 E41.92172
G1 X96.844 Y60.964 E41.97303
G1 X97.353 Y60.56 E42.01452
G1 X97.887 Y60.225 E42.05478
G1 X98.352 Y59.985 E42.0882
G1 X98.932 Y59.744 E42.12831
G1 X99.461 Y59.576 E42.16375
G1 X100.021 Y59.512 E42.19974
G1 X100.38 Y59.501 E42.22268
G1 X159.072 Y59.5 E45.97072
G1 X159.852 Y59.517 E46.02054
G1 X160.535 Y59.621 E46.06466
G1 X161.197 Y59.815 E46.10871
G1 X161.698 Y60.021 E46.14331
G1 X162.341 Y60.361 E46.18975
G1 X162.784 Y60.662 E46.22396
G1 X163.366 Y61.165 E46.27308
G1 X163.839 Y61.694 E46.3184
G1 X164.2 Y62.211 E46.35866
G1 X164.48 Y62.722 E46.39587
G1 X164.771 Y63.447 E46.44576
G1 X164.938 Y64.079 E46.48751
G1 X165.035 Y64.756 E46.53118
G1 X165.056 Y65.022 E46.54822
G1 X165.075 Y66.008 E46.6112
G1 X165.075 Y154.137 E52.23907
G1 X165.065 Y154.879 E52.28646
G1 X164.966 Y155.787 E52.34478
G1 X164.82 Y156.404 E52.38527
G1 X164.625 Y156.956 E52.42266
G1 X164.348 Y157.533 E52.46353
G1 X163.927 Y158.186 E52.51315
G1 X163.477 Y158.722 E52.55784
G1 X163.057 Y159.119 E52.59475
G1 X162.537 Y159.511 E52.63633
G1 X161.775 Y159.946 E52.69236
G1 X161.277 Y160.158 E52.72693
G1 X160.54 Y160.379 E52.77606
G1 X159.95 Y160.477 E52.81425
G1 X159.426 Y160.5 E52.84775
G1 X100.786 Y160.5 E56.59247
G1 X100.082 Y160.49 E56.63743
G1 X99.482 Y160.428 E56.67595
G1 X98.893 Y160.242 E56.71539
G1 X98.345 Y160.011 E56.75337
G1 X97.994 Y159.833 E56.7785
G1 X97.368 Y159.451 E56.82533
G1 X96.962 Y159.138 E56.85807
G1 X96.389 Y158.581 E56.9091
G1 X95.985 Y158.072 E56.9506
G1 X95.63 Y157.503 E56.99343
G1 X95.429 Y157.113 E57.02145
G1 X95.155 Y156.456 E57.06691
G1 X95 Y155.965 E57.09979
G1 X94.942 Y155.481 E57.13091
G1 X94.925 Y154.998 E57.16178
G1 X94.925 Y65.342 E62.88716
G1 X94.935 Y64.657 E62.93091
G1 X94.997 Y64.056 E62.96949
G1 X95.162 Y63.519 E63.00537
G1 X95.29 Y63.198 E63.02744
G1 X95.423 Y62.895 E63.04857
G1 X95.607 Y62.54 E63.0741
G1 X95.909 Y62.037 E63.11157
G1 F1500 E56.61157
;MESH:instax_mini_pic_box.stl
G0 F6000 X139.238 Y146.377
;TYPE:WALL-INNER
G1 F1500 E63.11157
G1 F900 X120.612 Y146.377 E64.30101
G1 X119.207 Y146.285 E64.39093
G1 X117.701 Y145.986 E64.48898
G1 X116.246 Y145.492 E64.5871
G1 X114.886 Y144.82 E64.68398
G1 X113.611 Y143.969 E64.78187
G1 X112.463 Y142.962 E64.87939
G1 X111.456 Y141.814 E64.9769
G1 X110.605 Y140.539 E65.07479
G1 X109.933 Y139.179 E65.17167
G1 X109.438 Y137.723 E65.26987
G1 X109.14 Y136.216 E65.36797
G1 X109.048 Y134.821 E65.45725
G1 X109.048 Y85.179 E68.62736
G1 X109.14 Y83.783 E68.7167
G1 X109.439 Y82.276 E68.81481
G1 X109.933 Y80.821 E68.91294
G1 X110.605 Y79.461 E69.00981
G1 X111.456 Y78.186 E69.1077
G1 X112.463 Y77.038 E69.20522
G1 X113.611 Y76.031 E69.30274
G1 X114.886 Y75.18 E69.40063
G1 X116.246 Y74.508 E69.4975
G1 X117.702 Y74.013 E69.59571
G1 X119.209 Y73.715 E69.69381
G1 X120.612 Y73.623 E69.7836
G1 X139.238 Y73.623 E70.97304
G1 X140.643 Y73.715 E71.06296
G1 X142.149 Y74.014 E71.16101
G1 X143.604 Y74.508 E71.25913
G1 X144.964 Y75.18 E71.356
G1 X146.242 Y76.032 E71.45409
G1 X147.398 Y77.054 E71.55262
G1 X148.394 Y78.184 E71.64881
G1 X149.245 Y79.461 E71.74681
G1 X149.917 Y80.821 E71.84368
G1 X150.411 Y82.274 E71.94169
G1 X150.71 Y83.774 E72.03936
G1 X150.802 Y85.179 E72.12928
G1 X150.802 Y134.821 E75.29939
G1 X150.71 Y136.224 E75.38918
G1 X150.411 Y137.726 E75.48697
G1 X149.917 Y139.179 E75.58498
G1 X149.245 Y140.539 E75.68185
G1 X148.394 Y141.816 E75.77985
G1 X147.398 Y142.946 E75.87604
G1 X146.242 Y143.968 E75.97457
G1 X144.964 Y144.82 E76.07266
G1 X143.604 Y145.492 E76.16953
G1 X142.148 Y145.987 E76.26774
G1 X140.641 Y146.285 E76.36584
G1 X139.238 Y146.377 E76.45563
G0 F6000 X139.207 Y145.898
G1 F900 X120.643 Y145.898 E77.64111
G1 X119.263 Y145.808 E77.72943
G1 X117.826 Y145.523 E77.82298
G1 X116.44 Y145.052 E77.91646
G1 X115.122 Y144.401 E78.01033
G1 X113.904 Y143.588 E78.10385
G1 X112.805 Y142.62 E78.19737
G1 X111.837 Y141.521 E78.2909
G1 X111.024 Y140.303 E78.38441
G1 X110.373 Y138.985 E78.47829
G1 X109.902 Y137.599 E78.57177
G1 X109.617 Y136.162 E78.66532
G1 X109.527 Y134.789 E78.75319
G1 X109.527 Y85.211 E81.91921
G1 X109.617 Y83.838 E82.00708
G1 X109.902 Y82.401 E82.10063
G1 X110.373 Y81.015 E82.19411
G1 X111.024 Y79.697 E82.28799
G1 X111.837 Y78.479 E82.3815
G1 X112.805 Y77.38 E82.47503
G1 X113.904 Y76.412 E82.56855
G1 X115.122 Y75.599 E82.66207
G1 X116.44 Y74.948 E82.75594
G1 X117.826 Y74.477 E82.84942
G1 X119.263 Y74.192 E82.94297
G1 X120.643 Y74.102 E83.03129
G1 X139.207 Y74.102 E84.21677
G1 X140.587 Y74.192 E84.30509
G1 X142.024 Y74.477 E84.39864
G1 X143.41 Y74.948 E84.49212
G1 X144.728 Y75.599 E84.586
G1 X145.946 Y76.412 E84.67951
G1 X147.055 Y77.39 E84.77394
G1 X148.014 Y78.48 E84.86665
G1 X148.825 Y79.697 E84.96004
G1 X149.474 Y81.008 E85.05346
G1 X149.948 Y82.401 E85.14742
G1 X150.233 Y83.838 E85.24098
G1 X150.323 Y85.211 E85.32884
G1 X150.323 Y134.789 E88.49487
G1 X150.233 Y136.161 E88.58267
G1 X149.948 Y137.599 E88.67629
G1 X149.474 Y138.992 E88.77025
G1 X148.825 Y140.303 E88.86367
G1 X148.014 Y141.52 E88.95706
G1 X147.055 Y142.61 E89.04977
G1 X145.946 Y143.588 E89.1442
G1 X144.728 Y144.401 E89.23772
G1 X143.41 Y145.052 E89.33159
G1 X142.024 Y145.523 E89.42507
G1 X140.587 Y145.808 E89.51862
G1 X139.207 Y145.898 E89.60694
G0 F6000 X139.176 Y145.419
G1 F900 X120.674 Y145.419 E90.78846
G1 X119.327 Y145.331 E90.87467
G1 X117.955 Y145.059 E90.96399
G1 X116.619 Y144.605 E91.05409
G1 X115.361 Y143.983 E91.14371
G1 X114.194 Y143.205 E91.23328
G1 X113.144 Y142.281 E91.3226
G1 X112.22 Y141.231 E91.41192
G1 X111.442 Y140.064 E91.50148
G1 X110.82 Y138.806 E91.5911
G1 X110.366 Y137.47 E91.68121
G1 X110.1 Y136.127 E91.76864
G1 X110.006 Y134.758 E91.85627
G1 X110.006 Y85.242 E95.01833
G1 X110.094 Y83.901 E95.10415
G1 X110.366 Y82.53 E95.19341
G1 X110.82 Y81.194 E95.28352
G1 X111.442 Y79.936 E95.37314
G1 X112.22 Y78.769 E95.4627
G1 X113.144 Y77.719 E95.55202
G1 X114.194 Y76.795 E95.64134
G1 X115.361 Y76.017 E95.73091
G1 X116.619 Y75.395 E95.82052
G1 X117.955 Y74.941 E95.91063
G1 X119.298 Y74.675 E95.99806
G1 X120.674 Y74.581 E96.08614
G1 X139.176 Y74.581 E97.26766
G1 X140.523 Y74.669 E97.35387
G1 X141.895 Y74.941 E97.44319
G1 X143.231 Y75.395 E97.5333
G1 X144.489 Y76.017 E97.62291
G1 X145.655 Y76.795 E97.71243
G1 X146.707 Y77.718 E97.8018
G1 X147.63 Y78.77 E97.89117
G1 X148.408 Y79.936 E97.98068
G1 X149.03 Y81.194 E98.0703
G1 X149.484 Y82.53 E98.16041
G1 X149.756 Y83.901 E98.24967
G1 X149.844 Y85.242 E98.33549
G1 X149.844 Y134.758 E101.49755
G1 X149.756 Y136.099 E101.58337
G1 X149.484 Y137.47 E101.67263
G1 X149.03 Y138.806 E101.76274
G1 X148.408 Y140.064 E101.85236
G1 X147.63 Y141.231 E101.94192
G1 X146.711 Y142.275 E102.03074
G1 X145.656 Y143.205 E102.12055
G1 X144.489 Y143.983 E102.21012
G1 X143.231 Y144.605 E102.29974
G1 X141.895 Y145.059 E102.38985
G1 X140.552 Y145.325 E102.47728
G1 X139.176 Y145.419 E102.56535
G1 F1500 E96.06535
G0 F6000 X159.41 Y155.618
G1 F1500 E102.56535
G1 F900 X159.676 Y155.549 E102.5829
G1 X159.981 Y155.332 E102.6068
G1 X160.158 Y154.986 E102.63162
G1 X160.195 Y154.693 E102.65048
G1 X160.195 Y65.307 E108.35862
G1 X160.159 Y65.013 E108.37754
G1 X159.981 Y64.668 E108.40233
G1 X159.676 Y64.451 E108.42623
G1 X159.411 Y64.381 E108.44374
G1 X100.55 Y64.38 E112.20257
G1 X100.283 Y64.469 E112.22054
G1 X99.99 Y64.701 E112.24441
G1 X99.894 Y64.858 E112.25616
G1 X99.805 Y65.125 E112.27413
G1 X99.805 Y154.875 E118.00552
G1 X99.894 Y155.142 E118.02349
G1 X100.126 Y155.435 E118.04736
G1 X100.283 Y155.531 E118.05911
G1 X100.55 Y155.62 E118.07708
G1 X159.41 Y155.618 E121.83585
G0 F6000 X159.473 Y156.099
G1 F900 X159.855 Y155.998 E121.86108
G1 X160.122 Y155.853 E121.88049
G1 X160.346 Y155.649 E121.89983
G1 X160.519 Y155.394 E121.91951
G1 X160.628 Y155.101 E121.93947
G1 X160.675 Y154.723 E121.9638
G1 X160.675 Y65.277 E127.67577
G1 X160.629 Y64.899 E127.70009
G1 X160.519 Y64.606 E127.72008
G1 X160.346 Y64.351 E127.73975
G1 X160.122 Y64.147 E127.7591
G1 X159.855 Y64.002 E127.7785
G1 X159.473 Y63.901 E127.80374
G1 X100.473 Y63.9 E131.57144
G1 X100.079 Y64.03 E131.59794
G1 X99.826 Y64.186 E131.61692
G1 X99.611 Y64.401 E131.63634
G1 X99.455 Y64.654 E131.65532
G1 X99.325 Y65.048 E131.68181
G1 X99.325 Y154.952 E137.42303
G1 X99.455 Y155.346 E137.44953
G1 X99.611 Y155.599 E137.46851
G1 X99.826 Y155.814 E137.48793
G1 X100.079 Y155.97 E137.50691
G1 X100.473 Y156.1 E137.5334
G1 X159.473 Y156.099 E141.30111
G1 F1500 E134.80111
G0 F6000 X100.351 Y156.565
G1 F1500 E141.30111
G1 F900 X100.362 Y156.58 E141.3023
G1 X159.535 Y156.579 E145.08105
G1 X160.034 Y156.447 E145.11402
G1 X160.402 Y156.247 E145.14076
G1 X160.712 Y155.966 E145.16748
G1 X160.949 Y155.615 E145.19453
G1 X161.098 Y155.215 E145.22179
G1 X161.155 Y154.752 E145.25158
G1 X161.155 Y65.248 E150.96725
G1 X161.098 Y64.785 E150.99704
G1 X160.949 Y64.385 E151.0243
G1 X160.712 Y64.034 E151.05135
G1 X160.402 Y63.753 E151.07807
G1 X160.034 Y63.553 E151.10481
G1 X159.535 Y63.421 E151.13777
G1 X100.362 Y63.42 E154.91653
G1 X100.351 Y63.435 E154.91772
G1 X99.876 Y63.592 E154.94967
G1 X99.527 Y63.807 E154.97584
G1 X99.232 Y64.102 E155.00248
G1 X99.017 Y64.451 E155.02866
G1 X98.86 Y64.926 E155.06061
G1 X98.845 Y64.937 E155.0618
G1 X98.845 Y155.063 E160.81719
G1 X98.86 Y155.074 E160.81838
G1 X99.017 Y155.549 E160.85033
G1 X99.232 Y155.898 E160.8765
G1 X99.527 Y156.193 E160.90315
G1 X99.876 Y156.408 E160.92932
G1 X100.351 Y156.565 E160.96127
G0 F6000 X100.201 Y157.021
;TYPE:WALL-OUTER
G1 F900 X100.229 Y157.06 E160.96434
G1 X159.597 Y157.059 E164.75554
G1 X160.213 Y156.897 E164.79622
G1 X160.682 Y156.641 E164.83034
G1 X161.077 Y156.282 E164.86443
G1 X161.379 Y155.837 E164.89877
G1 X161.568 Y155.329 E164.93338
G1 X161.635 Y154.781 E164.96864
G1 X161.635 Y65.219 E170.68802
G1 X161.568 Y64.671 E170.72328
G1 X161.379 Y64.163 E170.75789
G1 X161.077 Y63.718 E170.79223
G1 X160.682 Y63.359 E170.82632
G1 X160.213 Y63.103 E170.86044
G1 X159.597 Y62.941 E170.90111
G1 X100.229 Y62.94 E174.69232
G1 X100.201 Y62.979 E174.69539
G1 X99.672 Y63.154 E174.73097
G1 X99.227 Y63.427 E174.76431
G1 X98.852 Y63.802 E174.79818
G1 X98.579 Y64.247 E174.83152
G1 X98.404 Y64.776 E174.8671
G1 X98.365 Y64.804 E174.87016
G1 X98.365 Y155.196 E180.64255
G1 X98.404 Y155.224 E180.64561
G1 X98.579 Y155.753 E180.6812
G1 X98.852 Y156.198 E180.71453
G1 X99.227 Y156.573 E180.7484
G1 X99.672 Y156.846 E180.78174
G1 X100.201 Y157.021 E180.81732
G1 F1500 E174.31732
G0 F6000 X139.144 Y144.94
G1 F1500 E180.81732
G1 F900 X120.706 Y144.94 E181.99476
G1 X119.376 Y144.851 E182.07989
G1 X118.06 Y144.588 E182.16559
G1 X116.789 Y144.154 E182.25135
G1 X115.619 Y143.576 E182.33469
G1 X114.477 Y142.814 E182.42236
G1 X113.473 Y141.93 E182.50779
G1 X112.611 Y140.948 E182.59123
G1 X111.849 Y139.806 E182.6789
G1 X111.271 Y138.636 E182.76224
G1 X110.837 Y137.365 E182.848
G1 X110.573 Y136.044 E182.93403
G1 X110.485 Y134.726 E183.01838
G1 X110.485 Y85.274 E186.17636
G1 X110.574 Y83.951 E186.26104
G1 X110.837 Y82.635 E186.34674
G1 X111.271 Y81.364 E186.43251
G1 X111.849 Y80.194 E186.51584
G1 X112.611 Y79.052 E186.60351
G1 X113.495 Y78.048 E186.68894
G1 X114.477 Y77.186 E186.77238
G1 X115.619 Y76.424 E186.86005
G1 X116.789 Y75.846 E186.94339
G1 X118.06 Y75.412 E187.02916
G1 X119.381 Y75.148 E187.11518
G1 X120.706 Y75.06 E187.19998
G1 X139.144 Y75.06 E188.37742
G1 X140.474 Y75.149 E188.46255
G1 X141.79 Y75.412 E188.54825
G1 X143.061 Y75.846 E188.63401
G1 X144.231 Y76.424 E188.71735
G1 X145.373 Y77.186 E188.80502
G1 X146.377 Y78.07 E188.89045
G1 X147.239 Y79.052 E188.97389
G1 X148.001 Y80.194 E189.06156
G1 X148.579 Y81.364 E189.1449
G1 X149.013 Y82.635 E189.23066
G1 X149.276 Y83.951 E189.31636
G1 X149.365 Y85.274 E189.40104
G1 X149.365 Y134.726 E192.55902
G1 X149.276 Y136.049 E192.6437
G1 X149.013 Y137.365 E192.7294
