;FLAVOR:Marlin
;TIME:2134
;Filament used: 1.63998m
;Layer height: 0.2
;MINX:84.5
;MINY:63.601
;MINZ:0.2
;MAXX:175.5
;MAXY:119.6
;MAXZ:3.6
;POSTPROCESSED
;Generated with Cura_SteamEngine 5.2.1
;
;

M82 ;absolute extrusion mode
START_PRINT EXTRUDER_TEMP=200 BED_TEMP=50 RELATIVE_E_MODE=False PROBE=false PROBE_AREA_START=%MINX%,%MINY% PROBE_AREA_END=%MAXX%,%MAXY%
G92 E0
G92 E0
G1 F1500 E-6.5
;LAYER_COUNT:18
;LAYER:0
M106 S63.8
G0 F6000 X87.331 Y69.185 Z0.2
;TYPE:SKIRT
G1 F1500 E0
G1 F1200 X87.913 Y68.45 E0.03118
G1 X88.494 Y67.829 E0.05947
G1 X88.794 Y67.532 E0.07351
G1 X89.488 Y66.901 E0.1047
G1 X89.904 Y66.571 E0.12237
G1 X90.243 Y66.315 E0.13649
G1 X91.015 Y65.782 E0.1677
G1 X91.565 Y65.458 E0.18893
G1 X91.939 Y65.252 E0.20313
G1 X92.779 Y64.835 E0.23432
G1 X93.351 Y64.6 E0.25489
G1 X93.763 Y64.444 E0.26954
G1 X94.653 Y64.149 E0.30073
G1 X95.327 Y63.981 E0.32383
G1 X95.742 Y63.891 E0.33795
G1 X96.666 Y63.731 E0.36914
G1 X97.282 Y63.669 E0.38974
G1 X98.15 Y63.616 E0.41866
G1 X98.813 Y63.601 E0.44072
G1 X160.998 Y63.602 E2.509
G1 X161.855 Y63.618 E2.53751
G1 X162.608 Y63.658 E2.56259
G1 X162.871 Y63.681 E2.57137
G1 X164.24 Y63.888 E2.61742
G1 X164.665 Y63.98 E2.63188
G1 X165.573 Y64.217 E2.66309
G1 X166.152 Y64.413 E2.68342
G1 X166.547 Y64.559 E2.69743
G1 X167.412 Y64.922 E2.72863
G1 X167.939 Y65.187 E2.74825
G1 X168.315 Y65.389 E2.76245
G1 X169.121 Y65.868 E2.79363
G1 X169.675 Y66.254 E2.81609
G1 X170.007 Y66.501 E2.82985
G1 X170.735 Y67.092 E2.86104
G1 X171.219 Y67.548 E2.88316
G1 X171.541 Y67.87 E2.8983
G1 X172.175 Y68.561 E2.92949
G1 X172.519 Y68.989 E2.94776
G1 X172.754 Y69.298 E2.96067
G1 X173.289 Y70.068 E2.99185
G1 X173.601 Y70.592 E3.01214
G1 X173.801 Y70.95 E3.02578
G1 X174.223 Y71.788 E3.05698
G1 X174.47 Y72.379 E3.07829
G1 X174.639 Y72.82 E3.094
G1 X174.937 Y73.709 E3.12518
G1 X175.107 Y74.381 E3.14824
G1 X175.199 Y74.797 E3.16241
G1 X175.363 Y75.72 E3.19359
G1 X175.431 Y76.381 E3.21569
G1 X175.484 Y77.25 E3.24464
G1 X175.499 Y77.913 E3.2667
G1 X175.5 Y104.893 E4.16406
G1 X175.482 Y105.955 E4.19939
G1 X175.441 Y106.719 E4.22483
G1 X175.418 Y106.979 E4.23352
G1 X175.216 Y108.318 E4.27856
G1 X175.125 Y108.742 E4.29298
G1 X174.889 Y109.65 E4.32418
G1 X174.694 Y110.231 E4.34457
G1 X174.548 Y110.628 E4.35863
G1 X174.187 Y111.493 E4.38981
G1 X173.919 Y112.028 E4.40971
G1 X173.718 Y112.403 E4.42386
G1 X173.24 Y113.21 E4.45506
G1 X172.829 Y113.798 E4.47892
G1 X172.567 Y114.148 E4.49346
G1 X171.974 Y114.874 E4.52464
G1 X171.578 Y115.295 E4.54386
G1 X171.28 Y115.596 E4.55795
G1 X170.592 Y116.234 E4.58916
G1 X170.059 Y116.66 E4.61185
G1 X169.728 Y116.908 E4.62561
G1 X168.954 Y117.438 E4.65681
G1 X168.42 Y117.751 E4.6774
G1 X168.026 Y117.967 E4.69234
G1 X167.185 Y118.382 E4.72353
G1 X166.597 Y118.622 E4.74466
G1 X166.218 Y118.764 E4.75812
G1 X165.327 Y119.055 E4.78929
G1 X164.784 Y119.192 E4.80792
G1 X164.315 Y119.298 E4.82391
G1 X163.392 Y119.466 E4.85511
G1 X162.126 Y119.566 E4.89735
G1 X160.443 Y119.6 E4.95334
G1 X98.847 Y119.595 E7.00203
G1 X98.299 Y119.581 E7.02027
G1 X97.519 Y119.542 E7.04624
G1 X96.585 Y119.456 E7.07744
G1 X95.796 Y119.319 E7.10407
G1 X95.398 Y119.235 E7.1176
G1 X94.49 Y119.002 E7.14878
G1 X93.854 Y118.789 E7.17109
G1 X93.443 Y118.637 E7.18566
G1 X92.578 Y118.275 E7.21685
G1 X92.006 Y117.985 E7.23818
G1 X91.638 Y117.785 E7.25211
G1 X90.834 Y117.302 E7.28331
G1 X90.303 Y116.929 E7.30489
G1 X89.954 Y116.668 E7.31938
G1 X89.228 Y116.075 E7.35056
G1 X88.803 Y115.676 E7.36995
G1 X88.504 Y115.38 E7.38395
G1 X87.866 Y114.693 E7.41513
G1 X87.44 Y114.159 E7.43785
G1 X87.192 Y113.828 E7.45161
G1 X86.662 Y113.054 E7.48281
G1 X86.376 Y112.567 E7.50159
G1 X86.173 Y112.201 E7.51551
G1 X85.753 Y111.363 E7.54669
G1 X85.508 Y110.771 E7.568
G1 X85.347 Y110.347 E7.58308
G1 X85.052 Y109.457 E7.61427
G1 X84.881 Y108.773 E7.63772
G1 X84.791 Y108.358 E7.65184
G1 X84.631 Y107.434 E7.68303
G1 X84.569 Y106.818 E7.70362
G1 X84.516 Y105.95 E7.73255
G1 X84.501 Y105.287 E7.7546
G1 X84.5 Y78.307 E8.65196
G1 X84.518 Y77.244 E8.68732
G1 X84.561 Y76.457 E8.71354
G1 X84.585 Y76.192 E8.72239
G1 X84.795 Y74.829 E8.76825
G1 X84.891 Y74.391 E8.78317
G1 X85.131 Y73.484 E8.81437
G1 X85.322 Y72.923 E8.83408
G1 X85.461 Y72.548 E8.84739
G1 X85.824 Y71.683 E8.87859
G1 X86.09 Y71.156 E8.89822
G1 X86.286 Y70.792 E8.91197
G1 X86.765 Y69.986 E8.94316
G1 X87.069 Y69.546 E8.96094
G1 X87.331 Y69.185 E8.97578
G0 F6000 X87.654 Y69.42
G1 F1200 X88.227 Y68.699 E9.00641
G1 X88.775 Y68.113 E9.0331
G1 X89.075 Y67.816 E9.04714
G1 X89.757 Y67.197 E9.07777
G1 X90.145 Y66.89 E9.09423
G1 X90.484 Y66.634 E9.10835
G1 X91.242 Y66.112 E9.13897
G1 X91.758 Y65.808 E9.15889
G1 X92.132 Y65.602 E9.17309
G1 X92.957 Y65.194 E9.2037
G1 X93.492 Y64.974 E9.22294
G1 X93.904 Y64.818 E9.23759
G1 X94.779 Y64.53 E9.26823
G1 X95.411 Y64.372 E9.2899
G1 X95.826 Y64.282 E9.30402
G1 X96.734 Y64.126 E9.33466
G1 X97.311 Y64.068 E9.35395
G1 X98.162 Y64.016 E9.38231
G1 X98.813 Y64.001 E9.40397
G1 X160.991 Y64.002 E11.47201
G1 X161.848 Y64.018 E11.50052
G1 X162.573 Y64.056 E11.52467
G1 X162.836 Y64.079 E11.53345
G1 X164.156 Y64.279 E11.57786
G1 X164.581 Y64.371 E11.59232
G1 X165.471 Y64.605 E11.62293
G1 X166.013 Y64.788 E11.64195
G1 X166.408 Y64.934 E11.65596
G1 X167.257 Y65.291 E11.68659
G1 X167.75 Y65.539 E11.70495
G1 X168.126 Y65.741 E11.71914
G1 X168.917 Y66.212 E11.74976
G1 X169.436 Y66.574 E11.77081
G1 X169.768 Y66.821 E11.78457
G1 X170.482 Y67.403 E11.81521
G1 X170.936 Y67.831 E11.83596
G1 X171.258 Y68.153 E11.85111
G1 X171.88 Y68.831 E11.88171
G1 X172.2 Y69.231 E11.89875
G1 X172.435 Y69.54 E11.91166
G1 X172.96 Y70.297 E11.9423
G1 X173.252 Y70.787 E11.96127
G1 X173.452 Y71.145 E11.97491
G1 X173.866 Y71.968 E12.00555
G1 X174.096 Y72.522 E12.0255
G1 X174.265 Y72.963 E12.04121
G1 X174.557 Y73.836 E12.07183
G1 X174.717 Y74.467 E12.09348
G1 X174.809 Y74.883 E12.10765
G1 X174.968 Y75.79 E12.13828
G1 X175.032 Y76.41 E12.15901
G1 X175.084 Y77.262 E12.1874
G1 X175.099 Y77.913 E12.20906
G1 X175.1 Y104.893 E13.10642
G1 X175.082 Y105.948 E13.14151
G1 X175.043 Y106.684 E13.16602
G1 X175.02 Y106.944 E13.17471
G1 X174.825 Y108.234 E13.2181
G1 X174.734 Y108.658 E13.23252
G1 X174.502 Y109.549 E13.26314
G1 X174.319 Y110.093 E13.28223
G1 X174.173 Y110.49 E13.2963
G1 X173.818 Y111.339 E13.32691
G1 X173.567 Y111.839 E13.34552
G1 X173.366 Y112.214 E13.35967
G1 X172.896 Y113.005 E13.39027
G1 X172.509 Y113.558 E13.41272
G1 X172.247 Y113.908 E13.42726
G1 X171.664 Y114.621 E13.4579
G1 X171.294 Y115.014 E13.47585
G1 X170.996 Y115.315 E13.48994
G1 X170.32 Y115.94 E13.52056
G1 X169.819 Y116.34 E13.54188
G1 X169.488 Y116.588 E13.55564
G1 X168.728 Y117.108 E13.58626
G1 X168.228 Y117.4 E13.60552
G1 X167.834 Y117.616 E13.62047
G1 X167.008 Y118.023 E13.65109
G1 X166.457 Y118.247 E13.67088
G1 X166.078 Y118.389 E13.68434
G1 X165.203 Y118.674 E13.71495
G1 X164.696 Y118.802 E13.73234
G1 X164.227 Y118.908 E13.74833
G1 X163.321 Y119.072 E13.77895
G1 X162.117 Y119.167 E13.81912
G1 X160.671 Y119.198 E13.86723
G1 X98.847 Y119.195 E15.9235
G1 X98.319 Y119.182 E15.94107
G1 X97.539 Y119.143 E15.96705
G1 X96.622 Y119.057 E15.99768
G1 X95.879 Y118.928 E16.02276
G1 X95.481 Y118.844 E16.03629
G1 X94.589 Y118.614 E16.06693
G1 X93.993 Y118.414 E16.08784
G1 X93.582 Y118.262 E16.10241
G1 X92.733 Y117.905 E16.13305
G1 X92.197 Y117.633 E16.15304
G1 X91.829 Y117.433 E16.16697
G1 X91.04 Y116.959 E16.19758
G1 X90.543 Y116.609 E16.2178
G1 X90.194 Y116.348 E16.23229
G1 X89.481 Y115.765 E16.26293
G1 X89.085 Y115.392 E16.28102
G1 X88.786 Y115.096 E16.29501
G1 X88.16 Y114.421 E16.32563
G1 X87.76 Y113.919 E16.34698
G1 X87.512 Y113.588 E16.36074
G1 X86.992 Y112.828 E16.39137
G1 X86.725 Y112.373 E16.40891
G1 X86.522 Y112.007 E16.42283
G1 X86.111 Y111.184 E16.45343
G1 X85.882 Y110.629 E16.4734
G1 X85.721 Y110.205 E16.48848
G1 X85.432 Y109.331 E16.5191
G1 X85.272 Y108.689 E16.54111
G1 X85.182 Y108.274 E16.55523
G1 X85.026 Y107.366 E16.58587
G1 X84.968 Y106.789 E16.60516
G1 X84.916 Y105.938 E16.63352
G1 X84.901 Y105.287 E16.65518
G1 X84.9 Y78.307 E17.55254
G1 X84.918 Y77.251 E17.58766
G1 X84.959 Y76.493 E17.61291
G1 X84.983 Y76.228 E17.62176
G1 X85.186 Y74.915 E17.66595
G1 X85.282 Y74.477 E17.68086
G1 X85.518 Y73.587 E17.71149
G1 X85.697 Y73.062 E17.72994
G1 X85.836 Y72.687 E17.74324
G1 X86.193 Y71.838 E17.77387
G1 X86.442 Y71.346 E17.79221
G1 X86.638 Y70.982 E17.80596
G1 X87.109 Y70.191 E17.83658
G1 X87.392 Y69.781 E17.85315
G1 X87.654 Y69.42 E17.86799
G0 F6000 X87.978 Y69.655
G1 F1200 X88.54 Y68.948 E17.89803
G1 X89.057 Y68.397 E17.92316
G1 X89.357 Y68.1 E17.9372
G1 X90.026 Y67.494 E17.96722
G1 X90.386 Y67.209 E17.98249
G1 X90.725 Y66.953 E17.99662
G1 X91.469 Y66.441 E18.02666
G1 X91.951 Y66.159 E18.04523
G1 X92.325 Y65.953 E18.05944
G1 X93.134 Y65.552 E18.08947
G1 X93.634 Y65.348 E18.10743
G1 X94.046 Y65.192 E18.12208
G1 X94.904 Y64.91 E18.15212
G1 X95.496 Y64.763 E18.17241
G1 X95.911 Y64.673 E18.18653
G1 X96.801 Y64.521 E18.21656
G1 X97.339 Y64.467 E18.23455
G1 X98.174 Y64.416 E18.26237
G1 X98.813 Y64.401 E18.28363
G1 X160.983 Y64.402 E20.35141
G1 X161.84 Y64.418 E20.37992
G1 X162.539 Y64.455 E20.4032
G1 X162.802 Y64.478 E20.41198
G1 X164.071 Y64.67 E20.45467
G1 X164.496 Y64.762 E20.46913
G1 X165.369 Y64.992 E20.49916
G1 X165.874 Y65.164 E20.5169
G1 X166.269 Y65.31 E20.53091
G1 X167.102 Y65.66 E20.56096
G1 X167.56 Y65.892 E20.57804
G1 X167.936 Y66.094 E20.59223
G1 X168.712 Y66.556 E20.62227
G1 X169.197 Y66.895 E20.64195
G1 X169.529 Y67.142 E20.65572
G1 X170.229 Y67.713 E20.68576
G1 X170.653 Y68.114 E20.70517
G1 X170.975 Y68.436 E20.72032
G1 X171.585 Y69.102 E20.75036
G1 X171.882 Y69.473 E20.76616
G1 X172.117 Y69.782 E20.77907
G1 X172.631 Y70.525 E20.80912
G1 X172.903 Y70.982 E20.82681
G1 X173.103 Y71.34 E20.84045
G1 X173.508 Y72.147 E20.87048
G1 X173.723 Y72.665 E20.88914
G1 X173.892 Y73.106 E20.90484
G1 X174.177 Y73.963 E20.93488
G1 X174.326 Y74.553 E20.95512
G1 X174.418 Y74.969 E20.96929
G1 X174.574 Y75.859 E20.99935
G1 X174.633 Y76.438 E21.0187
G1 X174.684 Y77.274 E21.04656
G1 X174.699 Y77.913 E21.06782
G1 X174.7 Y104.893 E21.96518
G1 X174.682 Y105.94 E22.00001
G1 X174.644 Y106.649 E22.02362
G1 X174.621 Y106.909 E22.0323
G1 X174.434 Y108.15 E22.07405
G1 X174.343 Y108.574 E22.08847
G1 X174.114 Y109.448 E22.11852
G1 X173.943 Y109.955 E22.13632
G1 X173.797 Y110.352 E22.15038
G1 X173.448 Y111.185 E22.18042
G1 X173.214 Y111.65 E22.19774
G1 X173.013 Y112.025 E22.21189
G1 X172.552 Y112.801 E22.24191
G1 X172.189 Y113.319 E22.26295
G1 X171.927 Y113.669 E22.27749
G1 X171.354 Y114.367 E22.30752
G1 X171.01 Y114.732 E22.32421
G1 X170.712 Y115.033 E22.33829
G1 X170.048 Y115.646 E22.36835
G1 X169.579 Y116.02 E22.3883
G1 X169.248 Y116.268 E22.40206
G1 X168.502 Y116.777 E22.4321
G1 X168.035 Y117.049 E22.45007
G1 X167.641 Y117.265 E22.46502
G1 X166.831 Y117.664 E22.49505
G1 X166.317 Y117.873 E22.5135
G1 X165.938 Y118.015 E22.52696
G1 X165.079 Y118.294 E22.557
G1 X164.608 Y118.412 E22.57315
G1 X164.139 Y118.518 E22.58915
G1 X163.25 Y118.678 E22.61919
G1 X162.109 Y118.767 E22.65725
G1 X160.663 Y118.798 E22.70536
G1 X98.847 Y118.795 E24.76137
G1 X98.339 Y118.782 E24.77827
G1 X97.559 Y118.743 E24.80425
G1 X96.66 Y118.658 E24.83428
G1 X95.962 Y118.536 E24.85785
G1 X95.564 Y118.452 E24.87138
G1 X94.689 Y118.227 E24.90143
G1 X94.132 Y118.039 E24.92098
G1 X93.721 Y117.887 E24.93555
G1 X92.889 Y117.536 E24.96559
G1 X92.388 Y117.282 E24.98427
G1 X92.02 Y117.082 E24.9982
G1 X91.247 Y116.616 E25.02822
G1 X90.782 Y116.288 E25.04715
G1 X90.433 Y116.027 E25.06164
G1 X89.735 Y115.455 E25.09166
G1 X89.366 Y115.108 E25.1085
G1 X89.067 Y114.812 E25.1225
G1 X88.454 Y114.149 E25.15253
G1 X88.08 Y113.679 E25.17251
G1 X87.832 Y113.348 E25.18626
G1 X87.323 Y112.602 E25.2163
G1 X87.075 Y112.179 E25.23261
G1 X86.872 Y111.813 E25.24653
G1 X86.47 Y111.005 E25.27655
G1 X86.256 Y110.487 E25.29519
G1 X86.095 Y110.063 E25.31027
G1 X85.812 Y109.205 E25.34032
G1 X85.663 Y108.604 E25.36092
G1 X85.573 Y108.189 E25.37504
G1 X85.421 Y107.299 E25.40507
G1 X85.367 Y106.761 E25.42306
G1 X85.316 Y105.926 E25.45088
G1 X85.301 Y105.287 E25.47214
G1 X85.3 Y78.307 E26.3695
G1 X85.318 Y77.259 E26.40436
G1 X85.358 Y76.529 E26.42867
G1 X85.382 Y76.264 E26.43752
G1 X85.577 Y75 E26.48006
G1 X85.673 Y74.562 E26.49498
G1 X85.905 Y73.689 E26.52502
G1 X86.072 Y73.201 E26.54218
G1 X86.211 Y72.826 E26.55548
G1 X86.562 Y71.994 E26.58551
G1 X86.794 Y71.535 E26.60262
G1 X86.99 Y71.171 E26.61637
G1 X87.453 Y70.396 E26.64639
G1 X87.716 Y70.016 E26.66176
G1 X87.978 Y69.655 E26.6766
G1 F1500 E20.1766
;MESH:radxa_zero_v11_head.stl
G0 F6000 X105.997 Y82.387
G0 X107.568 Y84.333
;TYPE:WALL-INNER
G1 F1500 E26.6766
G1 F1200 X107.176 Y84.181 E26.69058
G1 X106.832 Y83.952 E26.70433
G1 X106.548 Y83.649 E26.71814
G1 X106.33 Y83.287 E26.7322
G1 X106.207 Y82.891 E26.74599
G1 X106.171 Y82.479 E26.75974
G1 X106.222 Y82.07 E26.77345
G1 X106.374 Y81.667 E26.78778
G1 X106.602 Y81.329 E26.80134
G1 X108.876 Y78.623 E26.9189
G1 X109.175 Y78.335 E26.93271
G1 X109.536 Y78.12 E26.94668
G1 X109.952 Y77.993 E26.96115
G1 X110.336 Y77.961 E26.97397
G1 X110.76 Y78.012 E26.98817
G1 X111.164 Y78.165 E27.00254
G1 X111.501 Y78.391 E27.01603
G1 X111.796 Y78.698 E27.03019
G1 X112.008 Y79.057 E27.04406
G1 X112.138 Y79.461 E27.05818
G1 X112.167 Y79.89 E27.07248
G1 X112.112 Y80.293 E27.08601
G1 X111.952 Y80.696 E27.10043
G1 X111.736 Y81.018 E27.11332
G1 F1145.6 X110.486 Y82.507 E27.18106
G1 F1050.3 X109.235 Y83.996 E27.25496
G1 F916 X109.146 Y84.122 E27.26168
G1 F837.7 X108.852 Y84.294 E27.27791
G1 F985.6 X108.464 Y84.333 E27.2937
G1 F1200 X108.4 Y84.35 E27.2959
G1 X107.996 Y84.391 E27.30941
G1 X107.568 Y84.333 E27.32377
G0 F6000 X107.695 Y83.947
;TYPE:WALL-OUTER
G1 F1200 X107.382 Y83.832 E27.33486
G1 X107.077 Y83.629 E27.34705
G1 X106.866 Y83.407 E27.35724
G1 X106.704 Y83.135 E27.36777
G1 X106.598 Y82.806 E27.37926
G1 X106.571 Y82.511 E27.38912
G1 X106.61 Y82.185 E27.40004
G1 X106.745 Y81.832 E27.41261
G1 X106.908 Y81.587 E27.42239
G1 X109.198 Y78.864 E27.54073
G1 X109.403 Y78.67 E27.55012
G1 X109.681 Y78.499 E27.56097
G1 X110.021 Y78.387 E27.57288
G1 X110.363 Y78.362 E27.58429
G1 X110.643 Y78.4 E27.59368
G1 X110.996 Y78.534 E27.60624
G1 X111.227 Y78.689 E27.61549
G1 X111.485 Y78.958 E27.62789
G1 X111.646 Y79.24 E27.63869
G1 X111.743 Y79.557 E27.64972
G1 X111.767 Y79.866 E27.66003
G1 X111.722 Y80.191 E27.67094
G1 X111.609 Y80.488 E27.68151
G1 X111.43 Y80.76 E27.69234
G1 X109.14 Y83.482 E27.81065
G1 X108.935 Y83.677 E27.82006
G1 X108.642 Y83.855 E27.83146
G1 X108.322 Y83.958 E27.84264
G1 X108.02 Y83.986 E27.85273
G1 X107.695 Y83.947 E27.86362
G0 F6000 X107.63 Y84.443
G0 X109.01 Y84.533
G0 X108.753 Y85.054
G0 X106.518 Y88.276
G0 X106.382 Y88.633
G0 X106.33 Y89.011
G0 X106.362 Y89.39
G0 X106.479 Y89.755
G0 X107.392 Y90.905
G0 X107.571 Y90.866
;TYPE:WALL-INNER
G1 F1200 X107.178 Y90.715 E27.87762
G1 X106.832 Y90.483 E27.89148
G1 X106.548 Y90.182 E27.90524
G1 X106.329 Y89.819 E27.91934
G1 X106.204 Y89.407 E27.93366
G1 X106.166 Y89.01 E27.94693
G1 X106.227 Y88.594 E27.96091
G1 X106.382 Y88.192 E27.97524
G1 X106.579 Y87.891 E27.9872
G1 X108.922 Y85.107 E28.10823
G1 F985.6 X109.142 Y84.787 E28.12395
G1 F837.7 X109.436 Y84.614 E28.14021
G1 F916 X109.589 Y84.597 E28.14691
G1 F1095.9 X109.938 Y84.529 E28.15986
G1 F1200 X110.342 Y84.488 E28.17337
G1 X110.768 Y84.546 E28.18767
G1 X111.164 Y84.697 E28.20177
G1 X111.505 Y84.927 E28.21545
G1 X111.798 Y85.234 E28.22956
G1 X112.006 Y85.586 E28.24316
G1 X112.115 Y85.923 E28.25494
G1 X112.14 Y86.047 E28.25915
G1 X112.167 Y86.424 E28.27172
G1 X112.112 Y86.828 E28.28528
G1 X111.952 Y87.229 E28.29964
G1 X111.736 Y87.55 E28.31251
G1 X109.462 Y90.255 E28.43004
G1 X109.412 Y90.306 E28.43242
G1 F1093.4 X109.233 Y90.529 E28.44286
G1 F914.3 X109.146 Y90.654 E28.44951
G1 F836.2 X108.852 Y90.826 E28.46576
G1 F983.6 X108.464 Y90.866 E28.48159
G1 F1200 X108.4 Y90.883 E28.48379
G1 X107.989 Y90.922 E28.49752
G1 X107.571 Y90.866 E28.51155
G0 F6000 X107.695 Y90.479
;TYPE:WALL-OUTER
G1 F1200 X107.343 Y90.345 E28.52408
G1 X107.11 Y90.189 E28.5334
G1 X106.866 Y89.94 E28.545
G1 X106.704 Y89.668 E28.55553
