;FLAVOR:Marlin
;TIME:891
;Filament used: 0.47077m
;Layer height: 0.12
;MINX:115.022
;MINY:96.331
;MINZ:0.12
;MAXX:149.022
;MAXY:163.676
;MAXZ:3.12
;POSTPROCESSED
;Generated with Cura_SteamEngine 5.2.1
;
;

M82 ;absolute extrusion mode
START_PRINT EXTRUDER_TEMP=220.0 BED_TEMP=60 RELATIVE_E_MODE=False PROBE=false PROBE_AREA_START=%MINX%,%MINY% PROBE_AREA_END=%MAXX%,%MAXY%
G92 E0
G92 E0
G1 F1500 E-6.5
;LAYER_COUNT:26
;LAYER:0
M107
G0 F6000 X117.588 Y104.431 Z0.12
;TYPE:SKIRT
G1 F1500 E0
G1 F1200 X118.22 Y103.737 E0.01873
G1 X118.908 Y103.1 E0.03744
G1 X119.648 Y102.524 E0.05616
G1 X120.434 Y102.012 E0.07488
G1 X121.261 Y101.57 E0.09359
G1 X122.123 Y101.2 E0.11231
G1 X123.013 Y100.904 E0.13103
G1 X123.925 Y100.686 E0.14974
G1 X124.852 Y100.545 E0.16845
G1 X125.723 Y100.486 E0.18587
G1 X126.352 Y100.473 E0.19843
G1 X137.473 Y100.474 E0.42036
G1 X138.171 Y100.484 E0.43429
G1 X139.107 Y100.538 E0.453
G1 X140.035 Y100.67 E0.47171
G1 X140.949 Y100.882 E0.49043
G1 X141.841 Y101.171 E0.50914
G1 X142.706 Y101.534 E0.52786
G1 X143.536 Y101.97 E0.54657
G1 X144.327 Y102.475 E0.5653
G1 X145.071 Y103.046 E0.58402
G1 X145.764 Y103.678 E0.60273
G1 X146.401 Y104.366 E0.62144
G1 X146.976 Y105.107 E0.64016
G1 X147.487 Y105.893 E0.65887
G1 X147.929 Y106.721 E0.6776
G1 X148.298 Y107.583 E0.69631
G1 X148.593 Y108.473 E0.71502
G1 X148.811 Y109.385 E0.73374
G1 X148.951 Y110.313 E0.75247
G1 X149.009 Y111.174 E0.76969
G1 X149.022 Y111.862 E0.78342
G1 X149.014 Y113.353 E0.81317
G1 X149.014 Y116.122 E0.86843
G1 X149.022 Y117.681 E0.89954
G1 X149.014 Y118.382 E0.91353
G1 X149.014 Y121.122 E0.96821
G1 X149.022 Y122.683 E0.99937
G1 X149.012 Y123.6 E1.01767
G1 X148.961 Y124.537 E1.03639
G1 X148.829 Y125.465 E1.0551
G1 X148.62 Y126.379 E1.07381
G1 X148.333 Y127.272 E1.09253
G1 X147.971 Y128.138 E1.11126
G1 X147.537 Y128.969 E1.12997
G1 X147.033 Y129.76 E1.14869
G1 X146.464 Y130.505 E1.16739
G1 X145.833 Y131.2 E1.18613
G1 X145.146 Y131.838 E1.20484
G1 X144.407 Y132.415 E1.22355
G1 X143.621 Y132.927 E1.24227
G1 X142.795 Y133.37 E1.26097
G1 X141.933 Y133.742 E1.27971
G1 X141.044 Y134.038 E1.2984
G1 X140.132 Y134.258 E1.31713
G1 X139.205 Y134.399 E1.33584
G1 X138.321 Y134.46 E1.35352
G1 X137.692 Y134.473 E1.36608
G1 X126.587 Y134.472 E1.58769
G1 X125.889 Y134.463 E1.60162
G1 X124.953 Y134.411 E1.62033
G1 X124.024 Y134.279 E1.63905
G1 X123.11 Y134.069 E1.65777
G1 X122.217 Y133.782 E1.67649
G1 X121.352 Y133.419 E1.69521
G1 X120.521 Y132.985 E1.71392
G1 X119.73 Y132.481 E1.73263
G1 X118.985 Y131.911 E1.75135
G1 X118.291 Y131.28 E1.77007
G1 X117.654 Y130.593 E1.78877
G1 X117.077 Y129.853 E1.80749
G1 X116.565 Y129.067 E1.82621
G1 X116.122 Y128.24 E1.84494
G1 X115.751 Y127.379 E1.86365
G1 X115.455 Y126.489 E1.88236
G1 X115.236 Y125.577 E1.90108
G1 X115.095 Y124.65 E1.91979
G1 X115.035 Y123.761 E1.93757
G1 X115.022 Y123.131 E1.95015
G1 X115.03 Y121.551 E1.98168
G1 X115.03 Y118.824 E2.0361
G1 X115.022 Y117.229 E2.06793
G1 X115.03 Y116.55 E2.08148
G1 X115.03 Y113.824 E2.13588
G1 X115.022 Y112.199 E2.16831
G1 X115.032 Y111.333 E2.18559
G1 X115.085 Y110.397 E2.2043
G1 X115.217 Y109.468 E2.22303
G1 X115.428 Y108.554 E2.24175
G1 X115.716 Y107.662 E2.26045
G1 X116.079 Y106.797 E2.27917
G1 X116.514 Y105.966 E2.29789
G1 X117.018 Y105.176 E2.31659
G1 X117.588 Y104.431 E2.33531
G0 F6000 X117.983 Y104.584
G1 F1200 X118.611 Y103.912 E2.35367
G1 X119.296 Y103.296 E2.37205
G1 X120.032 Y102.743 E2.39042
G1 X120.813 Y102.255 E2.4088
G1 X121.633 Y101.837 E2.42717
G1 X122.487 Y101.492 E2.44555
G1 X123.367 Y101.222 E2.46392
G1 X124.267 Y101.03 E2.48228
G1 X125.181 Y100.916 E2.50066
G1 X125.734 Y100.886 E2.51172
G1 X126.352 Y100.873 E2.52405
G1 X137.315 Y100.873 E2.74283
G1 X138.165 Y100.884 E2.75979
G1 X139.084 Y100.937 E2.77816
G1 X139.995 Y101.07 E2.79654
G1 X140.891 Y101.281 E2.81491
G1 X141.765 Y101.569 E2.83327
G1 X142.612 Y101.932 E2.85166
G1 X143.423 Y102.367 E2.87003
G1 X144.193 Y102.871 E2.88839
G1 X144.917 Y103.44 E2.90677
G1 X145.589 Y104.07 E2.92515
G1 X146.204 Y104.755 E2.94352
G1 X146.757 Y105.491 E2.96189
G1 X147.244 Y106.272 E2.98026
G1 X147.661 Y107.093 E2.99864
G1 X148.006 Y107.947 E3.01702
G1 X148.275 Y108.827 E3.03538
G1 X148.467 Y109.728 E3.05376
G1 X148.58 Y110.641 E3.07212
G1 X148.609 Y111.185 E3.08299
G1 X148.622 Y111.86 E3.09647
G1 X148.614 Y113.351 E3.12622
G1 X148.614 Y116.122 E3.18152
G1 X148.622 Y117.683 E3.21267
G1 X148.614 Y118.376 E3.2265
G1 X148.614 Y121.122 E3.2813
G1 X148.622 Y122.684 E3.31247
G1 X148.612 Y123.595 E3.33066
G1 X148.561 Y124.514 E3.34902
G1 X148.43 Y125.426 E3.36741
G1 X148.22 Y126.322 E3.38577
G1 X147.934 Y127.197 E3.40415
G1 X147.573 Y128.044 E3.42252
G1 X147.139 Y128.856 E3.44089
G1 X146.637 Y129.628 E3.45927
G1 X146.069 Y130.353 E3.47765
G1 X145.441 Y131.026 E3.49602
G1 X144.757 Y131.642 E3.51439
G1 X144.022 Y132.196 E3.53276
G1 X143.242 Y132.685 E3.55113
G1 X142.422 Y133.104 E3.5695
G1 X141.569 Y133.45 E3.58787
G1 X140.689 Y133.721 E3.60625
G1 X139.789 Y133.914 E3.62462
G1 X138.875 Y134.029 E3.643
G1 X138.31 Y134.06 E3.65429
G1 X137.692 Y134.073 E3.66663
G1 X126.592 Y134.072 E3.88814
G1 X125.894 Y134.063 E3.90207
G1 X124.975 Y134.011 E3.92044
G1 X124.064 Y133.88 E3.93881
G1 X123.168 Y133.67 E3.95717
G1 X122.293 Y133.383 E3.97555
G1 X121.446 Y133.021 E3.99393
G1 X120.634 Y132.587 E4.01231
G1 X119.863 Y132.085 E4.03067
G1 X119.138 Y131.517 E4.04905
G1 X118.465 Y130.888 E4.06743
G1 X117.85 Y130.204 E4.08579
G1 X117.296 Y129.469 E4.10415
G1 X116.808 Y128.688 E4.12253
G1 X116.389 Y127.868 E4.14091
G1 X116.043 Y127.015 E4.15928
G1 X115.773 Y126.135 E4.17765
G1 X115.58 Y125.234 E4.19603
G1 X115.466 Y124.321 E4.2144
G1 X115.435 Y123.75 E4.22581
G1 X115.422 Y123.131 E4.23816
G1 X115.43 Y121.557 E4.26957
G1 X115.43 Y118.824 E4.32411
G1 X115.422 Y117.227 E4.35598
G1 X115.43 Y116.556 E4.36938
G1 X115.43 Y113.824 E4.4239
G1 X115.422 Y112.198 E4.45635
G1 X115.432 Y111.339 E4.47349
G1 X115.484 Y110.419 E4.49188
G1 X115.616 Y109.508 E4.51025
G1 X115.827 Y108.612 E4.52862
G1 X116.114 Y107.737 E4.54699
G1 X116.477 Y106.891 E4.56537
G1 X116.911 Y106.079 E4.58374
G1 X117.414 Y105.308 E4.60211
G1 X117.983 Y104.584 E4.62049
G0 F6000 X118.377 Y104.74
G1 F1200 X119.003 Y104.09 E4.6385
G1 X119.684 Y103.497 E4.65652
G1 X120.416 Y102.967 E4.67455
G1 X121.191 Y102.504 E4.69257
G1 X122.004 Y102.111 E4.71059
G1 X122.849 Y101.791 E4.72862
G1 X123.718 Y101.548 E4.74663
G1 X124.606 Y101.382 E4.76465
G1 X125.745 Y101.286 E4.78746
G1 X126.352 Y101.273 E4.79958
G1 X137.315 Y101.273 E5.01836
G1 X138.159 Y101.284 E5.0352
G1 X139.061 Y101.337 E5.05323
G1 X139.954 Y101.469 E5.07125
G1 X140.832 Y101.68 E5.08927
G1 X141.688 Y101.968 E5.10729
G1 X142.515 Y102.33 E5.12531
G1 X143.307 Y102.765 E5.14334
G1 X144.058 Y103.267 E5.16137
G1 X144.761 Y103.834 E5.17939
G1 X145.411 Y104.461 E5.19741
G1 X146.003 Y105.143 E5.21544
G1 X146.533 Y105.874 E5.23345
G1 X146.995 Y106.65 E5.25148
G1 X147.388 Y107.463 E5.2695
G1 X147.706 Y108.308 E5.28752
G1 X147.949 Y109.178 E5.30554
G1 X148.114 Y110.066 E5.32357
G1 X148.209 Y111.196 E5.3462
G1 X148.222 Y111.858 E5.35941
G1 X148.214 Y113.349 E5.38916
G1 X148.214 Y116.122 E5.4445
G1 X148.222 Y117.685 E5.47569
G1 X148.214 Y118.37 E5.48936
G1 X148.214 Y121.122 E5.54428
G1 X148.222 Y122.686 E5.5755
G1 X148.212 Y123.59 E5.59354
G1 X148.161 Y124.492 E5.61157
G1 X148.03 Y125.386 E5.6296
G1 X147.821 Y126.264 E5.64761
G1 X147.535 Y127.121 E5.66564
G1 X147.174 Y127.949 E5.68366
G1 X146.742 Y128.741 E5.70167
G1 X146.241 Y129.493 E5.7197
G1 X145.675 Y130.197 E5.73773
G1 X145.05 Y130.848 E5.75574
G1 X144.369 Y131.442 E5.77377
G1 X143.638 Y131.973 E5.7918
G1 X142.864 Y132.437 E5.80981
G1 X142.051 Y132.831 E5.82784
G1 X141.207 Y133.151 E5.84585
G1 X140.337 Y133.396 E5.86389
G1 X139.45 Y133.562 E5.8819
G1 X138.299 Y133.66 E5.90495
G1 X137.692 Y133.673 E5.91706
G1 X126.597 Y133.672 E6.13848
G1 X125.899 Y133.663 E6.15241
G1 X124.998 Y133.612 E6.17042
G1 X124.104 Y133.48 E6.18845
G1 X123.226 Y133.271 E6.20646
G1 X122.369 Y132.984 E6.2245
G1 X121.542 Y132.623 E6.24251
G1 X120.749 Y132.19 E6.26054
G1 X119.998 Y131.689 E6.27855
G1 X119.294 Y131.123 E6.29658
G1 X118.643 Y130.497 E6.3146
G1 X118.05 Y129.816 E6.33262
G1 X117.52 Y129.085 E6.35064
G1 X117.056 Y128.31 E6.36867
G1 X116.662 Y127.497 E6.3867
G1 X116.342 Y126.653 E6.40471
G1 X116.098 Y125.783 E6.42274
G1 X115.932 Y124.895 E6.44077
G1 X115.835 Y123.74 E6.4639
G1 X115.822 Y123.131 E6.47606
G1 X115.83 Y121.563 E6.50735
G1 X115.83 Y118.824 E6.56201
G1 X115.822 Y117.226 E6.5939
G1 X115.83 Y116.562 E6.60715
G1 X115.83 Y113.824 E6.66179
G1 X115.822 Y112.196 E6.69428
G1 X115.832 Y111.344 E6.71128
G1 X115.884 Y110.442 E6.72931
G1 X116.016 Y109.549 E6.74733
G1 X116.226 Y108.671 E6.76534
G1 X116.513 Y107.814 E6.78338
G1 X116.875 Y106.987 E6.80139
G1 X117.308 Y106.195 E6.81941
G1 X117.81 Y105.444 E6.83743
G1 X118.377 Y104.74 E6.85547
G1 F1500 E0.35547
;MESH:Cover.stl
G0 F6000 X125.357 Y111.887
G0 X126.436 Y111.887
G0 X126.892 Y112.603
G1 F1500 E6.85547
G0 F6000 X126.622 Y112.873
;TYPE:WALL-INNER
G1 F1200 X137.422 Y112.873 E7.071
G1 X137.422 Y112.473 E7.07898
G1 X137.422 Y112.073 E7.08696
G1 X126.622 Y112.073 E7.30249
G1 X126.622 Y112.873 E7.31845
G0 F6000 X127.022 Y112.473
G1 F1200 X137.022 Y112.473 E7.51801
G1 F1500 E1.01801
G0 F6000 X126.492 Y113.003
G1 F1500 E7.51801
G0 F6000 X126.222 Y113.273
;TYPE:WALL-OUTER
G1 F1200 X137.822 Y113.273 E7.7495
G1 X137.822 Y112.473 E7.76547
G1 X137.822 Y111.673 E7.78143
G1 X126.222 Y111.673 E8.01292
G1 X126.222 Y113.273 E8.04485
G1 F1500 E1.54485
G0 F6000 X126.492 Y113.003
G0 X126.892 Y113.053
G0 X126.892 Y114.138
G0 X126.892 Y115.808
G0 X126.892 Y116.893
G0 X126.892 Y117.603
G1 F1500 E8.04485
G0 F6000 X126.622 Y117.873
;TYPE:WALL-INNER
G1 F1200 X137.422 Y117.873 E8.26038
G1 X137.422 Y117.473 E8.26836
G1 X137.422 Y117.073 E8.27634
G1 X126.622 Y117.073 E8.49187
G1 X126.622 Y117.873 E8.50784
G0 F6000 X127.022 Y117.473
G1 F1200 X137.022 Y117.473 E8.7074
G1 F1500 E2.2074
G0 F6000 X126.492 Y118.003
G1 F1500 E8.7074
G0 F6000 X126.222 Y118.273
;TYPE:WALL-OUTER
G1 F1200 X137.822 Y118.273 E8.93889
G1 X137.822 Y117.473 E8.95485
G1 X137.822 Y116.673 E8.97082
G1 X126.222 Y116.673 E9.20231
G1 X126.222 Y118.273 E9.23424
G1 F1500 E2.73424
G0 F6000 X126.492 Y118.003
G0 X126.892 Y118.053
G0 X126.892 Y119.138
G0 X126.892 Y120.808
G0 X126.892 Y121.893
G0 X126.892 Y122.603
G1 F1500 E9.23424
G0 F6000 X126.622 Y122.873
;TYPE:WALL-INNER
G1 F1200 X137.422 Y122.873 E9.44976
G1 X137.422 Y122.473 E9.45774
G1 X137.422 Y122.073 E9.46573
G1 X126.622 Y122.073 E9.68125
G1 X126.622 Y122.873 E9.69722
G0 F6000 X127.022 Y122.473
G1 F1200 X137.022 Y122.473 E9.89678
G1 F1500 E3.39678
G0 F6000 X126.492 Y123.003
G1 F1500 E9.89678
G0 F6000 X126.222 Y123.273
M104 S220
;TYPE:WALL-OUTER
G1 F1200 X137.822 Y123.273 E10.12827
G1 X137.822 Y122.473 E10.14423
G1 X137.822 Y121.673 E10.1602
G1 X126.222 Y121.673 E10.39169
G1 X126.222 Y123.273 E10.42362
G1 F1500 E3.92362
;MESH:NONMESH
G0 F300 X126.222 Y123.273 Z0.24
G0 F6000 X126.492 Y123.003
G0 X129.04 Y123.053
G0 X129.04 Y124.138
G0 X129.04 Y159.375
;TIME_ELAPSED:37.809806
;LAYER:1
M106 S85
;TYPE:WALL-INNER
;MESH:Cover.stl
G1 F1500 E10.42362
G1 F1743.3 X129.216 Y158.772 E10.43656
G1 F1782.2 X129.49 Y158.251 E10.44843
G1 F1800 X129.796 Y157.852 E10.45846
G1 X130.154 Y157.513 E10.4683
G1 X130.623 Y157.209 E10.47945
G1 X131.063 Y157.02 E10.48901
G1 X131.304 Y156.951 E10.49401
G1 X131.823 Y156.875 E10.50448
G1 X132.328 Y156.885 E10.51456
G1 X132.757 Y156.956 E10.52324
G1 X133.265 Y157.13 E10.53395
G1 X133.534 Y157.272 E10.54002
G1 X134.049 Y157.652 E10.5528
G1 X134.336 Y157.957 E10.56115
G1 X134.595 Y158.314 E10.56996
G1 X134.716 Y158.533 E10.57495
G1 F1782.2 X134.916 Y159.031 E10.58577
G1 F1698.1 X135 Y159.322 E10.59217
G1 X135.016 Y159.012 E10.59874
G1 F1782.2 X135.024 Y154.563 E10.68841
G1 F1800 X135.093 Y154.258 E10.69465
G1 X135.234 Y154.015 E10.70026
G1 X135.406 Y153.833 E10.70526
G1 X136.004 Y153.486 E10.71905
G1 X136.441 Y153.19 E10.72959
G1 X136.749 Y152.954 E10.73733
G1 X137 Y152.74 E10.74391
G1 X137.374 Y152.385 E10.7542
G1 X137.686 Y152.047 E10.76338
G1 X137.975 Y151.689 E10.77256
G1 X138.261 Y151.298 E10.78223
G1 X138.585 Y150.757 E10.79482
G1 X138.764 Y150.414 E10.80254
G1 X138.901 Y150.115 E10.8091
G1 X139.024 Y149.818 E10.81552
G1 X139.155 Y149.447 E10.82337
G1 X139.247 Y149.136 E10.82984
G1 X139.329 Y148.817 E10.83641
G1 X139.395 Y148.501 E10.84285
G1 X139.466 Y148.043 E10.8521
G1 X139.498 Y147.726 E10.85846
G1 X139.521 Y147.259 E10.86779
G1 X139.525 Y107.042 E11.67037
G1 X139.596 Y106.751 E11.67634
G1 X139.708 Y106.547 E11.68099
G1 X139.927 Y106.325 E11.68721
G1 X140.139 Y106.205 E11.69207
G1 X140.412 Y106.13 E11.69772
G1 X140.964 Y106.129 E11.70874
G1 X140.913 Y105.742 E11.71653
G1 X140.86 Y105.434 E11.72276
G1 X140.706 Y104.772 E11.73633
G1 X140.572 Y104.328 E11.74558
G1 X140.469 Y104.028 E11.75191
G1 X140.327 Y103.665 E11.75969
G1 X140.169 Y103.298 E11.76767
G1 X140.118 Y103.072 E11.77229
G1 X140.136 Y102.748 E11.77876
G1 X140.314 Y102.362 E11.78725
G1 X140.652 Y102.076 E11.79608
G1 X140.338 Y101.577 E11.80785
G1 X139.939 Y101.021 E11.82151
G1 X139.602 Y100.609 E11.83213
G1 X139.376 Y100.355 E11.83891
G1 X138.916 Y99.88 E11.85211
G1 X138.43 Y99.454 E11.86501
G1 X138.024 Y99.133 E11.87533
G1 X137.52 Y98.779 E11.88762
G1 X137.231 Y98.596 E11.89445
G1 X136.931 Y98.421 E11.90138
G1 X136.546 Y98.213 E11.91011
G1 X136.076 Y97.989 E11.92051
G1 X135.578 Y97.783 E11.93126
G1 X134.937 Y97.566 E11.94476
G1 X134.267 Y97.386 E11.95861
G1 X133.75 Y97.281 E11.96914
G1 X133.321 Y97.216 E11.9778
G1 X132.889 Y97.169 E11.98647
G1 X132.548 Y97.145 E11.99329
G1 X131.898 Y97.128 E12.00627
G1 X131.327 Y97.155 E12.01767
G1 X130.988 Y97.185 E12.02447
G1 X130.324 Y97.273 E12.03783
G1 X129.695 Y97.407 E12.05067
G1 X129.366 Y97.491 E12.05744
G1 X128.791 Y97.669 E12.06945
G1 X128.286 Y97.855 E12.08019
G1 X127.971 Y97.989 E12.08703
G1 X127.655 Y98.135 E12.09397
G1 X127.266 Y98.335 E12.1027
G1 X126.963 Y98.504 E12.10962
G1 X126.673 Y98.682 E12.11641
G1 X126.23 Y98.979 E12.12706
G1 X126.028 Y99.127 E12.13206
G1 X125.618 Y99.451 E12.14248
G1 X125.158 Y99.858 E12.15474
G1 X124.792 Y100.223 E12.16506
G1 X124.439 Y100.613 E12.17555
G1 X124.11 Y101.017 E12.18595
G1 X123.905 Y101.293 E12.19281
G1 X123.602 Y101.736 E12.20352
G1 X123.4 Y102.073 E12.21136
G1 X123.66 Y102.281 E12.21801
G1 X123.818 Y102.504 E12.22346
G1 X123.934 Y102.825 E12.23027
G1 X123.906 Y103.218 E12.23814
G1 X123.669 Y103.78 E12.25031
G1 X123.473 Y104.317 E12.26172
G1 X123.384 Y104.607 E12.26777
G1 X123.279 Y105.005 E12.27598
G1 X123.181 Y105.447 E12.28502
G1 X123.119 Y105.821 E12.29258
G1 X123.084 Y106.129 E12.29877
G1 X123.636 Y106.13 E12.30979
G1 X123.905 Y106.205 E12.31536
G1 X124.229 Y106.422 E12.32314
G1 X124.368 Y106.595 E12.32757
G1 X124.478 Y106.833 E12.3328
G1 X124.519 Y107.042 E12.33705
G1 X124.523 Y147.183 E13.13811
G1 X124.55 Y147.83 E13.15103
G1 X124.614 Y148.295 E13.1604
G1 X124.685 Y148.683 E13.16827
G1 X124.814 Y149.212 E13.17914
G1 X124.973 Y149.692 E13.18923
G1 X125.091 Y149.996 E13.19574
G1 X125.217 Y150.284 E13.20201
G1 X125.492 Y150.82 E13.21403
G1 X125.692 Y151.149 E13.22171
G1 X125.983 Y151.583 E13.23214
G1 X126.416 Y152.115 E13.24583
G1 X126.766 Y152.479 E13.25591
G1 X126.995 Y152.697 E13.26222
G1 X127.292 Y152.951 E13.27002
G1 X127.701 Y153.266 E13.28032
G1 X128.21 Y153.587 E13.29233
G1 X128.637 Y153.832 E13.30215
G1 X128.81 Y154.015 E13.30718
G1 X128.951 Y154.258 E13.31278
G1 X129.022 Y154.496 E13.31774
G1 X129.024 Y158.878 E13.40519
G1 F1760.4 X129.04 Y159.375 E13.41533
G0 F9000 X129.328 Y160.773
G0 X129.55 Y161.304
G0 X130.048 Y161.944
G0 X130.611 Y162.34
G0 X131.629 Y162.758
G0 X131.634 Y162.459
G1 F1800 X130.859 Y162.22 E13.43152
G1 X130.209 Y161.766 E13.44734
G1 X129.748 Y161.167 E13.46242
G1 X129.551 Y160.683 E13.47285
G1 X129.467 Y160.359 E13.47953
G1 X129.418 Y159.836 E13.49002
G1 X129.457 Y159.444 E13.49788
G1 X129.581 Y158.939 E13.50825
G1 X129.828 Y158.468 E13.51887
G1 X130.1 Y158.115 E13.52776
G1 X130.403 Y157.829 E13.53608
G1 X130.813 Y157.563 E13.54583
