;FLAVOR:Marlin
;TIME:1063
;Filament used: 1.02078m
;Layer height: 0.28
;MINX:109
;MINY:109
;MINZ:0.28
;MAXX:151
;MAXY:151
;MAXZ:19.88
;POSTPROCESSED
;Generated with Cura_SteamEngine 5.2.1
;
;

M82 ;absolute extrusion mode
START_PRINT HOTEND=200 BED=45 RELATIVE_E_MODE=False PROBE=false PROBE_AREA_START=%MINX%,%MINY% PROBE_AREA_END=%MAXX%,%MAXY%
G92 E0
G92 E0
G1 F1500 E-6.5
;LAYER_COUNT:71
;LAYER:0
M107
G0 F6000 X112.198 Y112.264 Z0.28
;TYPE:SKIRT
G1 F1500 E0
G1 F1200 X112.886 Y111.627 E0.04366
G1 X113.626 Y111.051 E0.08732
G1 X114.412 Y110.539 E0.131
G1 X115.239 Y110.097 E0.17467
G1 X116.101 Y109.727 E0.21835
G1 X116.991 Y109.431 E0.26202
G1 X117.903 Y109.213 E0.30568
G1 X118.83 Y109.072 E0.34935
G1 X119.701 Y109.013 E0.39
G1 X120.33 Y109 E0.41929
G1 X139.451 Y109.001 E1.30965
G1 X140.149 Y109.011 E1.34215
G1 X141.085 Y109.065 E1.38581
G1 X142.013 Y109.197 E1.42945
G1 X142.927 Y109.409 E1.47314
G1 X143.819 Y109.698 E1.5168
G1 X144.684 Y110.061 E1.56048
G1 X145.514 Y110.497 E1.60414
G1 X146.305 Y111.002 E1.64784
G1 X147.049 Y111.573 E1.69151
G1 X147.742 Y112.205 E1.73518
G1 X148.379 Y112.893 E1.77884
G1 X148.954 Y113.634 E1.82252
G1 X149.465 Y114.42 E1.86617
G1 X149.907 Y115.248 E1.90987
G1 X150.276 Y116.11 E1.95354
G1 X150.571 Y117 E1.9972
G1 X150.789 Y117.912 E2.04086
G1 X150.929 Y118.84 E2.08456
G1 X150.987 Y119.701 E2.12474
G1 X151 Y120.33 E2.15404
G1 X150.999 Y139.4 E3.04202
G1 X150.99 Y140.127 E3.07587
G1 X150.939 Y141.064 E3.11957
G1 X150.807 Y141.992 E3.16321
G1 X150.598 Y142.906 E3.20687
G1 X150.311 Y143.799 E3.25055
G1 X149.949 Y144.665 E3.29425
G1 X149.515 Y145.496 E3.33791
G1 X149.011 Y146.287 E3.38158
G1 X148.442 Y147.032 E3.42523
G1 X147.811 Y147.727 E3.46894
G1 X147.124 Y148.365 E3.5126
G1 X146.385 Y148.942 E3.55626
G1 X145.599 Y149.454 E3.59994
G1 X144.773 Y149.897 E3.64358
G1 X143.911 Y150.269 E3.6873
G1 X143.022 Y150.565 E3.73093
G1 X142.11 Y150.785 E3.77461
G1 X141.183 Y150.926 E3.81827
G1 X140.299 Y150.987 E3.85953
G1 X139.67 Y151 E3.88883
G1 X120.565 Y150.999 E4.77844
G1 X119.867 Y150.99 E4.81094
G1 X118.931 Y150.938 E4.85459
G1 X118.002 Y150.806 E4.89829
G1 X117.088 Y150.596 E4.94195
G1 X116.195 Y150.309 E4.98563
G1 X115.33 Y149.946 E5.02931
G1 X114.499 Y149.512 E5.07297
G1 X113.708 Y149.008 E5.11664
G1 X112.963 Y148.438 E5.16032
G1 X112.269 Y147.807 E5.20399
G1 X111.632 Y147.12 E5.24762
G1 X111.055 Y146.38 E5.29131
G1 X110.543 Y145.594 E5.33499
G1 X110.1 Y144.767 E5.37868
G1 X109.729 Y143.906 E5.42233
G1 X109.433 Y143.016 E5.46601
G1 X109.214 Y142.104 E5.50968
G1 X109.073 Y141.177 E5.55334
G1 X109.013 Y140.288 E5.59483
G1 X109 Y139.658 E5.62417
G1 X109.001 Y120.525 E6.51509
G1 X109.01 Y119.86 E6.54606
G1 X109.063 Y118.924 E6.58971
G1 X109.195 Y117.995 E6.6334
G1 X109.406 Y117.081 E6.67708
G1 X109.694 Y116.189 E6.72073
G1 X110.057 Y115.324 E6.76441
G1 X110.492 Y114.493 E6.80808
G1 X110.996 Y113.703 E6.85172
G1 X111.566 Y112.958 E6.8954
G1 X112.198 Y112.264 E6.93911
G0 F6000 X112.589 Y112.439
G1 F1200 X113.274 Y111.823 E6.982
G1 X114.01 Y111.27 E7.02487
G1 X114.791 Y110.782 E7.06775
G1 X115.611 Y110.364 E7.11061
G1 X116.465 Y110.019 E7.1535
G1 X117.345 Y109.749 E7.19636
G1 X118.245 Y109.557 E7.23921
G1 X119.159 Y109.443 E7.2821
G1 X119.712 Y109.413 E7.30789
G1 X120.33 Y109.4 E7.33667
G1 X139.293 Y109.4 E8.21967
G1 X140.143 Y109.411 E8.25925
G1 X141.062 Y109.464 E8.30211
G1 X141.973 Y109.597 E8.34498
G1 X142.869 Y109.808 E8.38785
G1 X143.743 Y110.096 E8.43069
G1 X144.59 Y110.459 E8.4736
G1 X145.401 Y110.894 E8.51646
G1 X146.171 Y111.398 E8.55931
G1 X146.895 Y111.967 E8.60219
G1 X147.567 Y112.597 E8.64508
G1 X148.182 Y113.282 E8.68794
G1 X148.735 Y114.018 E8.73081
G1 X149.222 Y114.799 E8.77367
G1 X149.639 Y115.62 E8.81655
G1 X149.984 Y116.474 E8.85943
G1 X150.253 Y117.354 E8.90228
G1 X150.445 Y118.255 E8.94518
G1 X150.558 Y119.168 E8.98802
G1 X150.587 Y119.712 E9.01338
G1 X150.6 Y120.33 E9.04217
G1 X150.599 Y139.395 E9.92991
G1 X150.59 Y140.122 E9.96377
G1 X150.539 Y141.041 E10.00663
G1 X150.408 Y141.953 E10.04953
G1 X150.198 Y142.849 E10.09238
G1 X149.912 Y143.724 E10.13525
G1 X149.551 Y144.571 E10.17812
G1 X149.117 Y145.383 E10.22099
G1 X148.615 Y146.155 E10.26387
G1 X148.047 Y146.88 E10.30676
G1 X147.419 Y147.553 E10.34962
G1 X146.735 Y148.169 E10.39248
G1 X146 Y148.723 E10.43534
G1 X145.22 Y149.212 E10.4782
G1 X144.4 Y149.631 E10.52108
G1 X143.547 Y149.977 E10.56395
G1 X142.667 Y150.248 E10.60682
G1 X141.767 Y150.441 E10.64968
G1 X140.853 Y150.556 E10.69258
G1 X140.288 Y150.587 E10.71893
G1 X139.67 Y150.6 E10.74771
G1 X120.57 Y150.599 E11.63708
G1 X119.872 Y150.59 E11.66959
G1 X118.953 Y150.538 E11.71245
G1 X118.042 Y150.407 E11.75531
G1 X117.146 Y150.197 E11.79816
G1 X116.271 Y149.91 E11.84104
G1 X115.424 Y149.548 E11.88393
G1 X114.612 Y149.114 E11.9268
G1 X113.841 Y148.612 E11.96964
G1 X113.116 Y148.044 E12.01253
G1 X112.443 Y147.415 E12.05542
G1 X111.828 Y146.731 E12.09825
G1 X111.274 Y145.996 E12.14111
G1 X110.786 Y145.215 E12.18399
G1 X110.367 Y144.395 E12.22687
G1 X110.021 Y143.542 E12.26973
G1 X109.751 Y142.662 E12.31259
G1 X109.558 Y141.761 E12.3555
G1 X109.444 Y140.848 E12.39834
G1 X109.413 Y140.277 E12.42497
G1 X109.4 Y139.658 E12.4538
G1 X109.401 Y120.531 E13.34443
G1 X109.41 Y119.866 E13.3754
G1 X109.462 Y118.946 E13.41831
G1 X109.594 Y118.035 E13.46117
G1 X109.805 Y117.139 E13.50403
G1 X110.092 Y116.264 E13.54691
G1 X110.455 Y115.418 E13.58978
G1 X110.889 Y114.606 E13.63265
G1 X111.392 Y113.835 E13.67552
G1 X111.961 Y113.111 E13.7184
G1 X112.589 Y112.439 E13.76122
G0 F6000 X112.981 Y112.617
G1 F1200 X113.662 Y112.024 E13.80327
G1 X114.394 Y111.494 E13.84535
G1 X115.169 Y111.031 E13.88739
G1 X115.982 Y110.638 E13.92944
G1 X116.827 Y110.318 E13.97151
G1 X117.696 Y110.075 E14.01353
G1 X118.584 Y109.909 E14.05559
G1 X119.723 Y109.813 E14.10882
G1 X120.33 Y109.8 E14.13709
G1 X139.293 Y109.8 E15.02009
G1 X140.137 Y109.811 E15.05939
G1 X141.039 Y109.864 E15.10146
G1 X141.932 Y109.996 E15.1435
G1 X142.81 Y110.207 E15.18554
G1 X143.666 Y110.495 E15.2276
G1 X144.493 Y110.857 E15.26963
G1 X145.285 Y111.292 E15.31171
G1 X146.036 Y111.794 E15.35377
G1 X146.739 Y112.361 E15.39583
G1 X147.389 Y112.988 E15.43788
G1 X147.981 Y113.67 E15.47993
G1 X148.511 Y114.401 E15.52198
G1 X148.973 Y115.177 E15.56403
G1 X149.366 Y115.99 E15.60608
G1 X149.684 Y116.835 E15.64812
G1 X149.927 Y117.705 E15.69018
G1 X150.092 Y118.593 E15.73224
G1 X150.187 Y119.723 E15.78504
G1 X150.2 Y120.33 E15.81331
G1 X150.199 Y139.39 E16.70082
G1 X150.19 Y140.117 E16.73468
G1 X150.139 Y141.019 E16.77675
G1 X150.008 Y141.913 E16.81882
G1 X149.799 Y142.791 E16.86084
G1 X149.513 Y143.648 E16.90291
G1 X149.152 Y144.476 E16.94497
G1 X148.72 Y145.268 E16.98698
G1 X148.219 Y146.02 E17.02906
G1 X147.653 Y146.724 E17.07112
G1 X147.028 Y147.375 E17.11314
G1 X146.347 Y147.969 E17.15522
G1 X145.616 Y148.5 E17.19729
G1 X144.842 Y148.964 E17.23931
G1 X144.029 Y149.358 E17.28138
G1 X143.185 Y149.678 E17.32341
G1 X142.315 Y149.923 E17.3655
G1 X141.428 Y150.089 E17.40752
G1 X140.277 Y150.187 E17.4613
G1 X139.67 Y150.2 E17.48958
G1 X120.575 Y150.199 E18.37872
G1 X119.877 Y150.19 E18.41122
G1 X118.976 Y150.139 E18.45324
G1 X118.082 Y150.007 E18.49532
G1 X117.204 Y149.798 E18.53735
G1 X116.347 Y149.511 E18.57943
G1 X115.52 Y149.15 E18.62145
G1 X114.727 Y148.717 E18.66352
G1 X113.976 Y148.216 E18.70556
G1 X113.272 Y147.65 E18.74762
G1 X112.621 Y147.024 E18.78968
G1 X112.028 Y146.343 E18.83172
G1 X111.498 Y145.612 E18.87377
G1 X111.034 Y144.837 E18.91583
G1 X110.64 Y144.024 E18.9579
G1 X110.32 Y143.18 E18.99993
G1 X110.076 Y142.31 E19.042
G1 X109.91 Y141.422 E19.08407
G1 X109.813 Y140.267 E19.13804
G1 X109.8 Y139.658 E19.1664
G1 X109.801 Y120.536 E20.0568
G1 X109.81 Y119.871 E20.08777
G1 X109.862 Y118.969 E20.12984
G1 X109.994 Y118.076 E20.17187
G1 X110.204 Y117.198 E20.21391
G1 X110.491 Y116.341 E20.25599
G1 X110.853 Y115.514 E20.29803
G1 X111.286 Y114.722 E20.34006
G1 X111.788 Y113.971 E20.38212
G1 X112.355 Y113.267 E20.42421
G1 X112.981 Y112.617 E20.46624
G1 F1500 E13.96624
;MESH:CalibrationCube
G0 F6000 X120.414 Y119.335
G0 X120.6 Y139.4
;TYPE:WALL-INNER
G1 F1500 E20.46624
G1 F1200 X139.4 Y139.4 E21.34164
G1 X139.4 Y130 E21.77935
G1 X139.4 Y120.6 E22.21705
G1 X120.6 Y120.6 E23.09246
G1 X120.6 Y139.4 E23.96786
G0 F6000 X120.2 Y139.8
;TYPE:WALL-OUTER
G1 F1200 X139.8 Y139.8 E24.88052
G1 X139.8 Y130 E25.33685
G1 X139.8 Y120.2 E25.79318
G1 X120.2 Y120.2 E26.70584
G1 X120.2 Y139.8 E27.61849
G0 F6000 X120.47 Y139.53
G0 X120.7 Y139.04
G0 X120.96 Y139.04
;TYPE:SKIN
G1 F1200 X139.04 Y139.04 E28.46038
G1 X139.04 Y120.96 E29.30226
G1 X120.96 Y120.96 E30.14414
G1 X120.96 Y130 E30.56508
G1 X120.96 Y139.04 E30.98602
G0 F6000 X121.302 Y138.839
G1 F1200 X121.159 Y138.696 E30.99543
G0 F6000 X121.159 Y138.13
G1 F1200 X121.868 Y138.839 E31.04212
G0 F6000 X122.434 Y138.839
G1 F1200 X121.159 Y137.564 E31.12608
G0 F6000 X121.159 Y136.999
G1 F1200 X122.999 Y138.839 E31.24725
G0 F6000 X123.565 Y138.839
G1 F1200 X121.159 Y136.433 E31.40569
G0 F6000 X121.159 Y135.867
G1 F1200 X124.131 Y138.839 E31.6014
G0 F6000 X124.696 Y138.839
G1 F1200 X121.159 Y135.302 E31.83432
G0 F6000 X121.159 Y134.736
G1 F1200 X125.262 Y138.839 E32.10451
G0 F6000 X125.828 Y138.839
G1 F1200 X121.159 Y134.17 E32.41197
G0 F6000 X121.159 Y133.604
G1 F1200 X126.393 Y138.839 E32.75667
G0 F6000 X126.959 Y138.839
G1 F1200 X121.159 Y133.039 E33.13861
G0 F6000 X121.159 Y132.473
G1 F1200 X127.525 Y138.839 E33.55782
G0 F6000 X128.09 Y138.839
G1 F1200 X121.159 Y131.907 E34.01427
G0 F6000 X121.159 Y131.342
G1 F1200 X128.656 Y138.839 E34.50796
G0 F6000 X129.222 Y138.839
G1 F1200 X121.159 Y130.776 E35.03893
G0 F6000 X121.159 Y130.21
G1 F1200 X129.788 Y138.839 E35.60716
G0 F6000 X130.353 Y138.839
G1 F1200 X121.159 Y129.645 E36.2126
G0 F6000 X121.159 Y129.079
G1 F1200 X130.919 Y138.839 E36.85531
G0 F6000 X131.485 Y138.839
G1 F1200 X121.159 Y128.513 E37.5353
G0 F6000 X121.159 Y127.948
G1 F1200 X132.05 Y138.839 E38.25249
G0 F6000 X132.616 Y138.839
G1 F1200 X121.159 Y127.382 E39.00695
G0 F6000 X121.159 Y126.816
G1 F1200 X133.182 Y138.839 E39.79869
G0 F6000 X133.747 Y138.839
G1 F1200 X121.159 Y126.251 E40.62763
G0 F6000 X121.159 Y125.685
G1 F1200 X134.313 Y138.839 E41.49384
G0 F6000 X134.879 Y138.839
G1 F1200 X121.159 Y125.119 E42.39733
G0 F6000 X121.159 Y124.554
G1 F1200 X135.444 Y138.839 E43.33802
G0 F6000 X136.01 Y138.839
G1 F1200 X121.159 Y123.988 E44.31598
G0 F6000 X121.159 Y123.422
G1 F1200 X136.576 Y138.839 E45.33122
G0 F6000 X137.141 Y138.839
G1 F1200 X121.159 Y122.856 E46.38369
G0 F6000 X121.159 Y122.291
G1 F1200 X137.707 Y138.839 E47.47341
G0 F6000 X138.273 Y138.839
G1 F1200 X121.159 Y121.725 E48.60039
G0 F6000 X121.159 Y121.159
G1 F1200 X138.839 Y138.839 E49.76465
G0 F6000 X138.839 Y138.274
G1 F1200 X121.725 Y121.159 E50.89167
G0 F6000 X122.291 Y121.159
G1 F1200 X138.839 Y137.708 E51.98142
G0 F6000 X138.839 Y137.142
G1 F1200 X122.856 Y121.159 E53.03393
G0 F6000 X123.422 Y121.159
G1 F1200 X138.839 Y136.576 E54.04916
G0 F6000 X138.839 Y136.011
G1 F1200 X123.988 Y121.159 E55.02716
G0 F6000 X124.554 Y121.159
G1 F1200 X138.839 Y135.445 E55.96788
G0 F6000 X138.839 Y134.879
G1 F1200 X125.119 Y121.159 E56.87137
G0 F6000 X125.685 Y121.159
G1 F1200 X138.839 Y134.314 E57.73761
G0 F6000 X138.839 Y133.748
G1 F1200 X126.251 Y121.159 E58.56659
G0 F6000 X126.816 Y121.159
G1 F1200 X138.839 Y133.182 E59.35832
G0 F6000 X138.839 Y132.617
G1 F1200 X127.382 Y121.159 E60.11282
G0 F6000 X127.948 Y121.159
G1 F1200 X138.839 Y132.051 E60.83004
G0 F6000 X138.839 Y131.485
G1 F1200 X128.513 Y121.159 E61.51003
G0 F6000 X129.079 Y121.159
G1 F1200 X138.839 Y130.92 E62.15277
G0 F6000 X138.839 Y130.354
G1 F1200 X129.645 Y121.159 E62.75825
G0 F6000 X130.21 Y121.159
G1 F1200 X138.839 Y129.788 E63.32648
G0 F6000 X138.839 Y129.223
G1 F1200 X130.776 Y121.159 E63.85748
G0 F6000 X131.342 Y121.159
G1 F1200 X138.839 Y128.657 E64.3512
G0 F6000 X138.839 Y128.091
G1 F1200 X131.907 Y121.159 E64.80768
G0 F6000 X132.473 Y121.159
G1 F1200 X138.839 Y127.526 E65.22693
G0 F6000 X138.839 Y126.96
G1 F1200 X133.039 Y121.159 E65.6089
G0 F6000 X133.604 Y121.159
G1 F1200 X138.839 Y126.394 E65.95364
G0 F6000 X138.839 Y125.828
G1 F1200 X134.17 Y121.159 E66.2611
G0 F6000 X134.736 Y121.159
G1 F1200 X138.839 Y125.263 E66.53132
G0 F6000 X138.839 Y124.697
G1 F1200 X135.302 Y121.159 E66.76427
G0 F6000 X135.867 Y121.159
G1 F1200 X138.839 Y124.131 E66.95998
G0 F6000 X138.839 Y123.566
G1 F1200 X136.433 Y121.159 E67.11845
G0 F6000 X136.999 Y121.159
G1 F1200 X138.839 Y123 E67.23965
G0 F6000 X138.839 Y122.434
G1 F1200 X137.564 Y121.159 E67.32361
G0 F6000 X138.13 Y121.159
G1 F1200 X138.839 Y121.869 E67.37034
G0 F6000 X138.839 Y121.303
M104 S200
G1 F1200 X138.696 Y121.159 E67.37979
G1 F1500 E60.87979
;MESH:NONMESH
G0 F300 X138.696 Y121.159 Z0.56
G0 F6000 X138.696 Y120.7
G0 X120.772 Y120.772
G0 X120.6 Y139.4
;TIME_ELAPSED:84.113008
;LAYER:1
M106 S85
;TYPE:WALL-INNER
;MESH:CalibrationCube
G1 F1500 E67.37979
G1 F2850 X139.4 Y139.4 E68.25519
G1 X139.4 Y130 E68.6929
G1 X139.4 Y120.6 E69.1306
G1 X120.6 Y120.6 E70.00601
G1 X120.6 Y139.4 E70.88141
G0 F10500 X120.2 Y139.8
;TYPE:WALL-OUTER
G1 F2850 X139.8 Y139.8 E71.79407
G1 X139.8 Y130 E72.2504
G1 X139.8 Y120.2 E72.70673
G1 X120.2 Y120.2 E73.61939
G1 X120.2 Y139.8 E74.53205
G0 F10500 X120.47 Y139.53
G0 X120.7 Y139.04
G0 X120.96 Y139.04
;TYPE:SKIN
G1 F2850 X139.04 Y139.04 E75.37393
G1 X139.04 Y130 E75.79487
G1 X139.04 Y120.96 E76.21581
G1 X120.96 Y120.96 E77.05769
G1 X120.96 Y139.04 E77.89957
G0 F10500 X120.7 Y139.04
G0 X120.7 Y121.519
G0 X121.159 Y121.519
G1 F2850 X121.519 Y121.159 E77.92327
G0 F10500 X122.084 Y121.159
G1 F2850 X121.159 Y122.084 E77.98419
G0 F10500 X121.159 Y122.65
G1 F2850 X122.65 Y121.159 E78.08237
G0 F10500 X123.216 Y121.159
G1 F2850 X121.159 Y123.216 E78.21783
G0 F10500 X121.159 Y123.781
G1 F2850 X123.781 Y121.159 E78.39049
G0 F10500 X124.347 Y121.159
G1 F2850 X121.159 Y124.347 E78.60043
G0 F10500 X121.159 Y124.913
G1 F2850 X124.913 Y121.159 E78.84763
G0 F10500 X125.478 Y121.159
G1 F2850 X121.159 Y125.478 E79.13205
G0 F10500 X121.159 Y126.044
G1 F2850 X126.044 Y121.159 E79.45373
G0 F10500 X126.61 Y121.159
G1 F2850 X121.159 Y126.61 E79.81269
G0 F10500 X121.159 Y127.175
G1 F2850 X127.175 Y121.159 E80.20886
G0 F10500 X127.741 Y121.159
G1 F2850 X121.159 Y127.741 E80.64229
G0 F10500 X121.159 Y128.307
G1 F2850 X128.307 Y121.159 E81.113
G0 F10500 X128.873 Y121.159
G1 F2850 X121.159 Y128.873 E81.62098
G0 F10500 X121.159 Y129.438
G1 F2850 X129.438 Y121.159 E82.16617
G0 F10500 X130.004 Y121.159
G1 F2850 X121.159 Y130.004 E82.74862
G0 F10500 X121.159 Y130.57
G1 F2850 X130.57 Y121.159 E83.36835
G0 F10500 X131.135 Y121.159
G1 F2850 X121.159 Y131.135 E84.02529
G0 F10500 X121.159 Y131.701
G1 F2850 X131.701 Y121.159 E84.7195
G0 F10500 X132.267 Y121.159
G1 F2850 X121.159 Y132.267 E85.45098
G0 F10500 X121.159 Y132.832
G1 F2850 X132.832 Y121.159 E86.21967
G0 F10500 X133.398 Y121.159
G1 F2850 X121.159 Y133.398 E87.02563
G0 F10500 X121.159 Y133.964
G1 F2850 X133.964 Y121.159 E87.86886
G0 F10500 X134.529 Y121.159
G1 F2850 X121.159 Y134.529 E88.7493
G0 F10500 X121.159 Y135.095
G1 F2850 X135.095 Y121.159 E89.667
G0 F10500 X135.661 Y121.159
G1 F2850 X121.159 Y135.661 E90.62199
G0 F10500 X121.159 Y136.226
G1 F2850 X136.226 Y121.159 E91.61417
G0 F10500 X136.792 Y121.159
G1 F2850 X121.159 Y136.792 E92.64363
G0 F10500 X121.159 Y137.358
G1 F2850 X137.358 Y121.159 E93.71037
G0 F10500 X137.924 Y121.159
G1 F2850 X121.159 Y137.924 E94.81437
G0 F10500 X121.159 Y138.489
G1 F2850 X138.489 Y121.159 E95.95558
G0 F10500 X138.839 Y121.376
G1 F2850 X121.375 Y138.839 E97.10558
G0 F10500 X121.941 Y138.839
G1 F2850 X138.839 Y121.941 E98.21834
G0 F10500 X138.839 Y122.507
G1 F2850 X122.506 Y138.839 E99.29387
G0 F10500 X123.072 Y138.839
G1 F2850 X138.839 Y123.073 E100.33212
G0 F10500 X138.839 Y123.639
G1 F2850 X123.638 Y138.839 E101.3331
G0 F10500 X124.204 Y138.839
G1 F2850 X138.839 Y124.204 E102.29684
G0 F10500 X138.839 Y124.77
G1 F2850 X124.769 Y138.839 E103.22334
G0 F10500 X125.335 Y138.839
G1 F2850 X138.839 Y125.336 E104.11256
