;FLAVOR:Marlin
;TIME:1046
;Filament used: 1.03141m
;Layer height: 0.28
;MINX:108.5
;MINY:108.5
;MINZ:0.28
;MAXX:151.5
;MAXY:151.5
;MAXZ:19.88
;POSTPROCESSED
;Generated with Cura_SteamEngine 5.2.1
;
;

M82 ;absolute extrusion mode
START_PRINT HOTEND=200 BED=60 RELATIVE_E_MODE=False PROBE=false PROBE_AREA_START=%MINX%,%MINY% PROBE_AREA_END=%MAXX%,%MAXY%
G92 E0
G92 E0
G1 F1500 E-6.5
;LAYER_COUNT:71
;LAYER:0
M107
G0 F6000 X111.707 Y112.051 Z0.28
;TYPE:SKIRT
G1 F1500 E0
G1 F1200 X112.399 Y111.387 E0.06699
G1 X113.144 Y110.783 E0.13397
G1 X113.936 Y110.243 E0.20093
G1 X114.771 Y109.771 E0.26792
G1 X115.642 Y109.37 E0.3349
G1 X116.544 Y109.044 E0.40188
G1 X117.469 Y108.793 E0.46883
G1 X118.413 Y108.62 E0.53586
G1 X119.687 Y108.514 E0.62515
G1 X120.33 Y108.5 E0.67008
G1 X139.458 Y108.501 E2.0061
G1 X140.156 Y108.511 E2.05485
G1 X141.113 Y108.565 E2.1218
G1 X142.063 Y108.698 E2.1888
G1 X142.998 Y108.91 E2.25577
G1 X143.912 Y109.199 E2.32272
G1 X144.799 Y109.564 E2.38972
G1 X145.653 Y110 E2.45669
G1 X146.467 Y110.507 E2.52367
G1 X147.237 Y111.08 E2.59071
G1 X147.955 Y111.714 E2.65761
G1 X148.619 Y112.407 E2.72465
G1 X149.222 Y113.152 E2.79159
G1 X149.762 Y113.945 E2.8586
G1 X150.233 Y114.78 E2.92556
G1 X150.633 Y115.652 E2.99257
G1 X150.959 Y116.553 E3.05949
G1 X151.209 Y117.479 E3.12649
G1 X151.381 Y118.423 E3.19351
G1 X151.486 Y119.687 E3.2821
G1 X151.5 Y120.33 E3.32702
G1 X151.499 Y139.406 E4.65941
G1 X151.49 Y140.133 E4.71019
G1 X151.438 Y141.091 E4.7772
G1 X151.307 Y142.041 E4.84418
G1 X151.097 Y142.976 E4.91112
G1 X150.809 Y143.891 E4.97812
G1 X150.447 Y144.779 E5.0451
G1 X150.012 Y145.634 E5.1121
G1 X149.507 Y146.449 E5.17907
G1 X148.935 Y147.219 E5.24606
G1 X148.302 Y147.939 E5.31302
G1 X147.611 Y148.604 E5.38001
G1 X146.867 Y149.209 E5.44699
G1 X146.075 Y149.75 E5.51398
G1 X145.241 Y150.223 E5.58095
G1 X144.37 Y150.625 E5.64795
G1 X143.469 Y150.952 E5.7149
G1 X142.544 Y151.204 E5.78186
G1 X141.6 Y151.378 E5.84891
G1 X140.313 Y151.486 E5.93911
G1 X139.67 Y151.5 E5.98404
G1 X120.559 Y151.499 E7.31887
G1 X119.861 Y151.49 E7.36762
G1 X118.903 Y151.438 E7.43464
G1 X117.953 Y151.306 E7.50163
G1 X117.018 Y151.095 E7.56858
G1 X116.103 Y150.807 E7.63558
G1 X115.215 Y150.444 E7.70258
G1 X114.361 Y150.009 E7.76952
G1 X113.546 Y149.503 E7.83653
G1 X112.776 Y148.932 E7.90348
G1 X112.056 Y148.298 E7.97049
G1 X111.392 Y147.607 E8.03742
G1 X110.787 Y146.862 E8.10446
G1 X110.247 Y146.07 E8.17141
G1 X109.775 Y145.236 E8.23834
G1 X109.373 Y144.365 E8.30535
G1 X109.046 Y143.463 E8.37236
G1 X108.795 Y142.538 E8.4393
G1 X108.621 Y141.595 E8.50628
G1 X108.513 Y140.302 E8.59691
G1 X108.5 Y139.658 E8.6419
G1 X108.501 Y120.518 E9.97875
G1 X108.51 Y119.853 E10.02521
G1 X108.563 Y118.896 E10.09215
G1 X108.696 Y117.946 E10.15915
G1 X108.907 Y117.011 E10.2261
G1 X109.195 Y116.096 E10.2931
G1 X109.559 Y115.209 E10.36007
G1 X109.995 Y114.355 E10.42704
G1 X110.501 Y113.54 E10.49405
G1 X111.073 Y112.77 E10.56104
G1 X111.707 Y112.051 E10.628
G0 F6000 X112.296 Y112.307
G1 F1200 X112.983 Y111.676 E10.69315
G1 X113.722 Y111.105 E10.75838
G1 X114.507 Y110.6 E10.82358
G1 X115.332 Y110.163 E10.88878
G1 X116.192 Y109.799 E10.95401
G1 X117.08 Y109.51 E11.01924
G1 X117.989 Y109.298 E11.08443
G1 X118.913 Y109.164 E11.14964
G1 X119.704 Y109.113 E11.20501
G1 X120.33 Y109.1 E11.24874
G1 X139.449 Y109.101 E12.58413
G1 X140.147 Y109.111 E12.63289
G1 X141.079 Y109.164 E12.69809
G1 X142.003 Y109.297 E12.76329
G1 X142.913 Y109.509 E12.82856
G1 X143.801 Y109.797 E12.89376
G1 X144.66 Y110.161 E12.95892
G1 X145.486 Y110.597 E13.02416
G1 X146.272 Y111.101 E13.08937
G1 X147.011 Y111.671 E13.15456
G1 X147.699 Y112.303 E13.21981
G1 X148.33 Y112.991 E13.28502
G1 X148.9 Y113.73 E13.3502
G1 X149.405 Y114.515 E13.4154
G1 X149.84 Y115.341 E13.4806
G1 X150.204 Y116.201 E13.54583
G1 X150.492 Y117.089 E13.61103
G1 X150.704 Y117.998 E13.67623
G1 X150.837 Y118.922 E13.74143
G1 X150.887 Y119.704 E13.79616
G1 X150.9 Y120.33 E13.8399
G1 X150.899 Y139.399 E15.17179
G1 X150.89 Y140.126 E15.22258
G1 X150.839 Y141.058 E15.28777
G1 X150.708 Y141.982 E15.35295
G1 X150.498 Y142.892 E15.41818
G1 X150.211 Y143.781 E15.48343
G1 X149.849 Y144.641 E15.54861
G1 X149.415 Y145.468 E15.61384
G1 X148.912 Y146.254 E15.67902
G1 X148.343 Y146.995 E15.74427
G1 X147.713 Y147.684 E15.80948
G1 X147.027 Y148.316 E15.87463
G1 X146.288 Y148.888 E15.9399
G1 X145.504 Y149.394 E16.00508
G1 X144.679 Y149.831 E16.07028
G1 X143.82 Y150.196 E16.13547
G1 X142.933 Y150.487 E16.20068
G1 X142.024 Y150.7 E16.26589
G1 X141.1 Y150.834 E16.3311
G1 X140.296 Y150.887 E16.38738
G1 X139.67 Y150.9 E16.43111
G1 X120.566 Y150.899 E17.76546
G1 X119.868 Y150.89 E17.81421
G1 X118.936 Y150.838 E17.87941
G1 X118.012 Y150.707 E17.94459
G1 X117.102 Y150.496 E18.00984
G1 X116.214 Y150.209 E18.07502
G1 X115.354 Y149.847 E18.14019
G1 X114.527 Y149.412 E18.20546
G1 X113.741 Y148.909 E18.27064
G1 X113.001 Y148.34 E18.33584
G1 X112.312 Y147.709 E18.40109
G1 X111.68 Y147.022 E18.46629
G1 X111.109 Y146.284 E18.53147
G1 X110.603 Y145.499 E18.5967
G1 X110.166 Y144.674 E18.66191
G1 X109.802 Y143.815 E18.72707
G1 X109.512 Y142.927 E18.79232
G1 X109.299 Y142.018 E18.85753
G1 X109.165 Y141.094 E18.92274
G1 X109.113 Y140.285 E18.97936
G1 X109.1 Y139.658 E19.02317
G1 X109.101 Y120.526 E20.35947
G1 X109.11 Y119.861 E20.40592
G1 X109.163 Y118.929 E20.47112
G1 X109.295 Y118.005 E20.53631
G1 X109.506 Y117.096 E20.60149
G1 X109.793 Y116.208 E20.66667
G1 X110.156 Y115.347 E20.73194
G1 X110.591 Y114.521 E20.79714
G1 X111.095 Y113.736 E20.8623
G1 X111.665 Y112.996 E20.92754
G1 X112.296 Y112.307 E20.9928
G0 F6000 X112.883 Y112.572
G1 F1200 X113.565 Y111.973 E21.0562
G1 X114.298 Y111.437 E21.11962
G1 X115.074 Y110.968 E21.18295
G1 X115.889 Y110.569 E21.24633
G1 X116.736 Y110.243 E21.30972
G1 X117.609 Y109.993 E21.37315
G1 X118.5 Y109.82 E21.43655
G1 X119.72 Y109.713 E21.52209
G1 X120.33 Y109.7 E21.5647
G1 X139.293 Y109.7 E22.8892
G1 X140.139 Y109.711 E22.94829
G1 X141.045 Y109.764 E23.01168
G1 X141.942 Y109.897 E23.07502
G1 X142.825 Y110.108 E23.13843
G1 X143.686 Y110.395 E23.20182
G1 X144.518 Y110.758 E23.26522
G1 X145.314 Y111.192 E23.32855
G1 X146.07 Y111.695 E23.39197
G1 X146.778 Y112.263 E23.45537
G1 X147.434 Y112.89 E23.51875
G1 X148.032 Y113.573 E23.58216
G1 X148.567 Y114.306 E23.64554
G1 X149.036 Y115.083 E23.70893
G1 X149.435 Y115.898 E23.77231
G1 X149.76 Y116.745 E23.83568
G1 X150.009 Y117.618 E23.89908
G1 X150.181 Y118.509 E23.96247
G1 X150.287 Y119.72 E24.04737
G1 X150.3 Y120.33 E24.08999
G1 X150.299 Y139.392 E25.4214
G1 X150.29 Y140.119 E25.47218
G1 X150.239 Y141.025 E25.53556
G1 X150.108 Y141.923 E25.59895
G1 X149.899 Y142.806 E25.66233
G1 X149.613 Y143.667 E25.7257
G1 X149.252 Y144.5 E25.78911
G1 X148.819 Y145.297 E25.85246
G1 X148.318 Y146.054 E25.91586
G1 X147.752 Y146.763 E25.97923
G1 X147.125 Y147.42 E26.04266
G1 X146.444 Y148.019 E26.10601
G1 X145.712 Y148.556 E26.16942
G1 X144.936 Y149.026 E26.23278
G1 X144.121 Y149.427 E26.29623
G1 X143.275 Y149.753 E26.35955
G1 X142.403 Y150.005 E26.42295
G1 X141.512 Y150.178 E26.48635
G1 X140.28 Y150.287 E26.57273
G1 X139.67 Y150.3 E26.61535
G1 X120.574 Y150.299 E27.94913
G1 X119.876 Y150.29 E27.99789
G1 X118.97 Y150.238 E28.06127
G1 X118.072 Y150.107 E28.12466
G1 X117.189 Y149.898 E28.18804
G1 X116.328 Y149.611 E28.25143
G1 X115.496 Y149.249 E28.3148
G1 X114.698 Y148.816 E28.37822
G1 X113.942 Y148.315 E28.44156
G1 X113.233 Y147.748 E28.50497
G1 X112.576 Y147.122 E28.56836
G1 X111.978 Y146.44 E28.63171
G1 X111.441 Y145.708 E28.69512
G1 X110.971 Y144.931 E28.75855
G1 X110.571 Y144.117 E28.8219
G1 X110.245 Y143.27 E28.88529
G1 X109.994 Y142.398 E28.94867
G1 X109.821 Y141.507 E29.01206
G1 X109.713 Y140.269 E29.09886
G1 X109.7 Y139.658 E29.14154
G1 X109.701 Y120.535 E30.47722
G1 X109.71 Y119.87 E30.52367
G1 X109.762 Y118.964 E30.58705
G1 X109.894 Y118.066 E30.65045
G1 X110.104 Y117.183 E30.71384
G1 X110.392 Y116.322 E30.77726
G1 X110.753 Y115.49 E30.8406
G1 X111.187 Y114.693 E30.90399
G1 X111.689 Y113.937 E30.96737
G1 X112.256 Y113.228 E31.03078
G1 X112.883 Y112.572 E31.09416
G1 F1500 E24.59416
;MESH:CalibrationCube
G0 F6000 X120.414 Y119.335
G0 X120.414 Y120.414
G0 X120.9 Y139.1
;TYPE:WALL-INNER
G1 F1500 E31.09416
G1 F1200 X139.1 Y139.1 E32.36537
G1 X139.1 Y130 E33.00097
G1 X139.1 Y120.9 E33.63657
G1 X120.9 Y120.9 E34.90777
G1 X120.9 Y139.1 E36.17897
G0 F6000 X120.3 Y139.7
;TYPE:WALL-OUTER
G1 F1200 X139.7 Y139.7 E37.53399
G1 X139.7 Y130 E38.2115
G1 X139.7 Y120.3 E38.88901
G1 X120.3 Y120.3 E40.24403
G1 X120.3 Y139.7 E41.59904
G0 F6000 X120.87 Y139.13
G0 X121.1 Y138.54
G0 X121.46 Y138.54
;TYPE:SKIN
G1 F1200 X138.54 Y138.54 E42.79202
G1 X138.54 Y130 E43.38851
G1 X138.54 Y121.46 E43.98499
G1 X121.46 Y121.46 E45.17797
G1 X121.46 Y138.54 E46.37094
G0 F6000 X122.117 Y138.239
G1 F1200 X121.759 Y137.881 E46.40631
G0 F6000 X121.759 Y137.033
G1 F1200 X122.965 Y138.239 E46.52543
G0 F6000 X123.814 Y138.239
G1 F1200 X121.759 Y136.184 E46.72842
G0 F6000 X121.759 Y135.335
G1 F1200 X124.662 Y138.239 E47.01522
G0 F6000 X125.511 Y138.239
G1 F1200 X121.759 Y134.487 E47.38583
G0 F6000 X121.759 Y133.638
G1 F1200 X126.359 Y138.239 E47.84026
G0 F6000 X127.208 Y138.239
G1 F1200 X121.759 Y132.79 E48.3785
G0 F6000 X121.759 Y131.941
G1 F1200 X128.057 Y138.239 E49.0006
G0 F6000 X128.905 Y138.239
G1 F1200 X121.759 Y131.093 E49.70646
G0 F6000 X121.759 Y130.244
G1 F1200 X129.754 Y138.239 E50.49619
G0 F6000 X130.602 Y138.239
G1 F1200 X121.759 Y129.396 E51.36968
G0 F6000 X121.759 Y128.547
G1 F1200 X131.451 Y138.239 E52.32703
G0 F6000 X132.299 Y138.239
G1 F1200 X121.759 Y127.699 E53.36815
G0 F6000 X121.759 Y126.85
G1 F1200 X133.148 Y138.239 E54.49313
G0 F6000 X133.996 Y138.239
G1 F1200 X121.759 Y126.002 E55.70187
G0 F6000 X121.759 Y125.153
G1 F1200 X134.845 Y138.239 E56.99447
G0 F6000 X135.693 Y138.239
G1 F1200 X121.759 Y124.305 E58.37084
G0 F6000 X121.759 Y123.456
G1 F1200 X136.542 Y138.239 E59.83107
G0 F6000 X137.39 Y138.239
G1 F1200 X121.759 Y122.608 E61.37506
G0 F6000 X121.759 Y121.759
G1 F1200 X138.239 Y138.239 E63.00291
G0 F6000 X138.239 Y137.39
G1 F1200 X122.608 Y121.759 E64.5469
G0 F6000 X123.456 Y121.759
G1 F1200 X138.239 Y136.542 E66.00713
G0 F6000 X138.239 Y135.693
G1 F1200 X124.305 Y121.759 E67.3835
G0 F6000 X125.153 Y121.759
G1 F1200 X138.239 Y134.845 E68.6761
G0 F6000 X138.239 Y133.996
G1 F1200 X126.002 Y121.759 E69.88484
G0 F6000 X126.85 Y121.759
G1 F1200 X138.239 Y133.148 E71.00982
G0 F6000 X138.239 Y132.299
G1 F1200 X127.699 Y121.759 E72.05094
G0 F6000 X128.547 Y121.759
G1 F1200 X138.239 Y131.451 E73.00829
G0 F6000 X138.239 Y130.602
G1 F1200 X129.396 Y121.759 E73.88178
G0 F6000 X130.244 Y121.759
G1 F1200 X138.239 Y129.754 E74.6715
G0 F6000 X138.239 Y128.905
G1 F1200 X131.093 Y121.759 E75.37737
G0 F6000 X131.941 Y121.759
G1 F1200 X138.239 Y128.057 E75.99947
G0 F6000 X138.239 Y127.208
G1 F1200 X132.79 Y121.759 E76.53771
G0 F6000 X133.638 Y121.759
G1 F1200 X138.239 Y126.359 E76.99214
G0 F6000 X138.239 Y125.511
G1 F1200 X134.487 Y121.759 E77.36275
G0 F6000 X135.335 Y121.759
G1 F1200 X138.239 Y124.662 E77.64955
G0 F6000 X138.239 Y123.814
G1 F1200 X136.184 Y121.759 E77.85254
G0 F6000 X137.033 Y121.759
G1 F1200 X138.239 Y122.965 E77.97166
G0 F6000 X138.239 Y122.117
M104 S200
G1 F1200 X137.881 Y121.759 E78.00703
G1 F1500 E71.50703
;MESH:NONMESH
G0 F300 X137.881 Y121.759 Z0.56
G0 F6000 X137.881 Y121.1
G0 X121.172 Y121.172
G0 X120.87 Y139.13
G1 F1500 E78.00703
G0 F6000 X120.6 Y139.4
;TIME_ELAPSED:66.861915
;LAYER:1
M106 S85
;TYPE:WALL-INNER
;MESH:CalibrationCube
G1 F2850 X139.4 Y139.4 E78.88243
G1 X139.4 Y130 E79.32014
G1 X139.4 Y120.6 E79.75784
G1 X120.6 Y120.6 E80.63325
G1 X120.6 Y139.4 E81.50865
G0 F10500 X120.2 Y139.8
;TYPE:WALL-OUTER
G1 F2850 X139.8 Y139.8 E82.42131
G1 X139.8 Y130 E82.87764
G1 X139.8 Y120.2 E83.33397
G1 X120.2 Y120.2 E84.24663
G1 X120.2 Y139.8 E85.15928
G0 F10500 X120.47 Y139.53
G0 X120.7 Y139.04
G0 X120.96 Y139.04
;TYPE:SKIN
G1 F2850 X139.04 Y139.04 E86.00117
G1 X139.04 Y130 E86.42211
G1 X139.04 Y120.96 E86.84305
G1 X120.96 Y120.96 E87.68493
G1 X120.96 Y139.04 E88.52681
G0 F10500 X120.7 Y139.04
G0 X120.7 Y121.519
G0 X121.159 Y121.519
G1 F2850 X121.519 Y121.159 E88.55051
G0 F10500 X122.084 Y121.159
G1 F2850 X121.159 Y122.084 E88.61143
G0 F10500 X121.159 Y122.65
G1 F2850 X122.65 Y121.159 E88.70961
G0 F10500 X123.216 Y121.159
G1 F2850 X121.159 Y123.216 E88.84507
G0 F10500 X121.159 Y123.781
G1 F2850 X123.781 Y121.159 E89.01773
G0 F10500 X124.347 Y121.159
G1 F2850 X121.159 Y124.347 E89.22767
G0 F10500 X121.159 Y124.913
G1 F2850 X124.913 Y121.159 E89.47487
G0 F10500 X125.478 Y121.159
G1 F2850 X121.159 Y125.478 E89.75929
G0 F10500 X121.159 Y126.044
G1 F2850 X126.044 Y121.159 E90.08097
G0 F10500 X126.61 Y121.159
G1 F2850 X121.159 Y126.61 E90.43993
G0 F10500 X121.159 Y127.175
G1 F2850 X127.175 Y121.159 E90.83609
G0 F10500 X127.741 Y121.159
G1 F2850 X121.159 Y127.741 E91.26953
G0 F10500 X121.159 Y128.307
G1 F2850 X128.307 Y121.159 E91.74024
G0 F10500 X128.873 Y121.159
G1 F2850 X121.159 Y128.873 E92.24822
G0 F10500 X121.159 Y129.438
G1 F2850 X129.438 Y121.159 E92.7934
G0 F10500 X130.004 Y121.159
G1 F2850 X121.159 Y130.004 E93.37586
G0 F10500 X121.159 Y130.57
G1 F2850 X130.57 Y121.159 E93.99559
G0 F10500 X131.135 Y121.159
G1 F2850 X121.159 Y131.135 E94.65253
G0 F10500 X121.159 Y131.701
G1 F2850 X131.701 Y121.159 E95.34674
G0 F10500 X132.267 Y121.159
G1 F2850 X121.159 Y132.267 E96.07822
G0 F10500 X121.159 Y132.832
G1 F2850 X132.832 Y121.159 E96.84691
G0 F10500 X133.398 Y121.159
G1 F2850 X121.159 Y133.398 E97.65287
G0 F10500 X121.159 Y133.964
G1 F2850 X133.964 Y121.159 E98.4961
G0 F10500 X134.529 Y121.159
G1 F2850 X121.159 Y134.529 E99.37653
G0 F10500 X121.159 Y135.095
G1 F2850 X135.095 Y121.159 E100.29424
G0 F10500 X135.661 Y121.159
G1 F2850 X121.159 Y135.661 E101.24923
G0 F10500 X121.159 Y136.226
G1 F2850 X136.226 Y121.159 E102.24141
G0 F10500 X136.792 Y121.159
G1 F2850 X121.159 Y136.792 E103.27087
G0 F10500 X121.159 Y137.358
G1 F2850 X137.358 Y121.159 E104.3376
G0 F10500 X137.924 Y121.159
G1 F2850 X121.159 Y137.924 E105.44161
G0 F10500 X121.159 Y138.489
G1 F2850 X138.489 Y121.159 E106.58282
G0 F10500 X138.839 Y121.376
G1 F2850 X121.375 Y138.839 E107.73282
G0 F10500 X121.941 Y138.839
G1 F2850 X138.839 Y121.941 E108.84558
G0 F10500 X138.839 Y122.507
G1 F2850 X122.506 Y138.839 E109.9211
G0 F10500 X123.072 Y138.839
G1 F2850 X138.839 Y123.073 E110.95936
G0 F10500 X138.839 Y123.639
G1 F2850 X123.638 Y138.839 E111.96033
G0 F10500 X124.204 Y138.839
G1 F2850 X138.839 Y124.204 E112.92407
G0 F10500 X138.839 Y124.77
G1 F2850 X124.769 Y138.839 E113.85058
G0 F10500 X125.335 Y138.839
G1 F2850 X138.839 Y125.336 E114.7398
G0 F10500 X138.839 Y125.901
G1 F2850 X125.901 Y138.839 E115.59179
G0 F10500 X126.466 Y138.839
G1 F2850 X138.839 Y126.467 E116.40654
G0 F10500 X138.839 Y127.033
G1 F2850 X127.032 Y138.839 E117.18402
G0 F10500 X127.598 Y138.839
G1 F2850 X138.839 Y127.598 E117.92426
G0 F10500 X138.839 Y128.164
G1 F2850 X128.163 Y138.839 E118.62726
G0 F10500 X128.729 Y138.839
G1 F2850 X138.839 Y128.73 E119.29299
G0 F10500 X138.839 Y129.295
G1 F2850 X129.295 Y138.839 E119.92148
G0 F10500 X129.86 Y138.839
G1 F2850 X138.839 Y129.861 E120.51273
G0 F10500 X138.839 Y130.427
G1 F2850 X130.426 Y138.839 E121.0667
G0 F10500 X130.992 Y138.839
G1 F2850 X138.839 Y130.992 E121.58344
G0 F10500 X138.839 Y131.558
G1 F2850 X131.557 Y138.839 E122.06294
G0 F10500 X132.123 Y138.839
G1 F2850 X138.839 Y132.124 E122.50517
G0 F10500 X138.839 Y132.69
G1 F2850 X132.689 Y138.839 E122.91012
G0 F10500 X133.254 Y138.839
G1 F2850 X138.839 Y133.255 E123.27787
G0 F10500 X138.839 Y133.821
G1 F2850 X133.82 Y138.839 E123.60835
G0 F10500 X134.386 Y138.839
G1 F2850 X138.839 Y134.387 E123.90155
G0 F10500 X138.839 Y134.952
G1 F2850 X134.952 Y138.839 E124.15752
G0 F10500 X135.517 Y138.839
G1 F2850 X138.839 Y135.518 E124.37625
G0 F10500 X138.839 Y136.084
G1 F2850 X136.083 Y138.839 E124.5577
G0 F10500 X136.649 Y138.839
G1 F2850 X138.839 Y136.649 E124.70192
G0 F10500 X138.839 Y137.215
G1 F2850 X137.214 Y138.839 E124.80889
G0 F10500 X137.78 Y138.839
