;FLAVOR:Marlin
;TIME:1840
;Filament used: 1.08447m
;Layer height: 0.2
;MINX:104.431
;MINY:104.431
;MINZ:0.2
;MAXX:155.569
;MAXY:155.569
;MAXZ:30
;POSTPROCESSED
;Generated with Cura_SteamEngine 5.2.1
;
;

M82 ;absolute extrusion mode
START_PRINT EXTRUDER_TEMP=220.0 BED_TEMP=60 RELATIVE_E_MODE=False PROBE=false PROBE_AREA_START=%MINX%,%MINY% PROBE_AREA_END=%MAXX%,%MAXY%
G92 E0
G92 E0
G1 F1500 E-6.5
;LAYER_COUNT:150
;LAYER:0
M107
G0 F6000 X111.653 Y112.188 Z0.2
;TYPE:SKIRT
G1 F1500 E0
G1 F1200 X112.327 Y111.517 E0.03163
G1 X112.818 Y111.058 E0.05399
G1 X113.568 Y110.405 E0.08706
G1 X114.154 Y109.927 E0.11222
G1 X114.73 Y109.486 E0.13634
G1 X115.43 Y108.986 E0.16495
G1 X116.062 Y108.562 E0.19027
G1 X116.581 Y108.235 E0.21067
G1 X117.384 Y107.759 E0.24172
G1 X118.039 Y107.4 E0.26656
G1 X118.935 Y106.948 E0.29994
G1 X119.576 Y106.65 E0.32345
G1 X120.376 Y106.309 E0.35237
G1 X120.922 Y106.093 E0.3719
G1 X121.784 Y105.785 E0.40235
G1 X122.662 Y105.505 E0.433
G1 X123.291 Y105.323 E0.45478
G1 X123.95 Y105.154 E0.47741
G1 X124.841 Y104.955 E0.50777
G1 X125.388 Y104.846 E0.52632
G1 X126.432 Y104.678 E0.56149
G1 X127.056 Y104.6 E0.58241
G1 X127.98 Y104.511 E0.61328
G1 X128.487 Y104.474 E0.63019
G1 X129.068 Y104.445 E0.64954
G1 X129.616 Y104.431 E0.66777
G1 X130.383 Y104.431 E0.69328
G1 X131.002 Y104.448 E0.71388
G1 X131.818 Y104.494 E0.74106
G1 X132.605 Y104.56 E0.76733
G1 X132.993 Y104.602 E0.78031
G1 X133.627 Y104.689 E0.80159
G1 X134.509 Y104.831 E0.83131
G1 X135.159 Y104.955 E0.85332
G1 X136.05 Y105.154 E0.88368
G1 X136.632 Y105.301 E0.90365
G1 X137.3 Y105.489 E0.92673
G1 X137.86 Y105.663 E0.94623
G1 X138.472 Y105.871 E0.96773
G1 X138.947 Y106.045 E0.98456
G1 X139.656 Y106.323 E1.00989
G1 X140.522 Y106.692 E1.04119
G1 X141.11 Y106.97 E1.06283
G1 X142.066 Y107.457 E1.09851
G1 X142.675 Y107.792 E1.12163
G1 X143.4 Y108.221 E1.14965
G1 X143.962 Y108.577 E1.17177
G1 X144.673 Y109.058 E1.20033
G1 X145.149 Y109.396 E1.21974
G1 X145.511 Y109.67 E1.23484
G1 X146.207 Y110.22 E1.26435
G1 X146.723 Y110.655 E1.28679
G1 X147.352 Y111.218 E1.31487
G1 X147.812 Y111.653 E1.33593
G1 X148.483 Y112.327 E1.36756
G1 X148.942 Y112.818 E1.38992
G1 X149.595 Y113.568 E1.42299
G1 X150.073 Y114.154 E1.44814
G1 X150.514 Y114.73 E1.47227
G1 X151.014 Y115.43 E1.50088
G1 X151.436 Y116.059 E1.52608
G1 X151.764 Y116.579 E1.54652
G1 X152.241 Y117.384 E1.57765
G1 X152.595 Y118.029 E1.60212
G1 X153.048 Y118.925 E1.63551
G1 X153.352 Y119.579 E1.6595
G1 X153.693 Y120.38 E1.68845
G1 X153.907 Y120.922 E1.70784
G1 X154.213 Y121.779 E1.7381
G1 X154.379 Y122.286 E1.75585
G1 X154.68 Y123.309 E1.79131
G1 X154.854 Y123.995 E1.81485
G1 X155.094 Y125.092 E1.8522
G1 X155.218 Y125.754 E1.8746
G1 X155.319 Y126.404 E1.89648
G1 X155.398 Y127.035 E1.91763
G1 X155.489 Y127.977 E1.94911
G1 X155.526 Y128.487 E1.96612
G1 X155.555 Y129.068 E1.98546
G1 X155.569 Y129.616 E2.0037
G1 X155.569 Y130.383 E2.02921
G1 X155.552 Y131.002 E2.0498
G1 X155.506 Y131.818 E2.07699
G1 X155.44 Y132.605 E2.10325
G1 X155.399 Y132.988 E2.11607
G1 X155.312 Y133.619 E2.13725
G1 X155.169 Y134.508 E2.1672
G1 X155.036 Y135.195 E2.19047
G1 X154.808 Y136.2 E2.22475
G1 X154.654 Y136.801 E2.24538
G1 X154.495 Y137.355 E2.26455
G1 X154.337 Y137.86 E2.28215
G1 X154.129 Y138.472 E2.30365
G1 X153.953 Y138.951 E2.32063
G1 X153.526 Y140.021 E2.35894
G1 X153.314 Y140.508 E2.37661
G1 X153.032 Y141.106 E2.3986
G1 X152.546 Y142.061 E2.43424
G1 X152.206 Y142.678 E2.45767
G1 X151.776 Y143.404 E2.48573
G1 X151.423 Y143.962 E2.5077
G1 X150.942 Y144.673 E2.53625
G1 X150.604 Y145.149 E2.55566
G1 X150.33 Y145.511 E2.57076
G1 X149.78 Y146.207 E2.60027
G1 X149.345 Y146.723 E2.62272
G1 X148.782 Y147.352 E2.65079
G1 X148.347 Y147.812 E2.67185
G1 X147.673 Y148.483 E2.70348
G1 X147.182 Y148.942 E2.72584
G1 X146.432 Y149.595 E2.75891
G1 X145.846 Y150.073 E2.78406
G1 X145.27 Y150.514 E2.80819
G1 X144.57 Y151.014 E2.8368
G1 X143.938 Y151.438 E2.86212
G1 X143.416 Y151.768 E2.88266
G1 X142.614 Y152.243 E2.91366
G1 X141.967 Y152.597 E2.93819
G1 X141.07 Y153.05 E2.97161
G1 X140.424 Y153.35 E2.9953
G1 X139.624 Y153.691 E3.02423
G1 X139.078 Y153.907 E3.04376
G1 X138.216 Y154.215 E3.0742
G1 X137.699 Y154.384 E3.09229
G1 X136.716 Y154.675 E3.12639
G1 X136.055 Y154.844 E3.14908
G1 X135.16 Y155.044 E3.17958
G1 X134.612 Y155.154 E3.19817
G1 X133.568 Y155.322 E3.23334
G1 X132.944 Y155.4 E3.25426
G1 X132.02 Y155.489 E3.28513
G1 X131.513 Y155.526 E3.30204
G1 X130.932 Y155.555 E3.32139
G1 X130.384 Y155.569 E3.33962
G1 X129.617 Y155.569 E3.36513
G1 X128.998 Y155.552 E3.38573
G1 X128.182 Y155.506 E3.41291
G1 X127.395 Y155.44 E3.43918
G1 X127.007 Y155.398 E3.45216
G1 X126.373 Y155.311 E3.47344
G1 X125.491 Y155.169 E3.50316
G1 X124.8 Y155.035 E3.52657
G1 X123.793 Y154.806 E3.56092
G1 X123.205 Y154.655 E3.58111
G1 X122.653 Y154.497 E3.60021
G1 X122.14 Y154.337 E3.61808
G1 X121.528 Y154.129 E3.63958
G1 X121.053 Y153.955 E3.6564
G1 X120.344 Y153.677 E3.68173
G1 X119.474 Y153.306 E3.71319
G1 X118.888 Y153.028 E3.73476
G1 X117.934 Y152.542 E3.77037
G1 X117.325 Y152.208 E3.79347
G1 X116.6 Y151.779 E3.82149
G1 X116.038 Y151.423 E3.84362
G1 X115.327 Y150.942 E3.87217
G1 X114.841 Y150.596 E3.89201
G1 X114.488 Y150.329 E3.90673
G1 X113.792 Y149.779 E3.93624
G1 X113.345 Y149.406 E3.9556
G1 X112.895 Y149.01 E3.97554
G1 X112.476 Y148.626 E3.99444
G1 X112.186 Y148.345 E4.00787
G1 X111.516 Y147.672 E4.03946
G1 X111.056 Y147.18 E4.06186
G1 X110.407 Y146.435 E4.09472
G1 X109.921 Y145.839 E4.1203
G1 X109.679 Y145.527 E4.13343
G1 X109.234 Y144.925 E4.15833
G1 X108.983 Y144.566 E4.1729
G1 X108.56 Y143.935 E4.19817
G1 X108.235 Y143.419 E4.21845
G1 X107.759 Y142.616 E4.2495
G1 X107.431 Y142.023 E4.27204
G1 X107.059 Y141.297 E4.29917
G1 X106.791 Y140.734 E4.31991
G1 X106.31 Y139.632 E4.3599
G1 X106.093 Y139.078 E4.37969
G1 X105.784 Y138.211 E4.4103
G1 X105.504 Y137.334 E4.44092
G1 X105.325 Y136.716 E4.46232
G1 X105.156 Y136.055 E4.48502
G1 X104.956 Y135.16 E4.51552
G1 X104.846 Y134.612 E4.53411
G1 X104.675 Y133.544 E4.57008
G1 X104.597 Y132.922 E4.59093
G1 X104.51 Y132.014 E4.62127
G1 X104.474 Y131.513 E4.63798
G1 X104.445 Y130.932 E4.65733
G1 X104.431 Y130.384 E4.67556
G1 X104.431 Y129.617 E4.70107
G1 X104.448 Y128.998 E4.72166
G1 X104.494 Y128.182 E4.74885
G1 X104.56 Y127.395 E4.77511
G1 X104.602 Y127.007 E4.7881
G1 X104.689 Y126.373 E4.80938
G1 X104.831 Y125.491 E4.83909
G1 X104.964 Y124.805 E4.86233
G1 X105.192 Y123.8 E4.89661
G1 X105.346 Y123.199 E4.91725
G1 X105.505 Y122.645 E4.93642
G1 X105.663 Y122.14 E4.95401
G1 X105.871 Y121.528 E4.97551
G1 X106.045 Y121.053 E4.99234
G1 X106.323 Y120.344 E5.01767
G1 X106.692 Y119.478 E5.04898
G1 X106.968 Y118.894 E5.07046
G1 X107.454 Y117.939 E5.1061
G1 X107.794 Y117.322 E5.12953
G1 X108.224 Y116.596 E5.1576
G1 X108.577 Y116.038 E5.17956
G1 X109.058 Y115.327 E5.20811
G1 X109.396 Y114.851 E5.22753
G1 X109.67 Y114.489 E5.24263
G1 X110.22 Y113.793 E5.27213
G1 X110.655 Y113.277 E5.29458
G1 X111.218 Y112.648 E5.32265
G1 X111.653 Y112.188 E5.34371
G0 F6000 X111.935 Y112.472
G1 F1200 X112.609 Y111.801 E5.37534
G1 X113.082 Y111.358 E5.3969
G1 X113.568 Y110.93 E5.41844
G1 X114.15 Y110.442 E5.4437
G1 X114.709 Y110.002 E5.46736
G1 X115.313 Y109.556 E5.49233
G1 X115.652 Y109.318 E5.50611
G1 X116.284 Y108.894 E5.53142
G1 X116.785 Y108.579 E5.55111
G1 X117.588 Y108.103 E5.58215
G1 X118.219 Y107.757 E5.60609
G1 X119.115 Y107.305 E5.63947
G1 X119.733 Y107.018 E5.66213
G1 X120.533 Y106.677 E5.69105
G1 X121.059 Y106.469 E5.70987
G1 X121.572 Y106.282 E5.72803
G1 X122.426 Y105.997 E5.75797
G1 X123.402 Y105.708 E5.79183
G1 X124.037 Y105.545 E5.81363
G1 X124.928 Y105.346 E5.844
G1 X125.463 Y105.239 E5.86214
G1 X126.493 Y105.073 E5.89684
G1 X127.095 Y104.998 E5.91702
G1 X128.019 Y104.909 E5.9479
G1 X128.507 Y104.873 E5.96417
G1 X129.088 Y104.844 E5.98352
G1 X129.616 Y104.831 E6.00109
G1 X130.383 Y104.831 E6.0266
G1 X130.98 Y104.848 E6.04646
G1 X131.796 Y104.894 E6.07364
G1 X132.568 Y104.958 E6.09941
G1 X132.942 Y104.999 E6.11192
G1 X133.564 Y105.084 E6.1328
G1 X134.446 Y105.226 E6.16252
G1 X135.072 Y105.346 E6.18372
G1 X135.963 Y105.545 E6.21408
G1 X136.524 Y105.686 E6.23332
G1 X137.192 Y105.874 E6.2564
G1 X137.731 Y106.042 E6.27518
G1 X138.343 Y106.25 E6.29668
G1 X138.801 Y106.417 E6.31289
G1 X139.51 Y106.695 E6.33822
G1 X140.361 Y107.059 E6.36901
G1 X140.928 Y107.327 E6.38986
G1 X141.884 Y107.814 E6.42555
G1 X142.471 Y108.136 E6.44782
G1 X143.196 Y108.565 E6.47584
G1 X143.738 Y108.908 E6.49717
G1 X144.449 Y109.389 E6.52572
G1 X144.914 Y109.72 E6.5447
G1 X145.263 Y109.984 E6.55926
G1 X145.959 Y110.534 E6.58876
G1 X146.456 Y110.953 E6.61039
G1 X147.085 Y111.516 E6.63846
G1 X147.528 Y111.935 E6.65874
G1 X148.199 Y112.609 E6.69038
G1 X148.642 Y113.082 E6.71193
G1 X149.07 Y113.568 E6.73347
G1 X149.558 Y114.15 E6.75873
G1 X149.998 Y114.709 E6.78239
G1 X150.444 Y115.313 E6.80736
G1 X150.681 Y115.652 E6.82112
G1 X151.103 Y116.281 E6.84631
G1 X151.42 Y116.783 E6.86606
G1 X151.897 Y117.588 E6.89718
G1 X152.238 Y118.209 E6.92075
G1 X152.691 Y119.105 E6.95414
G1 X152.984 Y119.736 E6.97728
G1 X153.325 Y120.537 E7.00623
G1 X153.531 Y121.059 E7.0249
G1 X153.833 Y121.904 E7.05474
G1 X154.113 Y122.782 E7.0854
G1 X154.296 Y123.419 E7.10744
G1 X154.463 Y124.081 E7.13015
G1 X154.703 Y125.178 E7.1675
G1 X154.822 Y125.815 E7.18905
G1 X154.923 Y126.465 E7.21093
G1 X155 Y127.074 E7.23135
G1 X155.091 Y128.016 E7.26282
G1 X155.127 Y128.507 E7.2792
G1 X155.156 Y129.088 E7.29855
G1 X155.169 Y129.616 E7.31611
G1 X155.169 Y130.383 E7.34162
G1 X155.152 Y130.98 E7.36149
G1 X155.106 Y131.796 E7.38867
G1 X155.042 Y132.568 E7.41444
G1 X154.968 Y133.206 E7.4358
G1 X154.774 Y134.444 E7.47748
G1 X154.646 Y135.106 E7.4999
G1 X154.418 Y136.111 E7.53418
G1 X154.27 Y136.69 E7.55405
G1 X154.111 Y137.244 E7.57322
G1 X153.958 Y137.731 E7.5902
G1 X153.75 Y138.343 E7.6117
G1 X153.581 Y138.805 E7.62806
G1 X153.307 Y139.503 E7.653
G1 X152.947 Y140.348 E7.68355
G1 X152.675 Y140.925 E7.70477
G1 X152.189 Y141.88 E7.74041
G1 X151.862 Y142.474 E7.76296
G1 X151.432 Y143.2 E7.79103
G1 X151.092 Y143.738 E7.81219
G1 X150.611 Y144.449 E7.84075
G1 X150.28 Y144.914 E7.85973
G1 X150.016 Y145.263 E7.87428
G1 X149.466 Y145.959 E7.90379
G1 X149.047 Y146.456 E7.92541
G1 X148.484 Y147.085 E7.95349
G1 X148.065 Y147.528 E7.97377
G1 X147.391 Y148.199 E8.0054
G1 X146.918 Y148.642 E8.02695
G1 X146.432 Y149.07 E8.04849
G1 X145.85 Y149.558 E8.07375
G1 X145.291 Y149.998 E8.09742
G1 X144.687 Y150.444 E8.12239
G1 X144.348 Y150.682 E8.13616
G1 X143.716 Y151.106 E8.16148
G1 X143.212 Y151.423 E8.18128
G1 X142.41 Y151.898 E8.21228
G1 X141.786 Y152.24 E8.23595
G1 X140.889 Y152.693 E8.26937
G1 X140.267 Y152.982 E8.29218
G1 X139.467 Y153.323 E8.32111
G1 X138.941 Y153.531 E8.33992
G1 X138.091 Y153.834 E8.36994
G1 X137.23 Y154.11 E8.40001
G1 X136.605 Y154.291 E8.42165
G1 X135.968 Y154.454 E8.44352
G1 X135.073 Y154.654 E8.47402
G1 X134.537 Y154.761 E8.4922
G1 X133.507 Y154.927 E8.5269
G1 X132.905 Y155.002 E8.54708
G1 X131.981 Y155.091 E8.57795
G1 X131.493 Y155.127 E8.59423
G1 X130.912 Y155.156 E8.61358
G1 X130.384 Y155.169 E8.63114
G1 X129.617 Y155.169 E8.65665
G1 X129.02 Y155.152 E8.67652
G1 X128.204 Y155.106 E8.7037
G1 X127.432 Y155.042 E8.72947
G1 X127.058 Y155.001 E8.74198
G1 X126.436 Y154.916 E8.76286
G1 X125.554 Y154.774 E8.79257
G1 X124.888 Y154.645 E8.81514
G1 X123.881 Y154.416 E8.84948
G1 X123.315 Y154.271 E8.86892
G1 X122.763 Y154.113 E8.88801
G1 X122.269 Y153.958 E8.90523
G1 X121.657 Y153.75 E8.92673
G1 X121.199 Y153.583 E8.94295
G1 X120.49 Y153.305 E8.96828
G1 X119.634 Y152.939 E8.99924
G1 X119.069 Y152.672 E9.02002
G1 X118.115 Y152.186 E9.05564
G1 X117.529 Y151.864 E9.07787
G1 X116.804 Y151.435 E9.10589
G1 X116.262 Y151.092 E9.12723
G1 X115.551 Y150.611 E9.15578
G1 X115.076 Y150.273 E9.17517
G1 X114.736 Y150.015 E9.18936
G1 X114.04 Y149.465 E9.21887
G1 X113.609 Y149.106 E9.23752
G1 X113.159 Y148.71 E9.25746
G1 X112.749 Y148.333 E9.27599
G1 X112.47 Y148.063 E9.2889
G1 X111.8 Y147.39 E9.32049
G1 X111.356 Y146.916 E9.34209
G1 X110.929 Y146.431 E9.36358
G1 X110.443 Y145.851 E9.38875
G1 X109.995 Y145.282 E9.41283
G1 X109.557 Y144.689 E9.43735
G1 X109.315 Y144.343 E9.4514
G1 X108.892 Y143.712 E9.47666
G1 X108.579 Y143.215 E9.4962
G1 X108.103 Y142.412 E9.52725
G1 X107.787 Y141.841 E9.54895
G1 X107.415 Y141.115 E9.57609
G1 X107.156 Y140.572 E9.59609
G1 X106.82 Y139.813 E9.6237
G1 X106.596 Y139.272 E9.64318
G1 X106.282 Y138.428 E9.67313
G1 X106.164 Y138.086 E9.68516
G1 X105.888 Y137.223 E9.7153
G1 X105.709 Y136.605 E9.7367
G1 X105.546 Y135.968 E9.75857
G1 X105.346 Y135.073 E9.78907
G1 X105.239 Y134.537 E9.80725
G1 X105.07 Y133.484 E9.84272
G1 X104.995 Y132.884 E9.86283
G1 X104.908 Y131.976 E9.89317
G1 X104.873 Y131.493 E9.90928
G1 X104.844 Y130.912 E9.92862
G1 X104.831 Y130.384 E9.94619
G1 X104.831 Y129.617 E9.9717
G1 X104.848 Y129.02 E9.99157
G1 X104.894 Y128.204 E10.01875
G1 X104.958 Y127.432 E10.04451
G1 X104.999 Y127.058 E10.05703
G1 X105.084 Y126.436 E10.07791
G1 X105.226 Y125.554 E10.10762
G1 X105.354 Y124.894 E10.12998
G1 X105.582 Y123.889 E10.16426
G1 X105.73 Y123.31 E10.18413
G1 X105.889 Y122.756 E10.2033
G1 X106.042 Y122.269 E10.22028
G1 X106.25 Y121.657 E10.24178
G1 X106.417 Y121.199 E10.258
G1 X106.695 Y120.49 E10.28332
G1 X107.059 Y119.639 E10.31411
G1 X107.325 Y119.075 E10.33485
G1 X107.811 Y118.12 E10.37049
G1 X108.138 Y117.526 E10.39304
G1 X108.568 Y116.8 E10.42111
G1 X108.908 Y116.262 E10.44227
G1 X109.389 Y115.551 E10.47083
G1 X109.72 Y115.086 E10.48981
G1 X109.984 Y114.737 E10.50436
G1 X110.534 Y114.041 E10.53387
G1 X110.953 Y113.544 E10.55549
G1 X111.516 Y112.915 E10.58357
G1 X111.935 Y112.472 E10.60385
G0 F6000 X112.218 Y112.755
G1 F1200 X112.892 Y112.084 E10.63548
G1 X113.347 Y111.658 E10.65621
G1 X114.077 Y111.022 E10.68841
G1 X114.645 Y110.558 E10.71281
G1 X114.954 Y110.318 E10.72582
G1 X115.549 Y109.879 E10.75041
G1 X115.875 Y109.651 E10.76364
G1 X116.507 Y109.227 E10.78896
G1 X116.989 Y108.923 E10.80791
G1 X117.792 Y108.447 E10.83896
G1 X118.399 Y108.114 E10.86199
G1 X119.295 Y107.662 E10.89536
G1 X119.889 Y107.386 E10.91715
G1 X120.689 Y107.045 E10.94607
G1 X121.196 Y106.845 E10.9642
G1 X122.033 Y106.546 E10.99376
G1 X122.884 Y106.274 E11.02348
G1 X123.513 Y106.092 E11.04526
G1 X124.125 Y105.935 E11.06627
G1 X125.016 Y105.736 E11.09664
G1 X125.538 Y105.632 E11.11434
G1 X126.554 Y105.468 E11.14857
G1 X127.133 Y105.396 E11.16798
G1 X128.057 Y105.307 E11.19885
G1 X128.527 Y105.273 E11.21452
G1 X129.108 Y105.244 E11.23387
G1 X129.616 Y105.231 E11.25077
G1 X130.383 Y105.231 E11.27628
G1 X130.957 Y105.247 E11.29538
G1 X131.773 Y105.293 E11.32257
G1 X132.532 Y105.356 E11.3479
G1 X133.167 Y105.431 E11.36916
G1 X134.382 Y105.621 E11.41007
G1 X134.984 Y105.736 E11.43045
G1 X135.875 Y105.935 E11.46082
G1 X136.415 Y106.071 E11.47934
G1 X137.083 Y106.259 E11.50242
G1 X137.602 Y106.421 E11.5205
G1 X138.214 Y106.629 E11.542
G1 X138.655 Y106.79 E11.55761
G1 X139.364 Y107.068 E11.58294
G1 X140.201 Y107.425 E11.61321
G1 X140.747 Y107.683 E11.63329
G1 X141.703 Y108.17 E11.66898
G1 X142.267 Y108.481 E11.6904
G1 X142.992 Y108.91 E11.71842
G1 X143.513 Y109.24 E11.73893
G1 X144.224 Y109.721 E11.76748
G1 X144.68 Y110.044 E11.78607
G1 X145.015 Y110.298 E11.80005
G1 X145.711 Y110.848 E11.82956
G1 X146.19 Y111.251 E11.85038
G1 X146.819 Y111.814 E11.87845
G1 X147.245 Y112.218 E11.89798
G1 X147.916 Y112.892 E11.92961
G1 X148.342 Y113.347 E11.95034
G1 X148.978 Y114.077 E11.98255
G1 X149.442 Y114.645 E12.00694
G1 X149.682 Y114.954 E12.01995
G1 X150.121 Y115.549 E12.04455
G1 X150.349 Y115.875 E12.05778
G1 X150.771 Y116.504 E12.08297
G1 X151.076 Y116.987 E12.10197
G1 X151.553 Y117.792 E12.13309
G1 X151.881 Y118.39 E12.15578
G1 X152.334 Y119.286 E12.18917
G1 X152.616 Y119.893 E12.21143
G1 X152.957 Y120.694 E12.24039
G1 X153.155 Y121.196 E12.25833
G1 X153.453 Y122.028 E12.28773
G1 X153.619 Y122.535 E12.30547
G1 X153.911 Y123.53 E12.33996
G1 X154.072 Y124.166 E12.36178
G1 X154.312 Y125.263 E12.39913
G1 X154.427 Y125.877 E12.41991
G1 X154.528 Y126.527 E12.44179
G1 X154.602 Y127.112 E12.4614
G1 X154.693 Y128.054 E12.49288
