
; ### Ellis' Pressure Advance / Linear Advance Calibration Tool ###
;
; Original Marlin linear advance calibration tool by Sineos [https://github.com/Sineos]
; Heavily modified/rewritten by Andrew Ellis [https://github.com/AndrewEllis93]
;
; -------------------------------------------
; Generated: Tue Jun 06 2023 15:23:24 GMT-0400 (Eastern Daylight Time)
; -------------------------------------------
;
; Advanced Mode: false
;
; Printer:
;  - Firmware: klipper
;  - Bed Shape: Rect
;  - Bed Size X: 260 mm
;  - Bed Size Y: 220 mm
;  - Origin Bed Center: false
;  - Travel Speed: 300 mm/s
;  - Nozzle Diameter: 0.4 mm
;  - Filament Diameter: 1.75 mm
;  - Extrusion Multiplier: 1
;
; Retraction / Z Hop:
;  - Retraction Distance: 6.5 mm
;  - Retract Speed: 25 mm/s
;  - Unretract Speed: 25 mm/s
;  - Z Hop Enable: false
;
; First Layer Settings:
;  - First Layer Height: 0.25 mm
;  - First Layer Printing Speed: 30 mm/s
;  - First Layer Fan Speed: 0%
;  - Anchor Option: anchor_frame
;
; Print Settings:
;  - Layer Height: 0.2 mm
;  - Print Speed: 100 mm/s
;  - Acceleration: Disabled
;  - Fan Speed: 5%
;
; Pressure Advance Stepping:
;  - PA Start Value: 0
;  - PA End Value: 1
;  - PA Increment: 0.05
;
; Start / End G-code:
;  - Hotend Temp: 250C
;  - Bed Temp: 100C
;  - Don't Add G28: false
;  - Don't Add Heating G-Codes: false
;
; Calculated Values:
;  - Print Size X: 99.12 mm
;  - Print Size Y: 50.99 mm
;  - Number of Patterns to Print: 21
;  - PA Values: 0, 0.05, 0.1, 0.15, 0.2, 0.25, 0.3, 0.35, 0.4, 0.45, 0.5, 0.55, 0.6, 0.65, 0.7, 0.75, 0.8, 0.85, 0.9, 0.95, 1
;
; Prepare printing
;
G28 ; Home all axes
M190 S100 ; Set & wait for bed temp
M109 S250 ; Set & wait for hotend temp
START_PRINT EXTRUDER_TEMP=250 BED_TEMP=100 RELATIVE_E_MODE={relative_extrusion} PROBE=false PROBE_AREA_START=%MINX%,%MINY% PROBE_AREA_END=%MAXX%,%MAXY%
G21 ; Millimeter units
G90 ; Absolute XYZ
M83 ; Relative E
G92 E0 ; Reset extruder distance
;
;  Begin printing
;
M106 S0 ; Set fan speed
G1 E-6.5 F1500 ; Retract
G0 Z5 F18000 ; Z raise
G0 X80.4389 Y84.5068 F18000 ; Move to start position
G0 Z0.25 F18000 ; Move to start layer height
G1 E6.5 F1500 ; Un-retract
SET_PRESSURE_ADVANCE ADVANCE=0 ; Set pressure advance to start value
M117 PA 0
G1 X80.4389 Y126.9332 E2.23286 F1800 ; Draw perimeter (up)
G1 X179.5611 Y126.9332 E5.21669 F1800 ; Draw perimeter (right)
G1 X179.5611 Y84.5068 E2.23286 F1800 ; Draw perimeter (down)
G1 X80.4389 Y84.5068 E5.21669 F1800 ; Draw perimeter (left)
G0 X80.9452 Y85.0131 F18000 ; Step inwards to print next perimeter
G1 X80.9452 Y126.4269 E2.17956 F1800 ; Draw perimeter (up)
G1 X179.0548 Y126.4269 E5.1634 F1800 ; Draw perimeter (right)
G1 X179.0548 Y85.0131 E2.17956 F1800 ; Draw perimeter (down)
G1 X80.9452 Y85.0131 E5.1634 F1800 ; Draw perimeter (left)
G0 X81.4516 Y85.5195 F18000 ; Step inwards to print next perimeter
G1 X81.4516 Y125.9205 E2.12626 F1800 ; Draw perimeter (up)
G1 X178.5484 Y125.9205 E5.1101 F1800 ; Draw perimeter (right)
G1 X178.5484 Y85.5195 E2.12626 F1800 ; Draw perimeter (down)
G1 X81.4516 Y85.5195 E5.1101 F1800 ; Draw perimeter (left)
G0 X81.9579 Y86.0258 F18000 ; Step inwards to print next perimeter
G1 X81.9579 Y125.4142 E2.07296 F1800 ; Draw perimeter (up)
G1 X178.0421 Y125.4142 E5.0568 F1800 ; Draw perimeter (right)
G1 X178.0421 Y86.0258 E2.07296 F1800 ; Draw perimeter (down)
G1 X81.9579 Y86.0258 E5.0568 F1800 ; Draw perimeter (left)
G1 E-6.5 F1500 ; Retract
G0 X80.4389 Y127.4396 F18000 ; Move to box start
G1 E6.5 F1500 ; Un-retract
G1 X80.4389 Y135.9459 E0.44768 F1800 ; Draw perimeter (up)
G1 X159.099 Y135.9459 E4.13979 F1800 ; Draw perimeter (right)
G1 X159.099 Y127.4396 E0.44768 F1800 ; Draw perimeter (down)
G1 X80.4389 Y127.4396 E4.13979 F1800 ; Draw perimeter (left)
G0 X80.9452 Y127.9459 F18000 ; Step inwards to print next perimeter
G1 X80.9452 Y135.4396 E0.39438 F1800 ; Draw perimeter (up)
G1 X158.5926 Y135.4396 E4.0865 F1800 ; Draw perimeter (right)
G1 X158.5926 Y127.9459 E0.39438 F1800 ; Draw perimeter (down)
G1 X80.9452 Y127.9459 E4.0865 F1800 ; Draw perimeter (left)
G0 X81.4516 Y128.4523 F18000 ; Step inwards to print next perimeter
G1 X81.4516 Y134.9332 E0.34109 F1800 ; Draw perimeter (up)
G1 X158.0863 Y134.9332 E4.0332 F1800 ; Draw perimeter (right)
G1 X158.0863 Y128.4523 E0.34109 F1800 ; Draw perimeter (down)
G1 X81.4516 Y128.4523 E4.0332 F1800 ; Draw perimeter (left)
G0 X81.9579 Y128.9586 F18000 ; Step inwards to print next perimeter
G1 X81.9579 Y134.4269 E0.28779 F1800 ; Draw perimeter (up)
G1 X157.5799 Y134.4269 E3.9799 F1800 ; Draw perimeter (right)
G1 X157.5799 Y128.9586 E0.28779 F1800 ; Draw perimeter (down)
G1 X81.9579 Y128.9586 E3.9799 F1800 ; Draw perimeter (left)
G0 X82.3313 Y129.3319 F18000 ; Move to fill start
G0 X83.0474 Y129.3319 F18000 ; Move
G1 X82.3313 Y130.048 E0.0533 F1800 ; Fill
G0 X82.3313 Y130.7641 F18000 ; Move
G1 X83.7635 Y129.3319 E0.10659 F1800 ; Fill
G0 X84.4795 Y129.3319 F18000 ; Move
G1 X82.3313 Y131.4802 E0.15989 F1800 ; Fill
G0 X82.3313 Y132.1963 F18000 ; Move
G1 X85.1956 Y129.3319 E0.21319 F1800 ; Fill
G0 X85.9117 Y129.3319 F18000 ; Move
G1 X82.3313 Y132.9124 E0.26649 F1800 ; Fill
G0 X82.3313 Y133.6285 F18000 ; Move
G1 X86.6278 Y129.3319 E0.31978 F1800 ; Fill
G0 X87.3439 Y129.3319 F18000 ; Move
G1 X82.6223 Y134.0535 E0.35142 F1800 ; Fill
G0 X83.3384 Y134.0535 F18000 ; Move
G1 X88.06 Y129.3319 E0.35142 F1800 ; Fill
G0 X88.7761 Y129.3319 F18000 ; Move
G1 X84.0545 Y134.0535 E0.35142 F1800 ; Fill
G0 X84.7706 Y134.0535 F18000 ; Move
G1 X89.4921 Y129.3319 E0.35142 F1800 ; Fill
G0 X90.2082 Y129.3319 F18000 ; Move
G1 X85.4866 Y134.0535 E0.35142 F1800 ; Fill
G0 X86.2027 Y134.0535 F18000 ; Move
G1 X90.9243 Y129.3319 E0.35142 F1800 ; Fill
G0 X91.6404 Y129.3319 F18000 ; Move
G1 X86.9188 Y134.0535 E0.35142 F1800 ; Fill
G0 X87.6349 Y134.0535 F18000 ; Move
G1 X92.3565 Y129.3319 E0.35142 F1800 ; Fill
G0 X93.0726 Y129.3319 F18000 ; Move
G1 X88.351 Y134.0535 E0.35142 F1800 ; Fill
G0 X89.0671 Y134.0535 F18000 ; Move
G1 X93.7887 Y129.3319 E0.35142 F1800 ; Fill
G0 X94.5048 Y129.3319 F18000 ; Move
G1 X89.7832 Y134.0535 E0.35142 F1800 ; Fill
G0 X90.4993 Y134.0535 F18000 ; Move
G1 X95.2208 Y129.3319 E0.35142 F1800 ; Fill
G0 X95.9369 Y129.3319 F18000 ; Move
G1 X91.2153 Y134.0535 E0.35142 F1800 ; Fill
G0 X91.9314 Y134.0535 F18000 ; Move
G1 X96.653 Y129.3319 E0.35142 F1800 ; Fill
G0 X97.3691 Y129.3319 F18000 ; Move
G1 X92.6475 Y134.0535 E0.35142 F1800 ; Fill
G0 X93.3636 Y134.0535 F18000 ; Move
G1 X98.0852 Y129.3319 E0.35142 F1800 ; Fill
G0 X98.8013 Y129.3319 F18000 ; Move
G1 X94.0797 Y134.0535 E0.35142 F1800 ; Fill
G0 X94.7958 Y134.0535 F18000 ; Move
G1 X99.5174 Y129.3319 E0.35142 F1800 ; Fill
G0 X100.2334 Y129.3319 F18000 ; Move
G1 X95.5119 Y134.0535 E0.35142 F1800 ; Fill
G0 X96.2279 Y134.0535 F18000 ; Move
G1 X100.9495 Y129.3319 E0.35142 F1800 ; Fill
G0 X101.6656 Y129.3319 F18000 ; Move
G1 X96.944 Y134.0535 E0.35142 F1800 ; Fill
G0 X97.6601 Y134.0535 F18000 ; Move
G1 X102.3817 Y129.3319 E0.35142 F1800 ; Fill
G0 X103.0978 Y129.3319 F18000 ; Move
G1 X98.3762 Y134.0535 E0.35142 F1800 ; Fill
G0 X99.0923 Y134.0535 F18000 ; Move
G1 X103.8139 Y129.3319 E0.35142 F1800 ; Fill
G0 X104.53 Y129.3319 F18000 ; Move
G1 X99.8084 Y134.0535 E0.35142 F1800 ; Fill
G0 X100.5245 Y134.0535 F18000 ; Move
G1 X105.246 Y129.3319 E0.35142 F1800 ; Fill
G0 X105.9621 Y129.3319 F18000 ; Move
G1 X101.2405 Y134.0535 E0.35142 F1800 ; Fill
G0 X101.9566 Y134.0535 F18000 ; Move
G1 X106.6782 Y129.3319 E0.35142 F1800 ; Fill
G0 X107.3943 Y129.3319 F18000 ; Move
G1 X102.6727 Y134.0535 E0.35142 F1800 ; Fill
G0 X103.3888 Y134.0535 F18000 ; Move
G1 X108.1104 Y129.3319 E0.35142 F1800 ; Fill
G0 X108.8265 Y129.3319 F18000 ; Move
G1 X104.1049 Y134.0535 E0.35142 F1800 ; Fill
G0 X104.821 Y134.0535 F18000 ; Move
G1 X109.5426 Y129.3319 E0.35142 F1800 ; Fill
G0 X110.2587 Y129.3319 F18000 ; Move
G1 X105.5371 Y134.0535 E0.35142 F1800 ; Fill
G0 X106.2532 Y134.0535 F18000 ; Move
G1 X110.9747 Y129.3319 E0.35142 F1800 ; Fill
G0 X111.6908 Y129.3319 F18000 ; Move
G1 X106.9692 Y134.0535 E0.35142 F1800 ; Fill
G0 X107.6853 Y134.0535 F18000 ; Move
G1 X112.4069 Y129.3319 E0.35142 F1800 ; Fill
G0 X113.123 Y129.3319 F18000 ; Move
G1 X108.4014 Y134.0535 E0.35142 F1800 ; Fill
G0 X109.1175 Y134.0535 F18000 ; Move
G1 X113.8391 Y129.3319 E0.35142 F1800 ; Fill
G0 X114.5552 Y129.3319 F18000 ; Move
G1 X109.8336 Y134.0535 E0.35142 F1800 ; Fill
G0 X110.5497 Y134.0535 F18000 ; Move
G1 X115.2713 Y129.3319 E0.35142 F1800 ; Fill
G0 X115.9873 Y129.3319 F18000 ; Move
G1 X111.2658 Y134.0535 E0.35142 F1800 ; Fill
G0 X111.9818 Y134.0535 F18000 ; Move
G1 X116.7034 Y129.3319 E0.35142 F1800 ; Fill
G0 X117.4195 Y129.3319 F18000 ; Move
G1 X112.6979 Y134.0535 E0.35142 F1800 ; Fill
G0 X113.414 Y134.0535 F18000 ; Move
G1 X118.1356 Y129.3319 E0.35142 F1800 ; Fill
G0 X118.8517 Y129.3319 F18000 ; Move
G1 X114.1301 Y134.0535 E0.35142 F1800 ; Fill
G0 X114.8462 Y134.0535 F18000 ; Move
G1 X119.5678 Y129.3319 E0.35142 F1800 ; Fill
G0 X120.2839 Y129.3319 F18000 ; Move
G1 X115.5623 Y134.0535 E0.35142 F1800 ; Fill
G0 X116.2784 Y134.0535 F18000 ; Move
G1 X120.9999 Y129.3319 E0.35142 F1800 ; Fill
G0 X121.716 Y129.3319 F18000 ; Move
G1 X116.9944 Y134.0535 E0.35142 F1800 ; Fill
G0 X117.7105 Y134.0535 F18000 ; Move
G1 X122.4321 Y129.3319 E0.35142 F1800 ; Fill
G0 X123.1482 Y129.3319 F18000 ; Move
G1 X118.4266 Y134.0535 E0.35142 F1800 ; Fill
G0 X119.1427 Y134.0535 F18000 ; Move
G1 X123.8643 Y129.3319 E0.35142 F1800 ; Fill
G0 X124.5804 Y129.3319 F18000 ; Move
G1 X119.8588 Y134.0535 E0.35142 F1800 ; Fill
G0 X120.5749 Y134.0535 F18000 ; Move
G1 X125.2965 Y129.3319 E0.35142 F1800 ; Fill
G0 X126.0126 Y129.3319 F18000 ; Move
G1 X121.291 Y134.0535 E0.35142 F1800 ; Fill
G0 X122.0071 Y134.0535 F18000 ; Move
G1 X126.7286 Y129.3319 E0.35142 F1800 ; Fill
G0 X127.4447 Y129.3319 F18000 ; Move
G1 X122.7231 Y134.0535 E0.35142 F1800 ; Fill
G0 X123.4392 Y134.0535 F18000 ; Move
G1 X128.1608 Y129.3319 E0.35142 F1800 ; Fill
G0 X128.8769 Y129.3319 F18000 ; Move
G1 X124.1553 Y134.0535 E0.35142 F1800 ; Fill
G0 X124.8714 Y134.0535 F18000 ; Move
G1 X129.593 Y129.3319 E0.35142 F1800 ; Fill
G0 X130.3091 Y129.3319 F18000 ; Move
G1 X125.5875 Y134.0535 E0.35142 F1800 ; Fill
G0 X126.3036 Y134.0535 F18000 ; Move
G1 X131.0252 Y129.3319 E0.35142 F1800 ; Fill
G0 X131.7412 Y129.3319 F18000 ; Move
G1 X127.0197 Y134.0535 E0.35142 F1800 ; Fill
G0 X127.7357 Y134.0535 F18000 ; Move
G1 X132.4573 Y129.3319 E0.35142 F1800 ; Fill
G0 X133.1734 Y129.3319 F18000 ; Move
G1 X128.4518 Y134.0535 E0.35142 F1800 ; Fill
G0 X129.1679 Y134.0535 F18000 ; Move
G1 X133.8895 Y129.3319 E0.35142 F1800 ; Fill
G0 X134.6056 Y129.3319 F18000 ; Move
G1 X129.884 Y134.0535 E0.35142 F1800 ; Fill
G0 X130.6001 Y134.0535 F18000 ; Move
G1 X135.3217 Y129.3319 E0.35142 F1800 ; Fill
G0 X136.0378 Y129.3319 F18000 ; Move
G1 X131.3162 Y134.0535 E0.35142 F1800 ; Fill
G0 X132.0323 Y134.0535 F18000 ; Move
G1 X136.7538 Y129.3319 E0.35142 F1800 ; Fill
G0 X137.4699 Y129.3319 F18000 ; Move
G1 X132.7483 Y134.0535 E0.35142 F1800 ; Fill
G0 X133.4644 Y134.0535 F18000 ; Move
G1 X138.186 Y129.3319 E0.35142 F1800 ; Fill
G0 X138.9021 Y129.3319 F18000 ; Move
G1 X134.1805 Y134.0535 E0.35142 F1800 ; Fill
G0 X134.8966 Y134.0535 F18000 ; Move
G1 X139.6182 Y129.3319 E0.35142 F1800 ; Fill
G0 X140.3343 Y129.3319 F18000 ; Move
G1 X135.6127 Y134.0535 E0.35142 F1800 ; Fill
G0 X136.3288 Y134.0535 F18000 ; Move
G1 X141.0504 Y129.3319 E0.35142 F1800 ; Fill
G0 X141.7665 Y129.3319 F18000 ; Move
G1 X137.0449 Y134.0535 E0.35142 F1800 ; Fill
G0 X137.761 Y134.0535 F18000 ; Move
G1 X142.4825 Y129.3319 E0.35142 F1800 ; Fill
G0 X143.1986 Y129.3319 F18000 ; Move
G1 X138.477 Y134.0535 E0.35142 F1800 ; Fill
G0 X139.1931 Y134.0535 F18000 ; Move
G1 X143.9147 Y129.3319 E0.35142 F1800 ; Fill
G0 X144.6308 Y129.3319 F18000 ; Move
G1 X139.9092 Y134.0535 E0.35142 F1800 ; Fill
G0 X140.6253 Y134.0535 F18000 ; Move
G1 X145.3469 Y129.3319 E0.35142 F1800 ; Fill
G0 X146.063 Y129.3319 F18000 ; Move
G1 X141.3414 Y134.0535 E0.35142 F1800 ; Fill
G0 X142.0575 Y134.0535 F18000 ; Move
G1 X146.7791 Y129.3319 E0.35142 F1800 ; Fill
G0 X147.4951 Y129.3319 F18000 ; Move
G1 X142.7736 Y134.0535 E0.35142 F1800 ; Fill
G0 X143.4896 Y134.0535 F18000 ; Move
G1 X148.2112 Y129.3319 E0.35142 F1800 ; Fill
G0 X148.9273 Y129.3319 F18000 ; Move
G1 X144.2057 Y134.0535 E0.35142 F1800 ; Fill
G0 X144.9218 Y134.0535 F18000 ; Move
G1 X149.6434 Y129.3319 E0.35142 F1800 ; Fill
G0 X150.3595 Y129.3319 F18000 ; Move
G1 X145.6379 Y134.0535 E0.35142 F1800 ; Fill
G0 X146.354 Y134.0535 F18000 ; Move
G1 X151.0756 Y129.3319 E0.35142 F1800 ; Fill
G0 X151.7917 Y129.3319 F18000 ; Move
G1 X147.0701 Y134.0535 E0.35142 F1800 ; Fill
G0 X147.7862 Y134.0535 F18000 ; Move
G1 X152.5077 Y129.3319 E0.35142 F1800 ; Fill
G0 X153.2238 Y129.3319 F18000 ; Move
G1 X148.5022 Y134.0535 E0.35142 F1800 ; Fill
G0 X149.2183 Y134.0535 F18000 ; Move
G1 X153.9399 Y129.3319 E0.35142 F1800 ; Fill
G0 X154.656 Y129.3319 F18000 ; Move
G1 X149.9344 Y134.0535 E0.35142 F1800 ; Fill
G0 X150.6505 Y134.0535 F18000 ; Move
G1 X155.3721 Y129.3319 E0.35142 F1800 ; Fill
G0 X156.0882 Y129.3319 F18000 ; Move
G1 X151.3666 Y134.0535 E0.35142 F1800 ; Fill
G0 X152.0827 Y134.0535 F18000 ; Move
G1 X156.8043 Y129.3319 E0.35142 F1800 ; Fill
G0 X157.2066 Y129.6457 F18000 ; Move
G1 X152.7988 Y134.0535 E0.32807 F1800 ; Fill
G0 X153.5149 Y134.0535 F18000 ; Move
G1 X157.2066 Y130.3618 E0.27477 F1800 ; Fill
G0 X157.2066 Y131.0779 F18000 ; Move
G1 X154.2309 Y134.0535 E0.22147 F1800 ; Fill
G0 X154.947 Y134.0535 F18000 ; Move
G1 X157.2066 Y131.794 E0.16817 F1800 ; Fill
G0 X157.2066 Y132.5101 F18000 ; Move
G1 X155.6631 Y134.0535 E0.11488 F1800 ; Fill
G0 X156.3792 Y134.0535 F18000 ; Move
G1 X157.2066 Y133.2262 E0.06158 F1800 ; Fill
G0 X157.2066 Y133.9422 F18000 ; Move
G1 X157.0953 Y134.0535 E0.00828 F1800 ; Fill
G0 Z0.25 F18000 ; Move to layer height
G1 E-6.5 F1500 ; Retract
G0 X85.0356 Y86.3992 F18000 ; Move to pattern start

G1 E6.5 F1500 ; Un-retract
SET_PRESSURE_ADVANCE ADVANCE=0 ; Set pressure advance
M117 PA 0
G1 X104.3564 Y105.72 E1.12562 F1800 ; Print pattern wall
G1 X85.0356 Y125.0408 E1.12562 F1800 ; Print pattern wall
G1 E-6.5 F1500 ; Retract
G0 X85.6113 Y86.3992 F18000 ; Move to start next pattern wall
G1 E6.5 F1500 ; Un-retract
G1 X104.9321 Y105.72 E1.12562 F1800 ; Print pattern wall
G1 X85.6113 Y125.0408 E1.12562 F1800 ; Print pattern wall
G1 E-6.5 F1500 ; Retract
G0 X86.187 Y86.3992 F18000 ; Move to start next pattern wall
G1 E6.5 F1500 ; Un-retract
G1 X105.5078 Y105.72 E1.12562 F1800 ; Print pattern wall
G1 X86.187 Y125.0408 E1.12562 F1800 ; Print pattern wall
G1 E-6.5 F1500 ; Retract
G0 X88.637 Y86.3992 F18000 ; Move to next pattern
G1 E6.5 F1500 ; Un-retract
SET_PRESSURE_ADVANCE ADVANCE=0.05 ; Set pressure advance
M117 PA 0.05
G1 X107.9578 Y105.72 E1.12562 F1800 ; Print pattern wall
G1 X88.637 Y125.0408 E1.12562 F1800 ; Print pattern wall
G1 E-6.5 F1500 ; Retract
G0 X89.2127 Y86.3992 F18000 ; Move to start next pattern wall
G1 E6.5 F1500 ; Un-retract
G1 X108.5335 Y105.72 E1.12562 F1800 ; Print pattern wall
G1 X89.2127 Y125.0408 E1.12562 F1800 ; Print pattern wall
G1 E-6.5 F1500 ; Retract
G0 X89.7884 Y86.3992 F18000 ; Move to start next pattern wall
G1 E6.5 F1500 ; Un-retract
G1 X109.1092 Y105.72 E1.12562 F1800 ; Print pattern wall
G1 X89.7884 Y125.0408 E1.12562 F1800 ; Print pattern wall
G1 E-6.5 F1500 ; Retract
G0 X92.2384 Y86.3992 F18000 ; Move to next pattern
G1 E6.5 F1500 ; Un-retract
SET_PRESSURE_ADVANCE ADVANCE=0.1 ; Set pressure advance
M117 PA 0.1
G1 X111.5592 Y105.72 E1.12562 F1800 ; Print pattern wall
G1 X92.2384 Y125.0408 E1.12562 F1800 ; Print pattern wall
G1 E-6.5 F1500 ; Retract
G0 X92.8141 Y86.3992 F18000 ; Move to start next pattern wall
G1 E6.5 F1500 ; Un-retract
G1 X112.1349 Y105.72 E1.12562 F1800 ; Print pattern wall
G1 X92.8141 Y125.0408 E1.12562 F1800 ; Print pattern wall
G1 E-6.5 F1500 ; Retract
G0 X93.3898 Y86.3992 F18000 ; Move to start next pattern wall
G1 E6.5 F1500 ; Un-retract
G1 X112.7106 Y105.72 E1.12562 F1800 ; Print pattern wall
G1 X93.3898 Y125.0408 E1.12562 F1800 ; Print pattern wall
G1 E-6.5 F1500 ; Retract
G0 X95.8398 Y86.3992 F18000 ; Move to next pattern
G1 E6.5 F1500 ; Un-retract
SET_PRESSURE_ADVANCE ADVANCE=0.15 ; Set pressure advance
M117 PA 0.15
G1 X115.1606 Y105.72 E1.12562 F1800 ; Print pattern wall
G1 X95.8398 Y125.0408 E1.12562 F1800 ; Print pattern wall
G1 E-6.5 F1500 ; Retract
G0 X96.4155 Y86.3992 F18000 ; Move to start next pattern wall
G1 E6.5 F1500 ; Un-retract
G1 X115.7363 Y105.72 E1.12562 F1800 ; Print pattern wall
G1 X96.4155 Y125.0408 E1.12562 F1800 ; Print pattern wall
G1 E-6.5 F1500 ; Retract
G0 X96.9912 Y86.3992 F18000 ; Move to start next pattern wall
G1 E6.5 F1500 ; Un-retract
G1 X116.312 Y105.72 E1.12562 F1800 ; Print pattern wall
G1 X96.9912 Y125.0408 E1.12562 F1800 ; Print pattern wall
G1 E-6.5 F1500 ; Retract
G0 X99.4412 Y86.3992 F18000 ; Move to next pattern
G1 E6.5 F1500 ; Un-retract
SET_PRESSURE_ADVANCE ADVANCE=0.2 ; Set pressure advance
M117 PA 0.2
G1 X118.762 Y105.72 E1.12562 F1800 ; Print pattern wall
G1 X99.4412 Y125.0408 E1.12562 F1800 ; Print pattern wall
G1 E-6.5 F1500 ; Retract
G0 X100.0169 Y86.3992 F18000 ; Move to start next pattern wall
G1 E6.5 F1500 ; Un-retract
G1 X119.3377 Y105.72 E1.12562 F1800 ; Print pattern wall
G1 X100.0169 Y125.0408 E1.12562 F1800 ; Print pattern wall
G1 E-6.5 F1500 ; Retract
G0 X100.5926 Y86.3992 F18000 ; Move to start next pattern wall
G1 E6.5 F1500 ; Un-retract
G1 X119.9134 Y105.72 E1.12562 F1800 ; Print pattern wall
G1 X100.5926 Y125.0408 E1.12562 F1800 ; Print pattern wall
G1 E-6.5 F1500 ; Retract
G0 X103.0426 Y86.3992 F18000 ; Move to next pattern
G1 E6.5 F1500 ; Un-retract
SET_PRESSURE_ADVANCE ADVANCE=0.25 ; Set pressure advance
M117 PA 0.25
G1 X122.3634 Y105.72 E1.12562 F1800 ; Print pattern wall
G1 X103.0426 Y125.0408 E1.12562 F1800 ; Print pattern wall
G1 E-6.5 F1500 ; Retract
G0 X103.6183 Y86.3992 F18000 ; Move to start next pattern wall
G1 E6.5 F1500 ; Un-retract
G1 X122.9391 Y105.72 E1.12562 F1800 ; Print pattern wall
G1 X103.6183 Y125.0408 E1.12562 F1800 ; Print pattern wall
G1 E-6.5 F1500 ; Retract
G0 X104.194 Y86.3992 F18000 ; Move to start next pattern wall
G1 E6.5 F1500 ; Un-retract
G1 X123.5148 Y105.72 E1.12562 F1800 ; Print pattern wall
G1 X104.194 Y125.0408 E1.12562 F1800 ; Print pattern wall
G1 E-6.5 F1500 ; Retract
G0 X106.644 Y86.3992 F18000 ; Move to next pattern
G1 E6.5 F1500 ; Un-retract
SET_PRESSURE_ADVANCE ADVANCE=0.3 ; Set pressure advance
M117 PA 0.3
G1 X125.9648 Y105.72 E1.12562 F1800 ; Print pattern wall
G1 X106.644 Y125.0408 E1.12562 F1800 ; Print pattern wall
G1 E-6.5 F1500 ; Retract
G0 X107.2197 Y86.3992 F18000 ; Move to start next pattern wall
G1 E6.5 F1500 ; Un-retract
G1 X126.5405 Y105.72 E1.12562 F1800 ; Print pattern wall
G1 X107.2197 Y125.0408 E1.12562 F1800 ; Print pattern wall
G1 E-6.5 F1500 ; Retract
G0 X107.7953 Y86.3992 F18000 ; Move to start next pattern wall
G1 E6.5 F1500 ; Un-retract
G1 X127.1162 Y105.72 E1.12562 F1800 ; Print pattern wall
G1 X107.7953 Y125.0408 E1.12562 F1800 ; Print pattern wall
G1 E-6.5 F1500 ; Retract
G0 X110.2453 Y86.3992 F18000 ; Move to next pattern
G1 E6.5 F1500 ; Un-retract
SET_PRESSURE_ADVANCE ADVANCE=0.35 ; Set pressure advance
M117 PA 0.35
G1 X129.5662 Y105.72 E1.12562 F1800 ; Print pattern wall
G1 X110.2453 Y125.0408 E1.12562 F1800 ; Print pattern wall
G1 E-6.5 F1500 ; Retract
G0 X110.821 Y86.3992 F18000 ; Move to start next pattern wall
G1 E6.5 F1500 ; Un-retract
G1 X130.1419 Y105.72 E1.12562 F1800 ; Print pattern wall
G1 X110.821 Y125.0408 E1.12562 F1800 ; Print pattern wall
G1 E-6.5 F1500 ; Retract
G0 X111.3967 Y86.3992 F18000 ; Move to start next pattern wall
G1 E6.5 F1500 ; Un-retract
G1 X130.7176 Y105.72 E1.12562 F1800 ; Print pattern wall
G1 X111.3967 Y125.0408 E1.12562 F1800 ; Print pattern wall
G1 E-6.5 F1500 ; Retract
G0 X113.8467 Y86.3992 F18000 ; Move to next pattern
G1 E6.5 F1500 ; Un-retract
SET_PRESSURE_ADVANCE ADVANCE=0.4 ; Set pressure advance
M117 PA 0.4
G1 X133.1676 Y105.72 E1.12562 F1800 ; Print pattern wall
G1 X113.8467 Y125.0408 E1.12562 F1800 ; Print pattern wall
G1 E-6.5 F1500 ; Retract
G0 X114.4224 Y86.3992 F18000 ; Move to start next pattern wall
G1 E6.5 F1500 ; Un-retract
G1 X133.7433 Y105.72 E1.12562 F1800 ; Print pattern wall
G1 X114.4224 Y125.0408 E1.12562 F1800 ; Print pattern wall
G1 E-6.5 F1500 ; Retract
G0 X114.9981 Y86.3992 F18000 ; Move to start next pattern wall
G1 E6.5 F1500 ; Un-retract
G1 X134.319 Y105.72 E1.12562 F1800 ; Print pattern wall
G1 X114.9981 Y125.0408 E1.12562 F1800 ; Print pattern wall
G1 E-6.5 F1500 ; Retract
G0 X117.4481 Y86.3992 F18000 ; Move to next pattern
G1 E6.5 F1500 ; Un-retract
SET_PRESSURE_ADVANCE ADVANCE=0.45 ; Set pressure advance
M117 PA 0.45
G1 X136.769 Y105.72 E1.12562 F1800 ; Print pattern wall
G1 X117.4481 Y125.0408 E1.12562 F1800 ; Print pattern wall
G1 E-6.5 F1500 ; Retract
G0 X118.0238 Y86.3992 F18000 ; Move to start next pattern wall
G1 E6.5 F1500 ; Un-retract
G1 X137.3447 Y105.72 E1.12562 F1800 ; Print pattern wall
G1 X118.0238 Y125.0408 E1.12562 F1800 ; Print pattern wall
G1 E-6.5 F1500 ; Retract
G0 X118.5995 Y86.3992 F18000 ; Move to start next pattern wall
G1 E6.5 F1500 ; Un-retract
G1 X137.9204 Y105.72 E1.12562 F1800 ; Print pattern wall
G1 X118.5995 Y125.0408 E1.12562 F1800 ; Print pattern wall
G1 E-6.5 F1500 ; Retract
G0 X121.0495 Y86.3992 F18000 ; Move to next pattern
G1 E6.5 F1500 ; Un-retract
SET_PRESSURE_ADVANCE ADVANCE=0.5 ; Set pressure advance
M117 PA 0.5
G1 X140.3704 Y105.72 E1.12562 F1800 ; Print pattern wall
G1 X121.0495 Y125.0408 E1.12562 F1800 ; Print pattern wall
G1 E-6.5 F1500 ; Retract
G0 X121.6252 Y86.3992 F18000 ; Move to start next pattern wall
G1 E6.5 F1500 ; Un-retract
G1 X140.9461 Y105.72 E1.12562 F1800 ; Print pattern wall
G1 X121.6252 Y125.0408 E1.12562 F1800 ; Print pattern wall
G1 E-6.5 F1500 ; Retract
G0 X122.2009 Y86.3992 F18000 ; Move to start next pattern wall
G1 E6.5 F1500 ; Un-retract
G1 X141.5218 Y105.72 E1.12562 F1800 ; Print pattern wall
G1 X122.2009 Y125.0408 E1.12562 F1800 ; Print pattern wall
G1 E-6.5 F1500 ; Retract
G0 X124.6509 Y86.3992 F18000 ; Move to next pattern
G1 E6.5 F1500 ; Un-retract
SET_PRESSURE_ADVANCE ADVANCE=0.55 ; Set pressure advance
M117 PA 0.55
G1 X143.9718 Y105.72 E1.12562 F1800 ; Print pattern wall
G1 X124.6509 Y125.0408 E1.12562 F1800 ; Print pattern wall
G1 E-6.5 F1500 ; Retract
G0 X125.2266 Y86.3992 F18000 ; Move to start next pattern wall
G1 E6.5 F1500 ; Un-retract
G1 X144.5474 Y105.72 E1.12562 F1800 ; Print pattern wall
G1 X125.2266 Y125.0408 E1.12562 F1800 ; Print pattern wall
G1 E-6.5 F1500 ; Retract
G0 X125.8023 Y86.3992 F18000 ; Move to start next pattern wall
G1 E6.5 F1500 ; Un-retract
G1 X145.1231 Y105.72 E1.12562 F1800 ; Print pattern wall
G1 X125.8023 Y125.0408 E1.12562 F1800 ; Print pattern wall
G1 E-6.5 F1500 ; Retract
G0 X128.2523 Y86.3992 F18000 ; Move to next pattern
G1 E6.5 F1500 ; Un-retract
SET_PRESSURE_ADVANCE ADVANCE=0.6 ; Set pressure advance
M117 PA 0.6
G1 X147.5731 Y105.72 E1.12562 F1800 ; Print pattern wall
G1 X128.2523 Y125.0408 E1.12562 F1800 ; Print pattern wall
G1 E-6.5 F1500 ; Retract
G0 X128.828 Y86.3992 F18000 ; Move to start next pattern wall
G1 E6.5 F1500 ; Un-retract
G1 X148.1488 Y105.72 E1.12562 F1800 ; Print pattern wall
G1 X128.828 Y125.0408 E1.12562 F1800 ; Print pattern wall
G1 E-6.5 F1500 ; Retract
G0 X129.4037 Y86.3992 F18000 ; Move to start next pattern wall
G1 E6.5 F1500 ; Un-retract
G1 X148.7245 Y105.72 E1.12562 F1800 ; Print pattern wall
G1 X129.4037 Y125.0408 E1.12562 F1800 ; Print pattern wall
G1 E-6.5 F1500 ; Retract
G0 X131.8537 Y86.3992 F18000 ; Move to next pattern
G1 E6.5 F1500 ; Un-retract
SET_PRESSURE_ADVANCE ADVANCE=0.65 ; Set pressure advance
M117 PA 0.65
G1 X151.1745 Y105.72 E1.12562 F1800 ; Print pattern wall
G1 X131.8537 Y125.0408 E1.12562 F1800 ; Print pattern wall
G1 E-6.5 F1500 ; Retract
G0 X132.4294 Y86.3992 F18000 ; Move to start next pattern wall
G1 E6.5 F1500 ; Un-retract
G1 X151.7502 Y105.72 E1.12562 F1800 ; Print pattern wall
G1 X132.4294 Y125.0408 E1.12562 F1800 ; Print pattern wall
G1 E-6.5 F1500 ; Retract
G0 X133.0051 Y86.3992 F18000 ; Move to start next pattern wall
G1 E6.5 F1500 ; Un-retract
G1 X152.3259 Y105.72 E1.12562 F1800 ; Print pattern wall
G1 X133.0051 Y125.0408 E1.12562 F1800 ; Print pattern wall
G1 E-6.5 F1500 ; Retract
G0 X135.4551 Y86.3992 F18000 ; Move to next pattern
G1 E6.5 F1500 ; Un-retract
SET_PRESSURE_ADVANCE ADVANCE=0.7 ; Set pressure advance
M117 PA 0.7
G1 X154.7759 Y105.72 E1.12562 F1800 ; Print pattern wall
G1 X135.4551 Y125.0408 E1.12562 F1800 ; Print pattern wall
G1 E-6.5 F1500 ; Retract
G0 X136.0308 Y86.3992 F18000 ; Move to start next pattern wall
G1 E6.5 F1500 ; Un-retract
G1 X155.3516 Y105.72 E1.12562 F1800 ; Print pattern wall
G1 X136.0308 Y125.0408 E1.12562 F1800 ; Print pattern wall
G1 E-6.5 F1500 ; Retract
G0 X136.6065 Y86.3992 F18000 ; Move to start next pattern wall
G1 E6.5 F1500 ; Un-retract
G1 X155.9273 Y105.72 E1.12562 F1800 ; Print pattern wall
G1 X136.6065 Y125.0408 E1.12562 F1800 ; Print pattern wall
G1 E-6.5 F1500 ; Retract
G0 X139.0565 Y86.3992 F18000 ; Move to next pattern
G1 E6.5 F1500 ; Un-retract
SET_PRESSURE_ADVANCE ADVANCE=0.75 ; Set pressure advance
M117 PA 0.75
G1 X158.3773 Y105.72 E1.12562 F1800 ; Print pattern wall
G1 X139.0565 Y125.0408 E1.12562 F1800 ; Print pattern wall
G1 E-6.5 F1500 ; Retract
G0 X139.6322 Y86.3992 F18000 ; Move to start next pattern wall
G1 E6.5 F1500 ; Un-retract
G1 X158.953 Y105.72 E1.12562 F1800 ; Print pattern wall
G1 X139.6322 Y125.0408 E1.12562 F1800 ; Print pattern wall
G1 E-6.5 F1500 ; Retract
G0 X140.2079 Y86.3992 F18000 ; Move to start next pattern wall
G1 E6.5 F1500 ; Un-retract
G1 X159.5287 Y105.72 E1.12562 F1800 ; Print pattern wall
G1 X140.2079 Y125.0408 E1.12562 F1800 ; Print pattern wall
G1 E-6.5 F1500 ; Retract
G0 X142.6579 Y86.3992 F18000 ; Move to next pattern
G1 E6.5 F1500 ; Un-retract
SET_PRESSURE_ADVANCE ADVANCE=0.8 ; Set pressure advance
M117 PA 0.8
G1 X161.9787 Y105.72 E1.12562 F1800 ; Print pattern wall
G1 X142.6579 Y125.0408 E1.12562 F1800 ; Print pattern wall
G1 E-6.5 F1500 ; Retract
G0 X143.2336 Y86.3992 F18000 ; Move to start next pattern wall
G1 E6.5 F1500 ; Un-retract
G1 X162.5544 Y105.72 E1.12562 F1800 ; Print pattern wall
G1 X143.2336 Y125.0408 E1.12562 F1800 ; Print pattern wall
G1 E-6.5 F1500 ; Retract
G0 X143.8093 Y86.3992 F18000 ; Move to start next pattern wall
G1 E6.5 F1500 ; Un-retract
G1 X163.1301 Y105.72 E1.12562 F1800 ; Print pattern wall
G1 X143.8093 Y125.0408 E1.12562 F1800 ; Print pattern wall
G1 E-6.5 F1500 ; Retract
G0 X146.2593 Y86.3992 F18000 ; Move to next pattern
G1 E6.5 F1500 ; Un-retract
SET_PRESSURE_ADVANCE ADVANCE=0.85 ; Set pressure advance
M117 PA 0.85
G1 X165.5801 Y105.72 E1.12562 F1800 ; Print pattern wall
G1 X146.2593 Y125.0408 E1.12562 F1800 ; Print pattern wall
G1 E-6.5 F1500 ; Retract
G0 X146.835 Y86.3992 F18000 ; Move to start next pattern wall
G1 E6.5 F1500 ; Un-retract
G1 X166.1558 Y105.72 E1.12562 F1800 ; Print pattern wall
G1 X146.835 Y125.0408 E1.12562 F1800 ; Print pattern wall
G1 E-6.5 F1500 ; Retract
G0 X147.4107 Y86.3992 F18000 ; Move to start next pattern wall
G1 E6.5 F1500 ; Un-retract
G1 X166.7315 Y105.72 E1.12562 F1800 ; Print pattern wall
G1 X147.4107 Y125.0408 E1.12562 F1800 ; Print pattern wall
G1 E-6.5 F1500 ; Retract
G0 X149.8607 Y86.3992 F18000 ; Move to next pattern
G1 E6.5 F1500 ; Un-retract
SET_PRESSURE_ADVANCE ADVANCE=0.9 ; Set pressure advance
M117 PA 0.9
G1 X169.1815 Y105.72 E1.12562 F1800 ; Print pattern wall
G1 X149.8607 Y125.0408 E1.12562 F1800 ; Print pattern wall
G1 E-6.5 F1500 ; Retract
G0 X150.4364 Y86.3992 F18000 ; Move to start next pattern wall
G1 E6.5 F1500 ; Un-retract
G1 X169.7572 Y105.72 E1.12562 F1800 ; Print pattern wall
G1 X150.4364 Y125.0408 E1.12562 F1800 ; Print pattern wall
G1 E-6.5 F1500 ; Retract
G0 X151.0121 Y86.3992 F18000 ; Move to start next pattern wall
G1 E6.5 F1500 ; Un-retract
G1 X170.3329 Y105.72 E1.12562 F1800 ; Print pattern wall
G1 X151.0121 Y125.0408 E1.12562 F1800 ; Print pattern wall
G1 E-6.5 F1500 ; Retract
G0 X153.4621 Y86.3992 F18000 ; Move to next pattern
G1 E6.5 F1500 ; Un-retract
SET_PRESSURE_ADVANCE ADVANCE=0.95 ; Set pressure advance
M117 PA 0.95
G1 X172.7829 Y105.72 E1.12562 F1800 ; Print pattern wall
G1 X153.4621 Y125.0408 E1.12562 F1800 ; Print pattern wall
G1 E-6.5 F1500 ; Retract
G0 X154.0378 Y86.3992 F18000 ; Move to start next pattern wall
G1 E6.5 F1500 ; Un-retract
G1 X173.3586 Y105.72 E1.12562 F1800 ; Print pattern wall
G1 X154.0378 Y125.0408 E1.12562 F1800 ; Print pattern wall
G1 E-6.5 F1500 ; Retract
G0 X154.6135 Y86.3992 F18000 ; Move to start next pattern wall
G1 E6.5 F1500 ; Un-retract
G1 X173.9343 Y105.72 E1.12562 F1800 ; Print pattern wall
G1 X154.6135 Y125.0408 E1.12562 F1800 ; Print pattern wall
G1 E-6.5 F1500 ; Retract
G0 X157.0635 Y86.3992 F18000 ; Move to next pattern
G1 E6.5 F1500 ; Un-retract
SET_PRESSURE_ADVANCE ADVANCE=1 ; Set pressure advance
M117 PA 1
G1 X176.3843 Y105.72 E1.12562 F1800 ; Print pattern wall
G1 X157.0635 Y125.0408 E1.12562 F1800 ; Print pattern wall
G1 E-6.5 F1500 ; Retract
G0 X157.6392 Y86.3992 F18000 ; Move to start next pattern wall
G1 E6.5 F1500 ; Un-retract
G1 X176.96 Y105.72 E1.12562 F1800 ; Print pattern wall
G1 X157.6392 Y125.0408 E1.12562 F1800 ; Print pattern wall
G1 E-6.5 F1500 ; Retract
G0 X158.2149 Y86.3992 F18000 ; Move to start next pattern wall
G1 E6.5 F1500 ; Un-retract
G1 X177.5357 Y105.72 E1.12562 F1800 ; Print pattern wall
G1 X158.2149 Y125.0408 E1.12562 F1800 ; Print pattern wall
G1 E-6.5 F1500 ; Retract
G0 X85.0356 Y86.3992 F18000 ; Move back to start position
G1 E6.5 F1500 ; Un-retract
M106 S13 ; Set fan speed
G0 Z0.45 F18000 ; Move to layer height
SET_PRESSURE_ADVANCE ADVANCE=0 ; Set pressure advance to start value for numbering
M117 PA 0
G1 E-6.5 F1500 ; Retract
G0 X81.7189 Y128.3832 F18000 ; Move
G1 E6.5 F1500 ; Un-retract
G1 X83.7189 Y128.3832 E0.0677 F1800 ; Glyph: 0
G1 X85.7189 Y128.3832 E0.0677 F1800 ; Glyph: 0
G1 X85.7189 Y130.3832 E0.0677 F1800 ; Glyph: 0
G1 X83.7189 Y130.3832 E0.0677 F1800 ; Glyph: 0
G1 X81.7189 Y130.3832 E0.0677 F1800 ; Glyph: 0
G1 X81.7189 Y128.3832 E0.0677 F1800 ; Glyph: 0
G1 E-6.5 F1500 ; Retract
G0 X88.9217 Y128.3832 F18000 ; Move
G1 E6.5 F1500 ; Un-retract
G1 X90.9217 Y128.3832 E0.0677 F1800 ; Glyph: 0
G1 X92.9217 Y128.3832 E0.0677 F1800 ; Glyph: 0
G1 X92.9217 Y130.3832 E0.0677 F1800 ; Glyph: 0
G1 X90.9217 Y130.3832 E0.0677 F1800 ; Glyph: 0
G1 X88.9217 Y130.3832 E0.0677 F1800 ; Glyph: 0
G1 X88.9217 Y128.3832 E0.0677 F1800 ; Glyph: 0
G1 E-6.5 F1500 ; Retract
G0 X92.9217 Y131.3832 F18000 ; Move
G1 E6.5 F1500 ; Un-retract
G1 X92.1717 Y131.3832 E0.02539 F1800 ; Glyph: .
G1 E-6.5 F1500 ; Retract
G0 X88.9217 Y132.3832 F18000 ; Move
G1 E6.5 F1500 ; Un-retract
G1 X90.9217 Y132.3832 E0.0677 F1800 ; Glyph: 1
G1 X92.9217 Y132.3832 E0.0677 F1800 ; Glyph: 1
G1 E-6.5 F1500 ; Retract
G0 X96.1245 Y128.3832 F18000 ; Move
G1 E6.5 F1500 ; Un-retract
G1 X98.1245 Y128.3832 E0.0677 F1800 ; Glyph: 0
G1 X100.1245 Y128.3832 E0.0677 F1800 ; Glyph: 0
G1 X100.1245 Y130.3832 E0.0677 F1800 ; Glyph: 0
G1 X98.1245 Y130.3832 E0.0677 F1800 ; Glyph: 0
G1 X96.1245 Y130.3832 E0.0677 F1800 ; Glyph: 0
G1 X96.1245 Y128.3832 E0.0677 F1800 ; Glyph: 0
G1 E-6.5 F1500 ; Retract
G0 X100.1245 Y131.3832 F18000 ; Move
G1 E6.5 F1500 ; Un-retract
G1 X99.3745 Y131.3832 E0.02539 F1800 ; Glyph: .
G1 E-6.5 F1500 ; Retract
G0 X96.1245 Y132.3832 F18000 ; Move
G1 E6.5 F1500 ; Un-retract
G1 X96.1245 Y134.3832 E0.0677 F1800 ; Glyph: 2
G1 X98.1245 Y134.3832 E0.0677 F1800 ; Glyph: 2
G1 X98.1245 Y132.3832 E0.0677 F1800 ; Glyph: 2
G1 X100.1245 Y132.3832 E0.0677 F1800 ; Glyph: 2
G1 X100.1245 Y134.3832 E0.0677 F1800 ; Glyph: 2
G1 E-6.5 F1500 ; Retract
G0 X103.3273 Y128.3832 F18000 ; Move
G1 E6.5 F1500 ; Un-retract
G1 X105.3273 Y128.3832 E0.0677 F1800 ; Glyph: 0
G1 X107.3273 Y128.3832 E0.0677 F1800 ; Glyph: 0
G1 X107.3273 Y130.3832 E0.0677 F1800 ; Glyph: 0
G1 X105.3273 Y130.3832 E0.0677 F1800 ; Glyph: 0
G1 X103.3273 Y130.3832 E0.0677 F1800 ; Glyph: 0
G1 X103.3273 Y128.3832 E0.0677 F1800 ; Glyph: 0
G1 E-6.5 F1500 ; Retract
G0 X107.3273 Y131.3832 F18000 ; Move
G1 E6.5 F1500 ; Un-retract
G1 X106.5773 Y131.3832 E0.02539 F1800 ; Glyph: .
G1 E-6.5 F1500 ; Retract
G0 X103.3273 Y132.3832 F18000 ; Move
G1 E6.5 F1500 ; Un-retract
G1 X103.3273 Y134.3832 E0.0677 F1800 ; Glyph: 3
G1 X105.3273 Y134.3832 E0.0677 F1800 ; Glyph: 3
G1 X105.3273 Y132.3832 E0.0677 F1800 ; Glyph: 3
G0 X105.3273 Y134.3832 F18000 ; Move
G1 X107.3273 Y134.3832 E0.0677 F1800 ; Glyph: 3
G1 X107.3273 Y132.3832 E0.0677 F1800 ; Glyph: 3
G1 E-6.5 F1500 ; Retract
G0 X110.5301 Y128.3832 F18000 ; Move
G1 E6.5 F1500 ; Un-retract
G1 X112.5301 Y128.3832 E0.0677 F1800 ; Glyph: 0
G1 X114.5301 Y128.3832 E0.0677 F1800 ; Glyph: 0
G1 X114.5301 Y130.3832 E0.0677 F1800 ; Glyph: 0
G1 X112.5301 Y130.3832 E0.0677 F1800 ; Glyph: 0
G1 X110.5301 Y130.3832 E0.0677 F1800 ; Glyph: 0
G1 X110.5301 Y128.3832 E0.0677 F1800 ; Glyph: 0
G1 E-6.5 F1500 ; Retract
G0 X114.5301 Y131.3832 F18000 ; Move
G1 E6.5 F1500 ; Un-retract
G1 X113.7801 Y131.3832 E0.02539 F1800 ; Glyph: .
G1 E-6.5 F1500 ; Retract
G0 X110.5301 Y134.3832 F18000 ; Move
G1 E6.5 F1500 ; Un-retract
G1 X112.5301 Y134.3832 E0.0677 F1800 ; Glyph: 4
G1 X114.5301 Y134.3832 E0.0677 F1800 ; Glyph: 4
G0 X112.5301 Y134.3832 F18000 ; Move
G1 X112.5301 Y132.3832 E0.0677 F1800 ; Glyph: 4
G1 X110.5301 Y132.3832 E0.0677 F1800 ; Glyph: 4
G1 E-6.5 F1500 ; Retract
G0 X117.7329 Y128.3832 F18000 ; Move
G1 E6.5 F1500 ; Un-retract
G1 X119.7329 Y128.3832 E0.0677 F1800 ; Glyph: 0
G1 X121.7329 Y128.3832 E0.0677 F1800 ; Glyph: 0
G1 X121.7329 Y130.3832 E0.0677 F1800 ; Glyph: 0
G1 X119.7329 Y130.3832 E0.0677 F1800 ; Glyph: 0
G1 X117.7329 Y130.3832 E0.0677 F1800 ; Glyph: 0
G1 X117.7329 Y128.3832 E0.0677 F1800 ; Glyph: 0
G1 E-6.5 F1500 ; Retract
G0 X121.7329 Y131.3832 F18000 ; Move
G1 E6.5 F1500 ; Un-retract
G1 X120.9829 Y131.3832 E0.02539 F1800 ; Glyph: .
G1 E-6.5 F1500 ; Retract
G0 X117.7329 Y134.3832 F18000 ; Move
G1 E6.5 F1500 ; Un-retract
G1 X117.7329 Y132.3832 E0.0677 F1800 ; Glyph: 5
G1 X119.7329 Y132.3832 E0.0677 F1800 ; Glyph: 5
G1 X119.7329 Y134.3832 E0.0677 F1800 ; Glyph: 5
G1 X121.7329 Y134.3832 E0.0677 F1800 ; Glyph: 5
G1 X121.7329 Y132.3832 E0.0677 F1800 ; Glyph: 5
G1 E-6.5 F1500 ; Retract
G0 X124.9356 Y128.3832 F18000 ; Move
G1 E6.5 F1500 ; Un-retract
G1 X126.9356 Y128.3832 E0.0677 F1800 ; Glyph: 0
G1 X128.9356 Y128.3832 E0.0677 F1800 ; Glyph: 0
G1 X128.9356 Y130.3832 E0.0677 F1800 ; Glyph: 0
G1 X126.9356 Y130.3832 E0.0677 F1800 ; Glyph: 0
G1 X124.9356 Y130.3832 E0.0677 F1800 ; Glyph: 0
G1 X124.9356 Y128.3832 E0.0677 F1800 ; Glyph: 0
G1 E-6.5 F1500 ; Retract
G0 X128.9356 Y131.3832 F18000 ; Move
G1 E6.5 F1500 ; Un-retract
G1 X128.1856 Y131.3832 E0.02539 F1800 ; Glyph: .
G1 E-6.5 F1500 ; Retract
G0 X124.9356 Y134.3832 F18000 ; Move
G1 E6.5 F1500 ; Un-retract
G1 X124.9356 Y132.3832 E0.0677 F1800 ; Glyph: 6
G1 X126.9356 Y132.3832 E0.0677 F1800 ; Glyph: 6
G1 X128.9356 Y132.3832 E0.0677 F1800 ; Glyph: 6
G1 X128.9356 Y134.3832 E0.0677 F1800 ; Glyph: 6
G1 X126.9356 Y134.3832 E0.0677 F1800 ; Glyph: 6
G1 X126.9356 Y132.3832 E0.0677 F1800 ; Glyph: 6
G1 E-6.5 F1500 ; Retract
G0 X132.1384 Y128.3832 F18000 ; Move
G1 E6.5 F1500 ; Un-retract
G1 X134.1384 Y128.3832 E0.0677 F1800 ; Glyph: 0
G1 X136.1384 Y128.3832 E0.0677 F1800 ; Glyph: 0
G1 X136.1384 Y130.3832 E0.0677 F1800 ; Glyph: 0
G1 X134.1384 Y130.3832 E0.0677 F1800 ; Glyph: 0
G1 X132.1384 Y130.3832 E0.0677 F1800 ; Glyph: 0
G1 X132.1384 Y128.3832 E0.0677 F1800 ; Glyph: 0
G1 E-6.5 F1500 ; Retract
G0 X136.1384 Y131.3832 F18000 ; Move
G1 E6.5 F1500 ; Un-retract
G1 X135.3884 Y131.3832 E0.02539 F1800 ; Glyph: .
G1 E-6.5 F1500 ; Retract
G0 X132.1384 Y132.3832 F18000 ; Move
G1 E6.5 F1500 ; Un-retract
G1 X132.1384 Y134.3832 E0.0677 F1800 ; Glyph: 7
G1 X134.1384 Y134.3832 E0.0677 F1800 ; Glyph: 7
G1 X136.1384 Y134.3832 E0.0677 F1800 ; Glyph: 7
G1 E-6.5 F1500 ; Retract
G0 X139.3412 Y128.3832 F18000 ; Move
G1 E6.5 F1500 ; Un-retract
G1 X141.3412 Y128.3832 E0.0677 F1800 ; Glyph: 0
G1 X143.3412 Y128.3832 E0.0677 F1800 ; Glyph: 0
G1 X143.3412 Y130.3832 E0.0677 F1800 ; Glyph: 0
G1 X141.3412 Y130.3832 E0.0677 F1800 ; Glyph: 0
G1 X139.3412 Y130.3832 E0.0677 F1800 ; Glyph: 0
G1 X139.3412 Y128.3832 E0.0677 F1800 ; Glyph: 0
G1 E-6.5 F1500 ; Retract
G0 X143.3412 Y131.3832 F18000 ; Move
G1 E6.5 F1500 ; Un-retract
G1 X142.5912 Y131.3832 E0.02539 F1800 ; Glyph: .
G1 E-6.5 F1500 ; Retract
G0 X139.3412 Y132.3832 F18000 ; Move
G1 E6.5 F1500 ; Un-retract
G1 X141.3412 Y132.3832 E0.0677 F1800 ; Glyph: 8
G1 X143.3412 Y132.3832 E0.0677 F1800 ; Glyph: 8
G1 X143.3412 Y134.3832 E0.0677 F1800 ; Glyph: 8
G1 X141.3412 Y134.3832 E0.0677 F1800 ; Glyph: 8
G1 X139.3412 Y134.3832 E0.0677 F1800 ; Glyph: 8
G1 X139.3412 Y132.3832 E0.0677 F1800 ; Glyph: 8
G0 X141.3412 Y132.3832 F18000 ; Move
G1 X141.3412 Y134.3832 E0.0677 F1800 ; Glyph: 8
G1 E-6.5 F1500 ; Retract
G0 X146.544 Y128.3832 F18000 ; Move
G1 E6.5 F1500 ; Un-retract
G1 X148.544 Y128.3832 E0.0677 F1800 ; Glyph: 0
G1 X150.544 Y128.3832 E0.0677 F1800 ; Glyph: 0
G1 X150.544 Y130.3832 E0.0677 F1800 ; Glyph: 0
G1 X148.544 Y130.3832 E0.0677 F1800 ; Glyph: 0
G1 X146.544 Y130.3832 E0.0677 F1800 ; Glyph: 0
G1 X146.544 Y128.3832 E0.0677 F1800 ; Glyph: 0
G1 E-6.5 F1500 ; Retract
G0 X150.544 Y131.3832 F18000 ; Move
G1 E6.5 F1500 ; Un-retract
G1 X149.794 Y131.3832 E0.02539 F1800 ; Glyph: .
G0 X150.544 Y132.3832 F18000 ; Move
G1 X150.544 Y134.3832 E0.0677 F1800 ; Glyph: 9
G1 X148.544 Y134.3832 E0.0677 F1800 ; Glyph: 9
G1 X146.544 Y134.3832 E0.0677 F1800 ; Glyph: 9
G1 X146.544 Y132.3832 E0.0677 F1800 ; Glyph: 9
G1 X148.544 Y132.3832 E0.0677 F1800 ; Glyph: 9
G1 X148.544 Y134.3832 E0.0677 F1800 ; Glyph: 9
G1 E-6.5 F1500 ; Retract
G0 X153.7468 Y128.3832 F18000 ; Move
G1 E6.5 F1500 ; Un-retract
G1 X155.7468 Y128.3832 E0.0677 F1800 ; Glyph: 1
G1 X157.7468 Y128.3832 E0.0677 F1800 ; Glyph: 1
G1 E-6.5 F1500 ; Retract
G0 X83.1432 Y84.5068 F18000 ; Move to pattern start

G1 E6.5 F1500 ; Un-retract
SET_PRESSURE_ADVANCE ADVANCE=0 ; Set pressure advance
M117 PA 0
G1 X104.3564 Y105.72 E1.01546 F6000 ; Print pattern wall
G1 X83.1432 Y126.9332 E1.01546 F6000 ; Print pattern wall
G1 E-6.5 F1500 ; Retract
G0 X83.7189 Y84.5068 F18000 ; Move to start next pattern wall
G1 E6.5 F1500 ; Un-retract
G1 X104.9321 Y105.72 E1.01546 F6000 ; Print pattern wall
G1 X83.7189 Y126.9332 E1.01546 F6000 ; Print pattern wall
G1 E-6.5 F1500 ; Retract
G0 X84.2946 Y84.5068 F18000 ; Move to start next pattern wall
G1 E6.5 F1500 ; Un-retract
G1 X105.5078 Y105.72 E1.01546 F6000 ; Print pattern wall
G1 X84.2946 Y126.9332 E1.01546 F6000 ; Print pattern wall
G1 E-6.5 F1500 ; Retract
G0 X86.7446 Y84.5068 F18000 ; Move to next pattern
G1 E6.5 F1500 ; Un-retract
SET_PRESSURE_ADVANCE ADVANCE=0.05 ; Set pressure advance
M117 PA 0.05
G1 X107.9578 Y105.72 E1.01546 F6000 ; Print pattern wall
G1 X86.7446 Y126.9332 E1.01546 F6000 ; Print pattern wall
G1 E-6.5 F1500 ; Retract
G0 X87.3203 Y84.5068 F18000 ; Move to start next pattern wall
G1 E6.5 F1500 ; Un-retract
G1 X108.5335 Y105.72 E1.01546 F6000 ; Print pattern wall
G1 X87.3203 Y126.9332 E1.01546 F6000 ; Print pattern wall
G1 E-6.5 F1500 ; Retract
G0 X87.896 Y84.5068 F18000 ; Move to start next pattern wall
G1 E6.5 F1500 ; Un-retract
G1 X109.1092 Y105.72 E1.01546 F6000 ; Print pattern wall
G1 X87.896 Y126.9332 E1.01546 F6000 ; Print pattern wall
G1 E-6.5 F1500 ; Retract
G0 X90.346 Y84.5068 F18000 ; Move to next pattern
G1 E6.5 F1500 ; Un-retract
SET_PRESSURE_ADVANCE ADVANCE=0.1 ; Set pressure advance
M117 PA 0.1
G1 X111.5592 Y105.72 E1.01546 F6000 ; Print pattern wall
G1 X90.346 Y126.9332 E1.01546 F6000 ; Print pattern wall
G1 E-6.5 F1500 ; Retract
G0 X90.9217 Y84.5068 F18000 ; Move to start next pattern wall
G1 E6.5 F1500 ; Un-retract
G1 X112.1349 Y105.72 E1.01546 F6000 ; Print pattern wall
G1 X90.9217 Y126.9332 E1.01546 F6000 ; Print pattern wall
G1 E-6.5 F1500 ; Retract
G0 X91.4974 Y84.5068 F18000 ; Move to start next pattern wall
G1 E6.5 F1500 ; Un-retract
G1 X112.7106 Y105.72 E1.01546 F6000 ; Print pattern wall
G1 X91.4974 Y126.9332 E1.01546 F6000 ; Print pattern wall
G1 E-6.5 F1500 ; Retract
G0 X93.9474 Y84.5068 F18000 ; Move to next pattern
G1 E6.5 F1500 ; Un-retract
SET_PRESSURE_ADVANCE ADVANCE=0.15 ; Set pressure advance
M117 PA 0.15
G1 X115.1606 Y105.72 E1.01546 F6000 ; Print pattern wall
G1 X93.9474 Y126.9332 E1.01546 F6000 ; Print pattern wall
G1 E-6.5 F1500 ; Retract
G0 X94.5231 Y84.5068 F18000 ; Move to start next pattern wall
G1 E6.5 F1500 ; Un-retract
G1 X115.7363 Y105.72 E1.01546 F6000 ; Print pattern wall
G1 X94.5231 Y126.9332 E1.01546 F6000 ; Print pattern wall
G1 E-6.5 F1500 ; Retract
G0 X95.0988 Y84.5068 F18000 ; Move to start next pattern wall
G1 E6.5 F1500 ; Un-retract
G1 X116.312 Y105.72 E1.01546 F6000 ; Print pattern wall
G1 X95.0988 Y126.9332 E1.01546 F6000 ; Print pattern wall
G1 E-6.5 F1500 ; Retract
G0 X97.5488 Y84.5068 F18000 ; Move to next pattern
G1 E6.5 F1500 ; Un-retract
SET_PRESSURE_ADVANCE ADVANCE=0.2 ; Set pressure advance
M117 PA 0.2
G1 X118.762 Y105.72 E1.01546 F6000 ; Print pattern wall
G1 X97.5488 Y126.9332 E1.01546 F6000 ; Print pattern wall
G1 E-6.5 F1500 ; Retract
G0 X98.1245 Y84.5068 F18000 ; Move to start next pattern wall
G1 E6.5 F1500 ; Un-retract
G1 X119.3377 Y105.72 E1.01546 F6000 ; Print pattern wall
G1 X98.1245 Y126.9332 E1.01546 F6000 ; Print pattern wall
G1 E-6.5 F1500 ; Retract
G0 X98.7002 Y84.5068 F18000 ; Move to start next pattern wall
G1 E6.5 F1500 ; Un-retract
G1 X119.9134 Y105.72 E1.01546 F6000 ; Print pattern wall
G1 X98.7002 Y126.9332 E1.01546 F6000 ; Print pattern wall
G1 E-6.5 F1500 ; Retract
G0 X101.1502 Y84.5068 F18000 ; Move to next pattern
G1 E6.5 F1500 ; Un-retract
SET_PRESSURE_ADVANCE ADVANCE=0.25 ; Set pressure advance
M117 PA 0.25
G1 X122.3634 Y105.72 E1.01546 F6000 ; Print pattern wall
G1 X101.1502 Y126.9332 E1.01546 F6000 ; Print pattern wall
G1 E-6.5 F1500 ; Retract
G0 X101.7259 Y84.5068 F18000 ; Move to start next pattern wall
G1 E6.5 F1500 ; Un-retract
G1 X122.9391 Y105.72 E1.01546 F6000 ; Print pattern wall
G1 X101.7259 Y126.9332 E1.01546 F6000 ; Print pattern wall
G1 E-6.5 F1500 ; Retract
G0 X102.3016 Y84.5068 F18000 ; Move to start next pattern wall
G1 E6.5 F1500 ; Un-retract
G1 X123.5148 Y105.72 E1.01546 F6000 ; Print pattern wall
G1 X102.3016 Y126.9332 E1.01546 F6000 ; Print pattern wall
G1 E-6.5 F1500 ; Retract
G0 X104.7516 Y84.5068 F18000 ; Move to next pattern
G1 E6.5 F1500 ; Un-retract
SET_PRESSURE_ADVANCE ADVANCE=0.3 ; Set pressure advance
M117 PA 0.3
G1 X125.9648 Y105.72 E1.01546 F6000 ; Print pattern wall
G1 X104.7516 Y126.9332 E1.01546 F6000 ; Print pattern wall
G1 E-6.5 F1500 ; Retract
G0 X105.3273 Y84.5068 F18000 ; Move to start next pattern wall
G1 E6.5 F1500 ; Un-retract
G1 X126.5405 Y105.72 E1.01546 F6000 ; Print pattern wall
G1 X105.3273 Y126.9332 E1.01546 F6000 ; Print pattern wall
G1 E-6.5 F1500 ; Retract
G0 X105.903 Y84.5068 F18000 ; Move to start next pattern wall
G1 E6.5 F1500 ; Un-retract
G1 X127.1162 Y105.72 E1.01546 F6000 ; Print pattern wall
G1 X105.903 Y126.9332 E1.01546 F6000 ; Print pattern wall
G1 E-6.5 F1500 ; Retract
G0 X108.353 Y84.5068 F18000 ; Move to next pattern
G1 E6.5 F1500 ; Un-retract
SET_PRESSURE_ADVANCE ADVANCE=0.35 ; Set pressure advance
M117 PA 0.35
G1 X129.5662 Y105.72 E1.01546 F6000 ; Print pattern wall
G1 X108.353 Y126.9332 E1.01546 F6000 ; Print pattern wall
G1 E-6.5 F1500 ; Retract
G0 X108.9287 Y84.5068 F18000 ; Move to start next pattern wall
G1 E6.5 F1500 ; Un-retract
G1 X130.1419 Y105.72 E1.01546 F6000 ; Print pattern wall
G1 X108.9287 Y126.9332 E1.01546 F6000 ; Print pattern wall
G1 E-6.5 F1500 ; Retract
G0 X109.5044 Y84.5068 F18000 ; Move to start next pattern wall
G1 E6.5 F1500 ; Un-retract
G1 X130.7176 Y105.72 E1.01546 F6000 ; Print pattern wall
G1 X109.5044 Y126.9332 E1.01546 F6000 ; Print pattern wall
G1 E-6.5 F1500 ; Retract
G0 X111.9544 Y84.5068 F18000 ; Move to next pattern
G1 E6.5 F1500 ; Un-retract
SET_PRESSURE_ADVANCE ADVANCE=0.4 ; Set pressure advance
M117 PA 0.4
G1 X133.1676 Y105.72 E1.01546 F6000 ; Print pattern wall
G1 X111.9544 Y126.9332 E1.01546 F6000 ; Print pattern wall
G1 E-6.5 F1500 ; Retract
G0 X112.5301 Y84.5068 F18000 ; Move to start next pattern wall
G1 E6.5 F1500 ; Un-retract
G1 X133.7433 Y105.72 E1.01546 F6000 ; Print pattern wall
G1 X112.5301 Y126.9332 E1.01546 F6000 ; Print pattern wall
G1 E-6.5 F1500 ; Retract
G0 X113.1058 Y84.5068 F18000 ; Move to start next pattern wall
G1 E6.5 F1500 ; Un-retract
G1 X134.319 Y105.72 E1.01546 F6000 ; Print pattern wall
G1 X113.1058 Y126.9332 E1.01546 F6000 ; Print pattern wall
G1 E-6.5 F1500 ; Retract
G0 X115.5558 Y84.5068 F18000 ; Move to next pattern
G1 E6.5 F1500 ; Un-retract
SET_PRESSURE_ADVANCE ADVANCE=0.45 ; Set pressure advance
M117 PA 0.45
G1 X136.769 Y105.72 E1.01546 F6000 ; Print pattern wall
G1 X115.5558 Y126.9332 E1.01546 F6000 ; Print pattern wall
G1 E-6.5 F1500 ; Retract
G0 X116.1315 Y84.5068 F18000 ; Move to start next pattern wall
G1 E6.5 F1500 ; Un-retract
G1 X137.3447 Y105.72 E1.01546 F6000 ; Print pattern wall
G1 X116.1315 Y126.9332 E1.01546 F6000 ; Print pattern wall
G1 E-6.5 F1500 ; Retract
G0 X116.7072 Y84.5068 F18000 ; Move to start next pattern wall
G1 E6.5 F1500 ; Un-retract
G1 X137.9204 Y105.72 E1.01546 F6000 ; Print pattern wall
G1 X116.7072 Y126.9332 E1.01546 F6000 ; Print pattern wall
G1 E-6.5 F1500 ; Retract
G0 X119.1572 Y84.5068 F18000 ; Move to next pattern
G1 E6.5 F1500 ; Un-retract
SET_PRESSURE_ADVANCE ADVANCE=0.5 ; Set pressure advance
M117 PA 0.5
G1 X140.3704 Y105.72 E1.01546 F6000 ; Print pattern wall
G1 X119.1572 Y126.9332 E1.01546 F6000 ; Print pattern wall
G1 E-6.5 F1500 ; Retract
G0 X119.7329 Y84.5068 F18000 ; Move to start next pattern wall
G1 E6.5 F1500 ; Un-retract
G1 X140.9461 Y105.72 E1.01546 F6000 ; Print pattern wall
G1 X119.7329 Y126.9332 E1.01546 F6000 ; Print pattern wall
G1 E-6.5 F1500 ; Retract
G0 X120.3085 Y84.5068 F18000 ; Move to start next pattern wall
G1 E6.5 F1500 ; Un-retract
G1 X141.5218 Y105.72 E1.01546 F6000 ; Print pattern wall
G1 X120.3085 Y126.9332 E1.01546 F6000 ; Print pattern wall
G1 E-6.5 F1500 ; Retract
G0 X122.7585 Y84.5068 F18000 ; Move to next pattern
G1 E6.5 F1500 ; Un-retract
SET_PRESSURE_ADVANCE ADVANCE=0.55 ; Set pressure advance
M117 PA 0.55
G1 X143.9718 Y105.72 E1.01546 F6000 ; Print pattern wall
G1 X122.7585 Y126.9332 E1.01546 F6000 ; Print pattern wall
G1 E-6.5 F1500 ; Retract
G0 X123.3342 Y84.5068 F18000 ; Move to start next pattern wall
G1 E6.5 F1500 ; Un-retract
G1 X144.5474 Y105.72 E1.01546 F6000 ; Print pattern wall
G1 X123.3342 Y126.9332 E1.01546 F6000 ; Print pattern wall
G1 E-6.5 F1500 ; Retract
G0 X123.9099 Y84.5068 F18000 ; Move to start next pattern wall
G1 E6.5 F1500 ; Un-retract
G1 X145.1231 Y105.72 E1.01546 F6000 ; Print pattern wall
G1 X123.9099 Y126.9332 E1.01546 F6000 ; Print pattern wall
G1 E-6.5 F1500 ; Retract
G0 X126.3599 Y84.5068 F18000 ; Move to next pattern
G1 E6.5 F1500 ; Un-retract
SET_PRESSURE_ADVANCE ADVANCE=0.6 ; Set pressure advance
M117 PA 0.6
G1 X147.5731 Y105.72 E1.01546 F6000 ; Print pattern wall
G1 X126.3599 Y126.9332 E1.01546 F6000 ; Print pattern wall
G1 E-6.5 F1500 ; Retract
G0 X126.9356 Y84.5068 F18000 ; Move to start next pattern wall
G1 E6.5 F1500 ; Un-retract
G1 X148.1488 Y105.72 E1.01546 F6000 ; Print pattern wall
G1 X126.9356 Y126.9332 E1.01546 F6000 ; Print pattern wall
G1 E-6.5 F1500 ; Retract
G0 X127.5113 Y84.5068 F18000 ; Move to start next pattern wall
G1 E6.5 F1500 ; Un-retract
G1 X148.7245 Y105.72 E1.01546 F6000 ; Print pattern wall
G1 X127.5113 Y126.9332 E1.01546 F6000 ; Print pattern wall
G1 E-6.5 F1500 ; Retract
G0 X129.9613 Y84.5068 F18000 ; Move to next pattern
G1 E6.5 F1500 ; Un-retract
SET_PRESSURE_ADVANCE ADVANCE=0.65 ; Set pressure advance
M117 PA 0.65
G1 X151.1745 Y105.72 E1.01546 F6000 ; Print pattern wall
G1 X129.9613 Y126.9332 E1.01546 F6000 ; Print pattern wall
G1 E-6.5 F1500 ; Retract
G0 X130.537 Y84.5068 F18000 ; Move to start next pattern wall
G1 E6.5 F1500 ; Un-retract
G1 X151.7502 Y105.72 E1.01546 F6000 ; Print pattern wall
G1 X130.537 Y126.9332 E1.01546 F6000 ; Print pattern wall
G1 E-6.5 F1500 ; Retract
G0 X131.1127 Y84.5068 F18000 ; Move to start next pattern wall
G1 E6.5 F1500 ; Un-retract
G1 X152.3259 Y105.72 E1.01546 F6000 ; Print pattern wall
G1 X131.1127 Y126.9332 E1.01546 F6000 ; Print pattern wall
G1 E-6.5 F1500 ; Retract
G0 X133.5627 Y84.5068 F18000 ; Move to next pattern
G1 E6.5 F1500 ; Un-retract
SET_PRESSURE_ADVANCE ADVANCE=0.7 ; Set pressure advance
M117 PA 0.7
G1 X154.7759 Y105.72 E1.01546 F6000 ; Print pattern wall
G1 X133.5627 Y126.9332 E1.01546 F6000 ; Print pattern wall
G1 E-6.5 F1500 ; Retract
G0 X134.1384 Y84.5068 F18000 ; Move to start next pattern wall
G1 E6.5 F1500 ; Un-retract
G1 X155.3516 Y105.72 E1.01546 F6000 ; Print pattern wall
G1 X134.1384 Y126.9332 E1.01546 F6000 ; Print pattern wall
G1 E-6.5 F1500 ; Retract
G0 X134.7141 Y84.5068 F18000 ; Move to start next pattern wall
G1 E6.5 F1500 ; Un-retract
G1 X155.9273 Y105.72 E1.01546 F6000 ; Print pattern wall
G1 X134.7141 Y126.9332 E1.01546 F6000 ; Print pattern wall
G1 E-6.5 F1500 ; Retract
G0 X137.1641 Y84.5068 F18000 ; Move to next pattern
G1 E6.5 F1500 ; Un-retract
SET_PRESSURE_ADVANCE ADVANCE=0.75 ; Set pressure advance
M117 PA 0.75
G1 X158.3773 Y105.72 E1.01546 F6000 ; Print pattern wall
G1 X137.1641 Y126.9332 E1.01546 F6000 ; Print pattern wall
G1 E-6.5 F1500 ; Retract
G0 X137.7398 Y84.5068 F18000 ; Move to start next pattern wall
G1 E6.5 F1500 ; Un-retract
G1 X158.953 Y105.72 E1.01546 F6000 ; Print pattern wall
G1 X137.7398 Y126.9332 E1.01546 F6000 ; Print pattern wall
G1 E-6.5 F1500 ; Retract
G0 X138.3155 Y84.5068 F18000 ; Move to start next pattern wall
G1 E6.5 F1500 ; Un-retract
G1 X159.5287 Y105.72 E1.01546 F6000 ; Print pattern wall
G1 X138.3155 Y126.9332 E1.01546 F6000 ; Print pattern wall
G1 E-6.5 F1500 ; Retract
G0 X140.7655 Y84.5068 F18000 ; Move to next pattern
G1 E6.5 F1500 ; Un-retract
SET_PRESSURE_ADVANCE ADVANCE=0.8 ; Set pressure advance
M117 PA 0.8
G1 X161.9787 Y105.72 E1.01546 F6000 ; Print pattern wall
G1 X140.7655 Y126.9332 E1.01546 F6000 ; Print pattern wall
G1 E-6.5 F1500 ; Retract
G0 X141.3412 Y84.5068 F18000 ; Move to start next pattern wall
G1 E6.5 F1500 ; Un-retract
G1 X162.5544 Y105.72 E1.01546 F6000 ; Print pattern wall
G1 X141.3412 Y126.9332 E1.01546 F6000 ; Print pattern wall
G1 E-6.5 F1500 ; Retract
G0 X141.9169 Y84.5068 F18000 ; Move to start next pattern wall
G1 E6.5 F1500 ; Un-retract
G1 X163.1301 Y105.72 E1.01546 F6000 ; Print pattern wall
G1 X141.9169 Y126.9332 E1.01546 F6000 ; Print pattern wall
G1 E-6.5 F1500 ; Retract
G0 X144.3669 Y84.5068 F18000 ; Move to next pattern
G1 E6.5 F1500 ; Un-retract
SET_PRESSURE_ADVANCE ADVANCE=0.85 ; Set pressure advance
M117 PA 0.85
G1 X165.5801 Y105.72 E1.01546 F6000 ; Print pattern wall
G1 X144.3669 Y126.9332 E1.01546 F6000 ; Print pattern wall
G1 E-6.5 F1500 ; Retract
G0 X144.9426 Y84.5068 F18000 ; Move to start next pattern wall
G1 E6.5 F1500 ; Un-retract
G1 X166.1558 Y105.72 E1.01546 F6000 ; Print pattern wall
G1 X144.9426 Y126.9332 E1.01546 F6000 ; Print pattern wall
G1 E-6.5 F1500 ; Retract
G0 X145.5183 Y84.5068 F18000 ; Move to start next pattern wall
G1 E6.5 F1500 ; Un-retract
G1 X166.7315 Y105.72 E1.01546 F6000 ; Print pattern wall
G1 X145.5183 Y126.9332 E1.01546 F6000 ; Print pattern wall
G1 E-6.5 F1500 ; Retract
G0 X147.9683 Y84.5068 F18000 ; Move to next pattern
G1 E6.5 F1500 ; Un-retract
SET_PRESSURE_ADVANCE ADVANCE=0.9 ; Set pressure advance
M117 PA 0.9
G1 X169.1815 Y105.72 E1.01546 F6000 ; Print pattern wall
G1 X147.9683 Y126.9332 E1.01546 F6000 ; Print pattern wall
G1 E-6.5 F1500 ; Retract
G0 X148.544 Y84.5068 F18000 ; Move to start next pattern wall
G1 E6.5 F1500 ; Un-retract
G1 X169.7572 Y105.72 E1.01546 F6000 ; Print pattern wall
G1 X148.544 Y126.9332 E1.01546 F6000 ; Print pattern wall
G1 E-6.5 F1500 ; Retract
G0 X149.1197 Y84.5068 F18000 ; Move to start next pattern wall
G1 E6.5 F1500 ; Un-retract
G1 X170.3329 Y105.72 E1.01546 F6000 ; Print pattern wall
G1 X149.1197 Y126.9332 E1.01546 F6000 ; Print pattern wall
G1 E-6.5 F1500 ; Retract
G0 X151.5697 Y84.5068 F18000 ; Move to next pattern
G1 E6.5 F1500 ; Un-retract
SET_PRESSURE_ADVANCE ADVANCE=0.95 ; Set pressure advance
M117 PA 0.95
G1 X172.7829 Y105.72 E1.01546 F6000 ; Print pattern wall
G1 X151.5697 Y126.9332 E1.01546 F6000 ; Print pattern wall
G1 E-6.5 F1500 ; Retract
G0 X152.1454 Y84.5068 F18000 ; Move to start next pattern wall
G1 E6.5 F1500 ; Un-retract
G1 X173.3586 Y105.72 E1.01546 F6000 ; Print pattern wall
G1 X152.1454 Y126.9332 E1.01546 F6000 ; Print pattern wall
G1 E-6.5 F1500 ; Retract
G0 X152.7211 Y84.5068 F18000 ; Move to start next pattern wall
G1 E6.5 F1500 ; Un-retract
G1 X173.9343 Y105.72 E1.01546 F6000 ; Print pattern wall
G1 X152.7211 Y126.9332 E1.01546 F6000 ; Print pattern wall
G1 E-6.5 F1500 ; Retract
G0 X155.1711 Y84.5068 F18000 ; Move to next pattern
G1 E6.5 F1500 ; Un-retract
SET_PRESSURE_ADVANCE ADVANCE=1 ; Set pressure advance
M117 PA 1
G1 X176.3843 Y105.72 E1.01546 F6000 ; Print pattern wall
G1 X155.1711 Y126.9332 E1.01546 F6000 ; Print pattern wall
G1 E-6.5 F1500 ; Retract
G0 X155.7468 Y84.5068 F18000 ; Move to start next pattern wall
G1 E6.5 F1500 ; Un-retract
G1 X176.96 Y105.72 E1.01546 F6000 ; Print pattern wall
G1 X155.7468 Y126.9332 E1.01546 F6000 ; Print pattern wall
G1 E-6.5 F1500 ; Retract
G0 X156.3225 Y84.5068 F18000 ; Move to start next pattern wall
G1 E6.5 F1500 ; Un-retract
G1 X177.5357 Y105.72 E1.01546 F6000 ; Print pattern wall
G1 X156.3225 Y126.9332 E1.01546 F6000 ; Print pattern wall
G1 E-6.5 F1500 ; Retract
G0 X83.1432 Y84.5068 F18000 ; Move back to start position
G1 E6.5 F1500 ; Un-retract
G0 Z0.65 F18000 ; Move to layer height
SET_PRESSURE_ADVANCE ADVANCE=0 ; Set pressure advance
M117 PA 0
G1 X104.3564 Y105.72 E1.01546 F6000 ; Print pattern wall
G1 X83.1432 Y126.9332 E1.01546 F6000 ; Print pattern wall
G1 E-6.5 F1500 ; Retract
G0 X83.7189 Y84.5068 F18000 ; Move to start next pattern wall
G1 E6.5 F1500 ; Un-retract
G1 X104.9321 Y105.72 E1.01546 F6000 ; Print pattern wall
G1 X83.7189 Y126.9332 E1.01546 F6000 ; Print pattern wall
G1 E-6.5 F1500 ; Retract
G0 X84.2946 Y84.5068 F18000 ; Move to start next pattern wall
G1 E6.5 F1500 ; Un-retract
G1 X105.5078 Y105.72 E1.01546 F6000 ; Print pattern wall
G1 X84.2946 Y126.9332 E1.01546 F6000 ; Print pattern wall
G1 E-6.5 F1500 ; Retract
G0 X86.7446 Y84.5068 F18000 ; Move to next pattern
G1 E6.5 F1500 ; Un-retract
SET_PRESSURE_ADVANCE ADVANCE=0.05 ; Set pressure advance
M117 PA 0.05
G1 X107.9578 Y105.72 E1.01546 F6000 ; Print pattern wall
G1 X86.7446 Y126.9332 E1.01546 F6000 ; Print pattern wall
G1 E-6.5 F1500 ; Retract
G0 X87.3203 Y84.5068 F18000 ; Move to start next pattern wall
G1 E6.5 F1500 ; Un-retract
G1 X108.5335 Y105.72 E1.01546 F6000 ; Print pattern wall
G1 X87.3203 Y126.9332 E1.01546 F6000 ; Print pattern wall
G1 E-6.5 F1500 ; Retract
G0 X87.896 Y84.5068 F18000 ; Move to start next pattern wall
G1 E6.5 F1500 ; Un-retract
G1 X109.1092 Y105.72 E1.01546 F6000 ; Print pattern wall
G1 X87.896 Y126.9332 E1.01546 F6000 ; Print pattern wall
G1 E-6.5 F1500 ; Retract
G0 X90.346 Y84.5068 F18000 ; Move to next pattern
G1 E6.5 F1500 ; Un-retract
SET_PRESSURE_ADVANCE ADVANCE=0.1 ; Set pressure advance
M117 PA 0.1
G1 X111.5592 Y105.72 E1.01546 F6000 ; Print pattern wall
G1 X90.346 Y126.9332 E1.01546 F6000 ; Print pattern wall
G1 E-6.5 F1500 ; Retract
G0 X90.9217 Y84.5068 F18000 ; Move to start next pattern wall
G1 E6.5 F1500 ; Un-retract
G1 X112.1349 Y105.72 E1.01546 F6000 ; Print pattern wall
G1 X90.9217 Y126.9332 E1.01546 F6000 ; Print pattern wall
G1 E-6.5 F1500 ; Retract
G0 X91.4974 Y84.5068 F18000 ; Move to start next pattern wall
G1 E6.5 F1500 ; Un-retract
G1 X112.7106 Y105.72 E1.01546 F6000 ; Print pattern wall
G1 X91.4974 Y126.9332 E1.01546 F6000 ; Print pattern wall
G1 E-6.5 F1500 ; Retract
G0 X93.9474 Y84.5068 F18000 ; Move to next pattern
G1 E6.5 F1500 ; Un-retract
SET_PRESSURE_ADVANCE ADVANCE=0.15 ; Set pressure advance
M117 PA 0.15
G1 X115.1606 Y105.72 E1.01546 F6000 ; Print pattern wall
G1 X93.9474 Y126.9332 E1.01546 F6000 ; Print pattern wall
G1 E-6.5 F1500 ; Retract
G0 X94.5231 Y84.5068 F18000 ; Move to start next pattern wall
G1 E6.5 F1500 ; Un-retract
G1 X115.7363 Y105.72 E1.01546 F6000 ; Print pattern wall
G1 X94.5231 Y126.9332 E1.01546 F6000 ; Print pattern wall
G1 E-6.5 F1500 ; Retract
G0 X95.0988 Y84.5068 F18000 ; Move to start next pattern wall
G1 E6.5 F1500 ; Un-retract
G1 X116.312 Y105.72 E1.01546 F6000 ; Print pattern wall
G1 X95.0988 Y126.9332 E1.01546 F6000 ; Print pattern wall
G1 E-6.5 F1500 ; Retract
G0 X97.5488 Y84.5068 F18000 ; Move to next pattern
G1 E6.5 F1500 ; Un-retract
SET_PRESSURE_ADVANCE ADVANCE=0.2 ; Set pressure advance
M117 PA 0.2
G1 X118.762 Y105.72 E1.01546 F6000 ; Print pattern wall
G1 X97.5488 Y126.9332 E1.01546 F6000 ; Print pattern wall
G1 E-6.5 F1500 ; Retract
G0 X98.1245 Y84.5068 F18000 ; Move to start next pattern wall
G1 E6.5 F1500 ; Un-retract
G1 X119.3377 Y105.72 E1.01546 F6000 ; Print pattern wall
G1 X98.1245 Y126.9332 E1.01546 F6000 ; Print pattern wall
G1 E-6.5 F1500 ; Retract
G0 X98.7002 Y84.5068 F18000 ; Move to start next pattern wall
G1 E6.5 F1500 ; Un-retract
G1 X119.9134 Y105.72 E1.01546 F6000 ; Print pattern wall
G1 X98.7002 Y126.9332 E1.01546 F6000 ; Print pattern wall
G1 E-6.5 F1500 ; Retract
G0 X101.1502 Y84.5068 F18000 ; Move to next pattern
G1 E6.5 F1500 ; Un-retract
SET_PRESSURE_ADVANCE ADVANCE=0.25 ; Set pressure advance
M117 PA 0.25
G1 X122.3634 Y105.72 E1.01546 F6000 ; Print pattern wall
G1 X101.1502 Y126.9332 E1.01546 F6000 ; Print pattern wall
G1 E-6.5 F1500 ; Retract
G0 X101.7259 Y84.5068 F18000 ; Move to start next pattern wall
G1 E6.5 F1500 ; Un-retract
G1 X122.9391 Y105.72 E1.01546 F6000 ; Print pattern wall
G1 X101.7259 Y126.9332 E1.01546 F6000 ; Print pattern wall
G1 E-6.5 F1500 ; Retract
G0 X102.3016 Y84.5068 F18000 ; Move to start next pattern wall
G1 E6.5 F1500 ; Un-retract
G1 X123.5148 Y105.72 E1.01546 F6000 ; Print pattern wall
G1 X102.3016 Y126.9332 E1.01546 F6000 ; Print pattern wall
G1 E-6.5 F1500 ; Retract
G0 X104.7516 Y84.5068 F18000 ; Move to next pattern
G1 E6.5 F1500 ; Un-retract
SET_PRESSURE_ADVANCE ADVANCE=0.3 ; Set pressure advance
M117 PA 0.3
G1 X125.9648 Y105.72 E1.01546 F6000 ; Print pattern wall
G1 X104.7516 Y126.9332 E1.01546 F6000 ; Print pattern wall
G1 E-6.5 F1500 ; Retract
G0 X105.3273 Y84.5068 F18000 ; Move to start next pattern wall
G1 E6.5 F1500 ; Un-retract
G1 X126.5405 Y105.72 E1.01546 F6000 ; Print pattern wall
G1 X105.3273 Y126.9332 E1.01546 F6000 ; Print pattern wall
G1 E-6.5 F1500 ; Retract
G0 X105.903 Y84.5068 F18000 ; Move to start next pattern wall
G1 E6.5 F1500 ; Un-retract
G1 X127.1162 Y105.72 E1.01546 F6000 ; Print pattern wall
G1 X105.903 Y126.9332 E1.01546 F6000 ; Print pattern wall
G1 E-6.5 F1500 ; Retract
G0 X108.353 Y84.5068 F18000 ; Move to next pattern
G1 E6.5 F1500 ; Un-retract
SET_PRESSURE_ADVANCE ADVANCE=0.35 ; Set pressure advance
M117 PA 0.35
G1 X129.5662 Y105.72 E1.01546 F6000 ; Print pattern wall
G1 X108.353 Y126.9332 E1.01546 F6000 ; Print pattern wall
G1 E-6.5 F1500 ; Retract
G0 X108.9287 Y84.5068 F18000 ; Move to start next pattern wall
G1 E6.5 F1500 ; Un-retract
G1 X130.1419 Y105.72 E1.01546 F6000 ; Print pattern wall
G1 X108.9287 Y126.9332 E1.01546 F6000 ; Print pattern wall
G1 E-6.5 F1500 ; Retract
G0 X109.5044 Y84.5068 F18000 ; Move to start next pattern wall
G1 E6.5 F1500 ; Un-retract
G1 X130.7176 Y105.72 E1.01546 F6000 ; Print pattern wall
G1 X109.5044 Y126.9332 E1.01546 F6000 ; Print pattern wall
G1 E-6.5 F1500 ; Retract
G0 X111.9544 Y84.5068 F18000 ; Move to next pattern
G1 E6.5 F1500 ; Un-retract
SET_PRESSURE_ADVANCE ADVANCE=0.4 ; Set pressure advance
M117 PA 0.4
G1 X133.1676 Y105.72 E1.01546 F6000 ; Print pattern wall
G1 X111.9544 Y126.9332 E1.01546 F6000 ; Print pattern wall
G1 E-6.5 F1500 ; Retract
G0 X112.5301 Y84.5068 F18000 ; Move to start next pattern wall
G1 E6.5 F1500 ; Un-retract
G1 X133.7433 Y105.72 E1.01546 F6000 ; Print pattern wall
G1 X112.5301 Y126.9332 E1.01546 F6000 ; Print pattern wall
G1 E-6.5 F1500 ; Retract
G0 X113.1058 Y84.5068 F18000 ; Move to start next pattern wall
G1 E6.5 F1500 ; Un-retract
G1 X134.319 Y105.72 E1.01546 F6000 ; Print pattern wall
G1 X113.1058 Y126.9332 E1.01546 F6000 ; Print pattern wall
G1 E-6.5 F1500 ; Retract
G0 X115.5558 Y84.5068 F18000 ; Move to next pattern
G1 E6.5 F1500 ; Un-retract
SET_PRESSURE_ADVANCE ADVANCE=0.45 ; Set pressure advance
M117 PA 0.45
G1 X136.769 Y105.72 E1.01546 F6000 ; Print pattern wall
G1 X115.5558 Y126.9332 E1.01546 F6000 ; Print pattern wall
G1 E-6.5 F1500 ; Retract
G0 X116.1315 Y84.5068 F18000 ; Move to start next pattern wall
G1 E6.5 F1500 ; Un-retract
G1 X137.3447 Y105.72 E1.01546 F6000 ; Print pattern wall
G1 X116.1315 Y126.9332 E1.01546 F6000 ; Print pattern wall
G1 E-6.5 F1500 ; Retract
G0 X116.7072 Y84.5068 F18000 ; Move to start next pattern wall
G1 E6.5 F1500 ; Un-retract
G1 X137.9204 Y105.72 E1.01546 F6000 ; Print pattern wall
G1 X116.7072 Y126.9332 E1.01546 F6000 ; Print pattern wall
G1 E-6.5 F1500 ; Retract
G0 X119.1572 Y84.5068 F18000 ; Move to next pattern
G1 E6.5 F1500 ; Un-retract
SET_PRESSURE_ADVANCE ADVANCE=0.5 ; Set pressure advance
M117 PA 0.5
G1 X140.3704 Y105.72 E1.01546 F6000 ; Print pattern wall
G1 X119.1572 Y126.9332 E1.01546 F6000 ; Print pattern wall
G1 E-6.5 F1500 ; Retract
G0 X119.7329 Y84.5068 F18000 ; Move to start next pattern wall
G1 E6.5 F1500 ; Un-retract
G1 X140.9461 Y105.72 E1.01546 F6000 ; Print pattern wall
G1 X119.7329 Y126.9332 E1.01546 F6000 ; Print pattern wall
G1 E-6.5 F1500 ; Retract
G0 X120.3085 Y84.5068 F18000 ; Move to start next pattern wall
G1 E6.5 F1500 ; Un-retract
G1 X141.5218 Y105.72 E1.01546 F6000 ; Print pattern wall
G1 X120.3085 Y126.9332 E1.01546 F6000 ; Print pattern wall
G1 E-6.5 F1500 ; Retract
G0 X122.7585 Y84.5068 F18000 ; Move to next pattern
G1 E6.5 F1500 ; Un-retract
SET_PRESSURE_ADVANCE ADVANCE=0.55 ; Set pressure advance
M117 PA 0.55
G1 X143.9718 Y105.72 E1.01546 F6000 ; Print pattern wall
G1 X122.7585 Y126.9332 E1.01546 F6000 ; Print pattern wall
G1 E-6.5 F1500 ; Retract
G0 X123.3342 Y84.5068 F18000 ; Move to start next pattern wall
G1 E6.5 F1500 ; Un-retract
G1 X144.5474 Y105.72 E1.01546 F6000 ; Print pattern wall
G1 X123.3342 Y126.9332 E1.01546 F6000 ; Print pattern wall
G1 E-6.5 F1500 ; Retract
G0 X123.9099 Y84.5068 F18000 ; Move to start next pattern wall
G1 E6.5 F1500 ; Un-retract
G1 X145.1231 Y105.72 E1.01546 F6000 ; Print pattern wall
G1 X123.9099 Y126.9332 E1.01546 F6000 ; Print pattern wall
G1 E-6.5 F1500 ; Retract
G0 X126.3599 Y84.5068 F18000 ; Move to next pattern
G1 E6.5 F1500 ; Un-retract
SET_PRESSURE_ADVANCE ADVANCE=0.6 ; Set pressure advance
M117 PA 0.6
G1 X147.5731 Y105.72 E1.01546 F6000 ; Print pattern wall
G1 X126.3599 Y126.9332 E1.01546 F6000 ; Print pattern wall
G1 E-6.5 F1500 ; Retract
G0 X126.9356 Y84.5068 F18000 ; Move to start next pattern wall
G1 E6.5 F1500 ; Un-retract
G1 X148.1488 Y105.72 E1.01546 F6000 ; Print pattern wall
G1 X126.9356 Y126.9332 E1.01546 F6000 ; Print pattern wall
G1 E-6.5 F1500 ; Retract
G0 X127.5113 Y84.5068 F18000 ; Move to start next pattern wall
G1 E6.5 F1500 ; Un-retract
G1 X148.7245 Y105.72 E1.01546 F6000 ; Print pattern wall
G1 X127.5113 Y126.9332 E1.01546 F6000 ; Print pattern wall
G1 E-6.5 F1500 ; Retract
G0 X129.9613 Y84.5068 F18000 ; Move to next pattern
G1 E6.5 F1500 ; Un-retract
SET_PRESSURE_ADVANCE ADVANCE=0.65 ; Set pressure advance
M117 PA 0.65
G1 X151.1745 Y105.72 E1.01546 F6000 ; Print pattern wall
G1 X129.9613 Y126.9332 E1.01546 F6000 ; Print pattern wall
G1 E-6.5 F1500 ; Retract
G0 X130.537 Y84.5068 F18000 ; Move to start next pattern wall
G1 E6.5 F1500 ; Un-retract
G1 X151.7502 Y105.72 E1.01546 F6000 ; Print pattern wall
G1 X130.537 Y126.9332 E1.01546 F6000 ; Print pattern wall
G1 E-6.5 F1500 ; Retract
G0 X131.1127 Y84.5068 F18000 ; Move to start next pattern wall
G1 E6.5 F1500 ; Un-retract
G1 X152.3259 Y105.72 E1.01546 F6000 ; Print pattern wall
G1 X131.1127 Y126.9332 E1.01546 F6000 ; Print pattern wall
G1 E-6.5 F1500 ; Retract
G0 X133.5627 Y84.5068 F18000 ; Move to next pattern
G1 E6.5 F1500 ; Un-retract
SET_PRESSURE_ADVANCE ADVANCE=0.7 ; Set pressure advance
M117 PA 0.7
G1 X154.7759 Y105.72 E1.01546 F6000 ; Print pattern wall
G1 X133.5627 Y126.9332 E1.01546 F6000 ; Print pattern wall
G1 E-6.5 F1500 ; Retract
G0 X134.1384 Y84.5068 F18000 ; Move to start next pattern wall
G1 E6.5 F1500 ; Un-retract
G1 X155.3516 Y105.72 E1.01546 F6000 ; Print pattern wall
G1 X134.1384 Y126.9332 E1.01546 F6000 ; Print pattern wall
G1 E-6.5 F1500 ; Retract
G0 X134.7141 Y84.5068 F18000 ; Move to start next pattern wall
G1 E6.5 F1500 ; Un-retract
G1 X155.9273 Y105.72 E1.01546 F6000 ; Print pattern wall
G1 X134.7141 Y126.9332 E1.01546 F6000 ; Print pattern wall
G1 E-6.5 F1500 ; Retract
G0 X137.1641 Y84.5068 F18000 ; Move to next pattern
G1 E6.5 F1500 ; Un-retract
SET_PRESSURE_ADVANCE ADVANCE=0.75 ; Set pressure advance
M117 PA 0.75
G1 X158.3773 Y105.72 E1.01546 F6000 ; Print pattern wall
G1 X137.1641 Y126.9332 E1.01546 F6000 ; Print pattern wall
G1 E-6.5 F1500 ; Retract
G0 X137.7398 Y84.5068 F18000 ; Move to start next pattern wall
G1 E6.5 F1500 ; Un-retract
G1 X158.953 Y105.72 E1.01546 F6000 ; Print pattern wall
G1 X137.7398 Y126.9332 E1.01546 F6000 ; Print pattern wall
G1 E-6.5 F1500 ; Retract
G0 X138.3155 Y84.5068 F18000 ; Move to start next pattern wall
G1 E6.5 F1500 ; Un-retract
G1 X159.5287 Y105.72 E1.01546 F6000 ; Print pattern wall
G1 X138.3155 Y126.9332 E1.01546 F6000 ; Print pattern wall
G1 E-6.5 F1500 ; Retract
G0 X140.7655 Y84.5068 F18000 ; Move to next pattern
G1 E6.5 F1500 ; Un-retract
SET_PRESSURE_ADVANCE ADVANCE=0.8 ; Set pressure advance
M117 PA 0.8
G1 X161.9787 Y105.72 E1.01546 F6000 ; Print pattern wall
G1 X140.7655 Y126.9332 E1.01546 F6000 ; Print pattern wall
G1 E-6.5 F1500 ; Retract
G0 X141.3412 Y84.5068 F18000 ; Move to start next pattern wall
G1 E6.5 F1500 ; Un-retract
G1 X162.5544 Y105.72 E1.01546 F6000 ; Print pattern wall
G1 X141.3412 Y126.9332 E1.01546 F6000 ; Print pattern wall
G1 E-6.5 F1500 ; Retract
G0 X141.9169 Y84.5068 F18000 ; Move to start next pattern wall
G1 E6.5 F1500 ; Un-retract
G1 X163.1301 Y105.72 E1.01546 F6000 ; Print pattern wall
G1 X141.9169 Y126.9332 E1.01546 F6000 ; Print pattern wall
G1 E-6.5 F1500 ; Retract
G0 X144.3669 Y84.5068 F18000 ; Move to next pattern
G1 E6.5 F1500 ; Un-retract
SET_PRESSURE_ADVANCE ADVANCE=0.85 ; Set pressure advance
M117 PA 0.85
G1 X165.5801 Y105.72 E1.01546 F6000 ; Print pattern wall
G1 X144.3669 Y126.9332 E1.01546 F6000 ; Print pattern wall
G1 E-6.5 F1500 ; Retract
G0 X144.9426 Y84.5068 F18000 ; Move to start next pattern wall
G1 E6.5 F1500 ; Un-retract
G1 X166.1558 Y105.72 E1.01546 F6000 ; Print pattern wall
G1 X144.9426 Y126.9332 E1.01546 F6000 ; Print pattern wall
G1 E-6.5 F1500 ; Retract
G0 X145.5183 Y84.5068 F18000 ; Move to start next pattern wall
G1 E6.5 F1500 ; Un-retract
G1 X166.7315 Y105.72 E1.01546 F6000 ; Print pattern wall
G1 X145.5183 Y126.9332 E1.01546 F6000 ; Print pattern wall
G1 E-6.5 F1500 ; Retract
G0 X147.9683 Y84.5068 F18000 ; Move to next pattern
G1 E6.5 F1500 ; Un-retract
SET_PRESSURE_ADVANCE ADVANCE=0.9 ; Set pressure advance
M117 PA 0.9
G1 X169.1815 Y105.72 E1.01546 F6000 ; Print pattern wall
G1 X147.9683 Y126.9332 E1.01546 F6000 ; Print pattern wall
G1 E-6.5 F1500 ; Retract
G0 X148.544 Y84.5068 F18000 ; Move to start next pattern wall
G1 E6.5 F1500 ; Un-retract
G1 X169.7572 Y105.72 E1.01546 F6000 ; Print pattern wall
G1 X148.544 Y126.9332 E1.01546 F6000 ; Print pattern wall
G1 E-6.5 F1500 ; Retract
G0 X149.1197 Y84.5068 F18000 ; Move to start next pattern wall
G1 E6.5 F1500 ; Un-retract
G1 X170.3329 Y105.72 E1.01546 F6000 ; Print pattern wall
G1 X149.1197 Y126.9332 E1.01546 F6000 ; Print pattern wall
G1 E-6.5 F1500 ; Retract
G0 X151.5697 Y84.5068 F18000 ; Move to next pattern
G1 E6.5 F1500 ; Un-retract
SET_PRESSURE_ADVANCE ADVANCE=0.95 ; Set pressure advance
M117 PA 0.95
G1 X172.7829 Y105.72 E1.01546 F6000 ; Print pattern wall
G1 X151.5697 Y126.9332 E1.01546 F6000 ; Print pattern wall
G1 E-6.5 F1500 ; Retract
G0 X152.1454 Y84.5068 F18000 ; Move to start next pattern wall
G1 E6.5 F1500 ; Un-retract
G1 X173.3586 Y105.72 E1.01546 F6000 ; Print pattern wall
G1 X152.1454 Y126.9332 E1.01546 F6000 ; Print pattern wall
G1 E-6.5 F1500 ; Retract
G0 X152.7211 Y84.5068 F18000 ; Move to start next pattern wall
G1 E6.5 F1500 ; Un-retract
G1 X173.9343 Y105.72 E1.01546 F6000 ; Print pattern wall
G1 X152.7211 Y126.9332 E1.01546 F6000 ; Print pattern wall
G1 E-6.5 F1500 ; Retract
G0 X155.1711 Y84.5068 F18000 ; Move to next pattern
G1 E6.5 F1500 ; Un-retract
SET_PRESSURE_ADVANCE ADVANCE=1 ; Set pressure advance
M117 PA 1
G1 X176.3843 Y105.72 E1.01546 F6000 ; Print pattern wall
G1 X155.1711 Y126.9332 E1.01546 F6000 ; Print pattern wall
G1 E-6.5 F1500 ; Retract
G0 X155.7468 Y84.5068 F18000 ; Move to start next pattern wall
G1 E6.5 F1500 ; Un-retract
G1 X176.96 Y105.72 E1.01546 F6000 ; Print pattern wall
G1 X155.7468 Y126.9332 E1.01546 F6000 ; Print pattern wall
G1 E-6.5 F1500 ; Retract
G0 X156.3225 Y84.5068 F18000 ; Move to start next pattern wall
G1 E6.5 F1500 ; Un-retract
G1 X177.5357 Y105.72 E1.01546 F6000 ; Print pattern wall
G1 X156.3225 Y126.9332 E1.01546 F6000 ; Print pattern wall
G1 E-6.5 F1500 ; Retract
G0 X83.1432 Y84.5068 F18000 ; Move back to start position
G1 E6.5 F1500 ; Un-retract
G0 Z0.85 F18000 ; Move to layer height
SET_PRESSURE_ADVANCE ADVANCE=0 ; Set pressure advance
M117 PA 0
G1 X104.3564 Y105.72 E1.01546 F6000 ; Print pattern wall
G1 X83.1432 Y126.9332 E1.01546 F6000 ; Print pattern wall
G1 E-6.5 F1500 ; Retract
G0 X83.7189 Y84.5068 F18000 ; Move to start next pattern wall
G1 E6.5 F1500 ; Un-retract
G1 X104.9321 Y105.72 E1.01546 F6000 ; Print pattern wall
G1 X83.7189 Y126.9332 E1.01546 F6000 ; Print pattern wall
G1 E-6.5 F1500 ; Retract
G0 X84.2946 Y84.5068 F18000 ; Move to start next pattern wall
G1 E6.5 F1500 ; Un-retract
G1 X105.5078 Y105.72 E1.01546 F6000 ; Print pattern wall
G1 X84.2946 Y126.9332 E1.01546 F6000 ; Print pattern wall
G1 E-6.5 F1500 ; Retract
G0 X86.7446 Y84.5068 F18000 ; Move to next pattern
G1 E6.5 F1500 ; Un-retract
SET_PRESSURE_ADVANCE ADVANCE=0.05 ; Set pressure advance
M117 PA 0.05
G1 X107.9578 Y105.72 E1.01546 F6000 ; Print pattern wall
G1 X86.7446 Y126.9332 E1.01546 F6000 ; Print pattern wall
G1 E-6.5 F1500 ; Retract
G0 X87.3203 Y84.5068 F18000 ; Move to start next pattern wall
G1 E6.5 F1500 ; Un-retract
G1 X108.5335 Y105.72 E1.01546 F6000 ; Print pattern wall
G1 X87.3203 Y126.9332 E1.01546 F6000 ; Print pattern wall
G1 E-6.5 F1500 ; Retract
G0 X87.896 Y84.5068 F18000 ; Move to start next pattern wall
G1 E6.5 F1500 ; Un-retract
G1 X109.1092 Y105.72 E1.01546 F6000 ; Print pattern wall
G1 X87.896 Y126.9332 E1.01546 F6000 ; Print pattern wall
G1 E-6.5 F1500 ; Retract
G0 X90.346 Y84.5068 F18000 ; Move to next pattern
G1 E6.5 F1500 ; Un-retract
SET_PRESSURE_ADVANCE ADVANCE=0.1 ; Set pressure advance
M117 PA 0.1
G1 X111.5592 Y105.72 E1.01546 F6000 ; Print pattern wall
G1 X90.346 Y126.9332 E1.01546 F6000 ; Print pattern wall
G1 E-6.5 F1500 ; Retract
G0 X90.9217 Y84.5068 F18000 ; Move to start next pattern wall
G1 E6.5 F1500 ; Un-retract
G1 X112.1349 Y105.72 E1.01546 F6000 ; Print pattern wall
G1 X90.9217 Y126.9332 E1.01546 F6000 ; Print pattern wall
G1 E-6.5 F1500 ; Retract
G0 X91.4974 Y84.5068 F18000 ; Move to start next pattern wall
G1 E6.5 F1500 ; Un-retract
G1 X112.7106 Y105.72 E1.01546 F6000 ; Print pattern wall
G1 X91.4974 Y126.9332 E1.01546 F6000 ; Print pattern wall
G1 E-6.5 F1500 ; Retract
G0 X93.9474 Y84.5068 F18000 ; Move to next pattern
G1 E6.5 F1500 ; Un-retract
SET_PRESSURE_ADVANCE ADVANCE=0.15 ; Set pressure advance
M117 PA 0.15
G1 X115.1606 Y105.72 E1.01546 F6000 ; Print pattern wall
G1 X93.9474 Y126.9332 E1.01546 F6000 ; Print pattern wall
G1 E-6.5 F1500 ; Retract
G0 X94.5231 Y84.5068 F18000 ; Move to start next pattern wall
G1 E6.5 F1500 ; Un-retract
G1 X115.7363 Y105.72 E1.01546 F6000 ; Print pattern wall
G1 X94.5231 Y126.9332 E1.01546 F6000 ; Print pattern wall
G1 E-6.5 F1500 ; Retract
G0 X95.0988 Y84.5068 F18000 ; Move to start next pattern wall
G1 E6.5 F1500 ; Un-retract
G1 X116.312 Y105.72 E1.01546 F6000 ; Print pattern wall
G1 X95.0988 Y126.9332 E1.01546 F6000 ; Print pattern wall
G1 E-6.5 F1500 ; Retract
G0 X97.5488 Y84.5068 F18000 ; Move to next pattern
G1 E6.5 F1500 ; Un-retract
SET_PRESSURE_ADVANCE ADVANCE=0.2 ; Set pressure advance
M117 PA 0.2
G1 X118.762 Y105.72 E1.01546 F6000 ; Print pattern wall
G1 X97.5488 Y126.9332 E1.01546 F6000 ; Print pattern wall
G1 E-6.5 F1500 ; Retract
G0 X98.1245 Y84.5068 F18000 ; Move to start next pattern wall
G1 E6.5 F1500 ; Un-retract
G1 X119.3377 Y105.72 E1.01546 F6000 ; Print pattern wall
G1 X98.1245 Y126.9332 E1.01546 F6000 ; Print pattern wall
G1 E-6.5 F1500 ; Retract
G0 X98.7002 Y84.5068 F18000 ; Move to start next pattern wall
G1 E6.5 F1500 ; Un-retract
G1 X119.9134 Y105.72 E1.01546 F6000 ; Print pattern wall
G1 X98.7002 Y126.9332 E1.01546 F6000 ; Print pattern wall
G1 E-6.5 F1500 ; Retract
G0 X101.1502 Y84.5068 F18000 ; Move to next pattern
G1 E6.5 F1500 ; Un-retract
SET_PRESSURE_ADVANCE ADVANCE=0.25 ; Set pressure advance
M117 PA 0.25
G1 X122.3634 Y105.72 E1.01546 F6000 ; Print pattern wall
G1 X101.1502 Y126.9332 E1.01546 F6000 ; Print pattern wall
G1 E-6.5 F1500 ; Retract
G0 X101.7259 Y84.5068 F18000 ; Move to start next pattern wall
G1 E6.5 F1500 ; Un-retract
G1 X122.9391 Y105.72 E1.01546 F6000 ; Print pattern wall
G1 X101.7259 Y126.9332 E1.01546 F6000 ; Print pattern wall
G1 E-6.5 F1500 ; Retract
G0 X102.3016 Y84.5068 F18000 ; Move to start next pattern wall
G1 E6.5 F1500 ; Un-retract
G1 X123.5148 Y105.72 E1.01546 F6000 ; Print pattern wall
G1 X102.3016 Y126.9332 E1.01546 F6000 ; Print pattern wall
G1 E-6.5 F1500 ; Retract
G0 X104.7516 Y84.5068 F18000 ; Move to next pattern
G1 E6.5 F1500 ; Un-retract
SET_PRESSURE_ADVANCE ADVANCE=0.3 ; Set pressure advance
M117 PA 0.3
G1 X125.9648 Y105.72 E1.01546 F6000 ; Print pattern wall
G1 X104.7516 Y126.9332 E1.01546 F6000 ; Print pattern wall
G1 E-6.5 F1500 ; Retract
G0 X105.3273 Y84.5068 F18000 ; Move to start next pattern wall
G1 E6.5 F1500 ; Un-retract
G1 X126.5405 Y105.72 E1.01546 F6000 ; Print pattern wall
G1 X105.3273 Y126.9332 E1.01546 F6000 ; Print pattern wall
G1 E-6.5 F1500 ; Retract
G0 X105.903 Y84.5068 F18000 ; Move to start next pattern wall
G1 E6.5 F1500 ; Un-retract
G1 X127.1162 Y105.72 E1.01546 F6000 ; Print pattern wall
G1 X105.903 Y126.9332 E1.01546 F6000 ; Print pattern wall
G1 E-6.5 F1500 ; Retract
G0 X108.353 Y84.5068 F18000 ; Move to next pattern
G1 E6.5 F1500 ; Un-retract
SET_PRESSURE_ADVANCE ADVANCE=0.35 ; Set pressure advance
M117 PA 0.35
G1 X129.5662 Y105.72 E1.01546 F6000 ; Print pattern wall
G1 X108.353 Y126.9332 E1.01546 F6000 ; Print pattern wall
G1 E-6.5 F1500 ; Retract
G0 X108.9287 Y84.5068 F18000 ; Move to start next pattern wall
G1 E6.5 F1500 ; Un-retract
G1 X130.1419 Y105.72 E1.01546 F6000 ; Print pattern wall
G1 X108.9287 Y126.9332 E1.01546 F6000 ; Print pattern wall
G1 E-6.5 F1500 ; Retract
G0 X109.5044 Y84.5068 F18000 ; Move to start next pattern wall
G1 E6.5 F1500 ; Un-retract
G1 X130.7176 Y105.72 E1.01546 F6000 ; Print pattern wall
G1 X109.5044 Y126.9332 E1.01546 F6000 ; Print pattern wall
G1 E-6.5 F1500 ; Retract
G0 X111.9544 Y84.5068 F18000 ; Move to next pattern
G1 E6.5 F1500 ; Un-retract
SET_PRESSURE_ADVANCE ADVANCE=0.4 ; Set pressure advance
M117 PA 0.4
G1 X133.1676 Y105.72 E1.01546 F6000 ; Print pattern wall
G1 X111.9544 Y126.9332 E1.01546 F6000 ; Print pattern wall
G1 E-6.5 F1500 ; Retract
G0 X112.5301 Y84.5068 F18000 ; Move to start next pattern wall
G1 E6.5 F1500 ; Un-retract
G1 X133.7433 Y105.72 E1.01546 F6000 ; Print pattern wall
G1 X112.5301 Y126.9332 E1.01546 F6000 ; Print pattern wall
G1 E-6.5 F1500 ; Retract
G0 X113.1058 Y84.5068 F18000 ; Move to start next pattern wall
G1 E6.5 F1500 ; Un-retract
G1 X134.319 Y105.72 E1.01546 F6000 ; Print pattern wall
G1 X113.1058 Y126.9332 E1.01546 F6000 ; Print pattern wall
G1 E-6.5 F1500 ; Retract
G0 X115.5558 Y84.5068 F18000 ; Move to next pattern
G1 E6.5 F1500 ; Un-retract
SET_PRESSURE_ADVANCE ADVANCE=0.45 ; Set pressure advance
M117 PA 0.45
G1 X136.769 Y105.72 E1.01546 F6000 ; Print pattern wall
G1 X115.5558 Y126.9332 E1.01546 F6000 ; Print pattern wall
G1 E-6.5 F1500 ; Retract
G0 X116.1315 Y84.5068 F18000 ; Move to start next pattern wall
G1 E6.5 F1500 ; Un-retract
G1 X137.3447 Y105.72 E1.01546 F6000 ; Print pattern wall
G1 X116.1315 Y126.9332 E1.01546 F6000 ; Print pattern wall
G1 E-6.5 F1500 ; Retract
G0 X116.7072 Y84.5068 F18000 ; Move to start next pattern wall
G1 E6.5 F1500 ; Un-retract
G1 X137.9204 Y105.72 E1.01546 F6000 ; Print pattern wall
G1 X116.7072 Y126.9332 E1.01546 F6000 ; Print pattern wall
G1 E-6.5 F1500 ; Retract
G0 X119.1572 Y84.5068 F18000 ; Move to next pattern
G1 E6.5 F1500 ; Un-retract
SET_PRESSURE_ADVANCE ADVANCE=0.5 ; Set pressure advance
M117 PA 0.5
G1 X140.3704 Y105.72 E1.01546 F6000 ; Print pattern wall
G1 X119.1572 Y126.9332 E1.01546 F6000 ; Print pattern wall
G1 E-6.5 F1500 ; Retract
G0 X119.7329 Y84.5068 F18000 ; Move to start next pattern wall
G1 E6.5 F1500 ; Un-retract
G1 X140.9461 Y105.72 E1.01546 F6000 ; Print pattern wall
G1 X119.7329 Y126.9332 E1.01546 F6000 ; Print pattern wall
G1 E-6.5 F1500 ; Retract
G0 X120.3085 Y84.5068 F18000 ; Move to start next pattern wall
G1 E6.5 F1500 ; Un-retract
G1 X141.5218 Y105.72 E1.01546 F6000 ; Print pattern wall
G1 X120.3085 Y126.9332 E1.01546 F6000 ; Print pattern wall
G1 E-6.5 F1500 ; Retract
G0 X122.7585 Y84.5068 F18000 ; Move to next pattern
G1 E6.5 F1500 ; Un-retract
SET_PRESSURE_ADVANCE ADVANCE=0.55 ; Set pressure advance
M117 PA 0.55
G1 X143.9718 Y105.72 E1.01546 F6000 ; Print pattern wall
G1 X122.7585 Y126.9332 E1.01546 F6000 ; Print pattern wall
G1 E-6.5 F1500 ; Retract
G0 X123.3342 Y84.5068 F18000 ; Move to start next pattern wall
G1 E6.5 F1500 ; Un-retract
G1 X144.5474 Y105.72 E1.01546 F6000 ; Print pattern wall
G1 X123.3342 Y126.9332 E1.01546 F6000 ; Print pattern wall
G1 E-6.5 F1500 ; Retract
G0 X123.9099 Y84.5068 F18000 ; Move to start next pattern wall
G1 E6.5 F1500 ; Un-retract
G1 X145.1231 Y105.72 E1.01546 F6000 ; Print pattern wall
G1 X123.9099 Y126.9332 E1.01546 F6000 ; Print pattern wall
G1 E-6.5 F1500 ; Retract
G0 X126.3599 Y84.5068 F18000 ; Move to next pattern
G1 E6.5 F1500 ; Un-retract
SET_PRESSURE_ADVANCE ADVANCE=0.6 ; Set pressure advance
M117 PA 0.6
G1 X147.5731 Y105.72 E1.01546 F6000 ; Print pattern wall
G1 X126.3599 Y126.9332 E1.01546 F6000 ; Print pattern wall
G1 E-6.5 F1500 ; Retract
G0 X126.9356 Y84.5068 F18000 ; Move to start next pattern wall
G1 E6.5 F1500 ; Un-retract
G1 X148.1488 Y105.72 E1.01546 F6000 ; Print pattern wall
G1 X126.9356 Y126.9332 E1.01546 F6000 ; Print pattern wall
G1 E-6.5 F1500 ; Retract
G0 X127.5113 Y84.5068 F18000 ; Move to start next pattern wall
G1 E6.5 F1500 ; Un-retract
G1 X148.7245 Y105.72 E1.01546 F6000 ; Print pattern wall
G1 X127.5113 Y126.9332 E1.01546 F6000 ; Print pattern wall
G1 E-6.5 F1500 ; Retract
G0 X129.9613 Y84.5068 F18000 ; Move to next pattern
G1 E6.5 F1500 ; Un-retract
SET_PRESSURE_ADVANCE ADVANCE=0.65 ; Set pressure advance
M117 PA 0.65
G1 X151.1745 Y105.72 E1.01546 F6000 ; Print pattern wall
G1 X129.9613 Y126.9332 E1.01546 F6000 ; Print pattern wall
G1 E-6.5 F1500 ; Retract
G0 X130.537 Y84.5068 F18000 ; Move to start next pattern wall
G1 E6.5 F1500 ; Un-retract
G1 X151.7502 Y105.72 E1.01546 F6000 ; Print pattern wall
G1 X130.537 Y126.9332 E1.01546 F6000 ; Print pattern wall
G1 E-6.5 F1500 ; Retract
G0 X131.1127 Y84.5068 F18000 ; Move to start next pattern wall
G1 E6.5 F1500 ; Un-retract
G1 X152.3259 Y105.72 E1.01546 F6000 ; Print pattern wall
G1 X131.1127 Y126.9332 E1.01546 F6000 ; Print pattern wall
G1 E-6.5 F1500 ; Retract
G0 X133.5627 Y84.5068 F18000 ; Move to next pattern
G1 E6.5 F1500 ; Un-retract
SET_PRESSURE_ADVANCE ADVANCE=0.7 ; Set pressure advance
M117 PA 0.7
G1 X154.7759 Y105.72 E1.01546 F6000 ; Print pattern wall
G1 X133.5627 Y126.9332 E1.01546 F6000 ; Print pattern wall
G1 E-6.5 F1500 ; Retract
G0 X134.1384 Y84.5068 F18000 ; Move to start next pattern wall
G1 E6.5 F1500 ; Un-retract
G1 X155.3516 Y105.72 E1.01546 F6000 ; Print pattern wall
G1 X134.1384 Y126.9332 E1.01546 F6000 ; Print pattern wall
G1 E-6.5 F1500 ; Retract
G0 X134.7141 Y84.5068 F18000 ; Move to start next pattern wall
G1 E6.5 F1500 ; Un-retract
G1 X155.9273 Y105.72 E1.01546 F6000 ; Print pattern wall
G1 X134.7141 Y126.9332 E1.01546 F6000 ; Print pattern wall
G1 E-6.5 F1500 ; Retract
G0 X137.1641 Y84.5068 F18000 ; Move to next pattern
G1 E6.5 F1500 ; Un-retract
SET_PRESSURE_ADVANCE ADVANCE=0.75 ; Set pressure advance
M117 PA 0.75
G1 X158.3773 Y105.72 E1.01546 F6000 ; Print pattern wall
G1 X137.1641 Y126.9332 E1.01546 F6000 ; Print pattern wall
G1 E-6.5 F1500 ; Retract
G0 X137.7398 Y84.5068 F18000 ; Move to start next pattern wall
G1 E6.5 F1500 ; Un-retract
G1 X158.953 Y105.72 E1.01546 F6000 ; Print pattern wall
G1 X137.7398 Y126.9332 E1.01546 F6000 ; Print pattern wall
G1 E-6.5 F1500 ; Retract
G0 X138.3155 Y84.5068 F18000 ; Move to start next pattern wall
G1 E6.5 F1500 ; Un-retract
G1 X159.5287 Y105.72 E1.01546 F6000 ; Print pattern wall
G1 X138.3155 Y126.9332 E1.01546 F6000 ; Print pattern wall
G1 E-6.5 F1500 ; Retract
G0 X140.7655 Y84.5068 F18000 ; Move to next pattern
G1 E6.5 F1500 ; Un-retract
SET_PRESSURE_ADVANCE ADVANCE=0.8 ; Set pressure advance
M117 PA 0.8
G1 X161.9787 Y105.72 E1.01546 F6000 ; Print pattern wall
G1 X140.7655 Y126.9332 E1.01546 F6000 ; Print pattern wall
G1 E-6.5 F1500 ; Retract
G0 X141.3412 Y84.5068 F18000 ; Move to start next pattern wall
G1 E6.5 F1500 ; Un-retract
G1 X162.5544 Y105.72 E1.01546 F6000 ; Print pattern wall
G1 X141.3412 Y126.9332 E1.01546 F6000 ; Print pattern wall
G1 E-6.5 F1500 ; Retract
G0 X141.9169 Y84.5068 F18000 ; Move to start next pattern wall
G1 E6.5 F1500 ; Un-retract
G1 X163.1301 Y105.72 E1.01546 F6000 ; Print pattern wall
G1 X141.9169 Y126.9332 E1.01546 F6000 ; Print pattern wall
G1 E-6.5 F1500 ; Retract
G0 X144.3669 Y84.5068 F18000 ; Move to next pattern
G1 E6.5 F1500 ; Un-retract
SET_PRESSURE_ADVANCE ADVANCE=0.85 ; Set pressure advance
M117 PA 0.85
G1 X165.5801 Y105.72 E1.01546 F6000 ; Print pattern wall
G1 X144.3669 Y126.9332 E1.01546 F6000 ; Print pattern wall
G1 E-6.5 F1500 ; Retract
G0 X144.9426 Y84.5068 F18000 ; Move to start next pattern wall
G1 E6.5 F1500 ; Un-retract
G1 X166.1558 Y105.72 E1.01546 F6000 ; Print pattern wall
G1 X144.9426 Y126.9332 E1.01546 F6000 ; Print pattern wall
G1 E-6.5 F1500 ; Retract
G0 X145.5183 Y84.5068 F18000 ; Move to start next pattern wall
G1 E6.5 F1500 ; Un-retract
G1 X166.7315 Y105.72 E1.01546 F6000 ; Print pattern wall
G1 X145.5183 Y126.9332 E1.01546 F6000 ; Print pattern wall
G1 E-6.5 F1500 ; Retract
G0 X147.9683 Y84.5068 F18000 ; Move to next pattern
G1 E6.5 F1500 ; Un-retract
SET_PRESSURE_ADVANCE ADVANCE=0.9 ; Set pressure advance
M117 PA 0.9
G1 X169.1815 Y105.72 E1.01546 F6000 ; Print pattern wall
G1 X147.9683 Y126.9332 E1.01546 F6000 ; Print pattern wall
G1 E-6.5 F1500 ; Retract
G0 X148.544 Y84.5068 F18000 ; Move to start next pattern wall
G1 E6.5 F1500 ; Un-retract
G1 X169.7572 Y105.72 E1.01546 F6000 ; Print pattern wall
G1 X148.544 Y126.9332 E1.01546 F6000 ; Print pattern wall
G1 E-6.5 F1500 ; Retract
G0 X149.1197 Y84.5068 F18000 ; Move to start next pattern wall
G1 E6.5 F1500 ; Un-retract
G1 X170.3329 Y105.72 E1.01546 F6000 ; Print pattern wall
G1 X149.1197 Y126.9332 E1.01546 F6000 ; Print pattern wall
G1 E-6.5 F1500 ; Retract
G0 X151.5697 Y84.5068 F18000 ; Move to next pattern
G1 E6.5 F1500 ; Un-retract
SET_PRESSURE_ADVANCE ADVANCE=0.95 ; Set pressure advance
M117 PA 0.95
G1 X172.7829 Y105.72 E1.01546 F6000 ; Print pattern wall
G1 X151.5697 Y126.9332 E1.01546 F6000 ; Print pattern wall
G1 E-6.5 F1500 ; Retract
G0 X152.1454 Y84.5068 F18000 ; Move to start next pattern wall
G1 E6.5 F1500 ; Un-retract
G1 X173.3586 Y105.72 E1.01546 F6000 ; Print pattern wall
G1 X152.1454 Y126.9332 E1.01546 F6000 ; Print pattern wall
G1 E-6.5 F1500 ; Retract
G0 X152.7211 Y84.5068 F18000 ; Move to start next pattern wall
G1 E6.5 F1500 ; Un-retract
G1 X173.9343 Y105.72 E1.01546 F6000 ; Print pattern wall
G1 X152.7211 Y126.9332 E1.01546 F6000 ; Print pattern wall
G1 E-6.5 F1500 ; Retract
G0 X155.1711 Y84.5068 F18000 ; Move to next pattern
G1 E6.5 F1500 ; Un-retract
SET_PRESSURE_ADVANCE ADVANCE=1 ; Set pressure advance
M117 PA 1
G1 X176.3843 Y105.72 E1.01546 F6000 ; Print pattern wall
G1 X155.1711 Y126.9332 E1.01546 F6000 ; Print pattern wall
G1 E-6.5 F1500 ; Retract
G0 X155.7468 Y84.5068 F18000 ; Move to start next pattern wall
G1 E6.5 F1500 ; Un-retract
G1 X176.96 Y105.72 E1.01546 F6000 ; Print pattern wall
G1 X155.7468 Y126.9332 E1.01546 F6000 ; Print pattern wall
G1 E-6.5 F1500 ; Retract
G0 X156.3225 Y84.5068 F18000 ; Move to start next pattern wall
G1 E6.5 F1500 ; Un-retract
G1 X177.5357 Y105.72 E1.01546 F6000 ; Print pattern wall
G1 X156.3225 Y126.9332 E1.01546 F6000 ; Print pattern wall
SET_PRESSURE_ADVANCE ADVANCE=0 ; Set pressure advance back to start value
M117 PA 0
G1 E-6.5 F1500 ; Retract
G0 Z5.85 F18000 ; Z raise
M104 S0 ; Turn off hotend
M140 S0 ; Turn off bed
M107    ; Turn off fan
;
; End G-code
;
END_PRINT
;
; FINISH
;
