;FLAVOR:Marlin
;TIME:5627
;Filament used: 3.5436m
;Layer height: 0.2
;MINX:104.799
;MINY:101.819
;MINZ:0.2
;MAXX:156.028
;MAXY:118.181
;MAXZ:75.6
;POSTPROCESSED
;Generated with Cura_SteamEngine 5.3.1
;
;

M82 ;absolute extrusion mode


; Pre-Processed for Cancel-Object support by preprocess_cancellation v0.2.0
; 1 known objects
EXCLUDE_OBJECT_DEFINE NAME=PLATempTower CENTER=128.996,109.464 POLYGON=[[108.231,105.248],[108.231,114.752],[152.6,114.752],[152.6,105.248]]
START_PRINT EXTRUDER_TEMP=200 BED_TEMP=55 RELATIVE_E_MODE=False PROBE=alse PROBE_AREA_START=%MINX%,%MINY% PROBE_AREA_END=%MAXX%,%MAXY%
G92 E0
G92 E0
G1 F1500 E-6.5
;LAYER_COUNT:378
;LAYER:0
M107
G0 F6000 X106.443 Y103.573 Z0.2
;TYPE:SKIRT
G1 F1500 E0
G1 F900 X106.766 Y103.298 E0.01764
G1 X107.385 Y102.981 E0.04655
G1 X107.899 Y102.855 E0.06855
G1 X108.19 Y102.831 E0.08069
G1 X108.969 Y102.819 E0.11308
G1 X152.008 Y102.82 E1.90244
G1 X152.707 Y102.83 E1.9315
G1 X153.128 Y102.876 E1.94911
G1 X153.534 Y103 E1.96676
G1 X153.908 Y103.198 E1.98435
G1 X154.239 Y103.463 E2.00198
G1 X154.513 Y103.77 E2.01909
G1 X154.769 Y104.181 E2.03922
G1 X154.921 Y104.577 E2.05685
G1 X155.004 Y105.137 E2.08039
G1 X155.028 Y106.259 E2.12705
G1 X155.027 Y114.099 E2.453
G1 X155.017 Y114.816 E2.48281
G1 X154.971 Y115.238 E2.50046
G1 X154.847 Y115.643 E2.51807
G1 X154.575 Y116.139 E2.54159
G1 X154.245 Y116.528 E2.56279
G1 X153.914 Y116.794 E2.58045
G1 X153.54 Y116.992 E2.59804
G1 X153.135 Y117.118 E2.61568
G1 X152.715 Y117.165 E2.63325
G1 X151.814 Y117.18 E2.67071
G1 X108.879 Y117.181 E4.45574
G1 X108.039 Y117.169 E4.49067
G1 X107.618 Y117.123 E4.50827
G1 X107.212 Y116.999 E4.52592
G1 X106.838 Y116.801 E4.54352
G1 X106.507 Y116.536 E4.56115
G1 X106.231 Y116.214 E4.57878
G1 X106.021 Y115.846 E4.59639
G1 X105.883 Y115.445 E4.61402
G1 X105.821 Y114.965 E4.63415
G1 X105.799 Y113.889 E4.67889
G1 X105.799 Y105.759 E5.0169
G1 X105.809 Y105.105 E5.04409
G1 X105.856 Y104.683 E5.06174
G1 X105.98 Y104.278 E5.07935
G1 X106.178 Y103.904 E5.09695
G1 X106.443 Y103.573 E5.11458
G0 F6000 X106.085 Y103.221
G1 F900 X106.486 Y102.88 E5.13646
G1 X107.21 Y102.509 E5.17028
G1 X107.78 Y102.369 E5.19468
G1 X108.182 Y102.331 E5.21147
G1 X108.969 Y102.319 E5.2442
G1 X152.015 Y102.32 E7.03384
G1 X152.714 Y102.33 E7.0629
G1 X153.227 Y102.384 E7.08435
G1 X153.727 Y102.536 E7.10608
G1 X154.181 Y102.776 E7.12743
G1 X154.586 Y103.101 E7.14902
G1 X154.913 Y103.467 E7.16942
G1 X155.22 Y103.961 E7.1936
G1 X155.408 Y104.45 E7.21538
G1 X155.499 Y105.064 E7.24119
G1 X155.528 Y106.259 E7.29089
G1 X155.527 Y114.106 E7.61713
G1 X155.517 Y114.823 E7.64694
G1 X155.463 Y115.337 E7.66843
G1 X155.31 Y115.837 E7.69017
G1 X154.989 Y116.424 E7.71798
G1 X154.593 Y116.89 E7.74341
G1 X154.19 Y117.214 E7.7649
G1 X153.735 Y117.455 E7.78631
G1 X153.235 Y117.61 E7.80807
G1 X152.723 Y117.665 E7.82948
G1 X151.822 Y117.68 E7.86695
G1 X108.872 Y117.681 E9.6526
G1 X108.032 Y117.669 E9.68753
G1 X107.519 Y117.615 E9.70897
G1 X107.019 Y117.463 E9.7307
G1 X106.565 Y117.223 E9.75205
G1 X106.156 Y116.894 E9.77387
G1 X105.821 Y116.504 E9.79525
G1 X105.562 Y116.051 E9.81694
G1 X105.393 Y115.559 E9.83857
G1 X105.321 Y114.975 E9.86303
G1 X105.299 Y113.899 E9.90778
G1 X105.299 Y105.751 E10.24653
G1 X105.309 Y105.097 E10.27373
G1 X105.364 Y104.584 E10.29518
G1 X105.516 Y104.085 E10.31686
G1 X105.756 Y103.631 E10.33821
G1 X106.085 Y103.221 E10.36007
G0 F6000 X105.725 Y102.871
G1 F900 X106.206 Y102.462 E10.38632
G1 X107.035 Y102.037 E10.42505
G1 X107.661 Y101.883 E10.45185
G1 X108.135 Y101.833 E10.47167
G1 X108.969 Y101.819 E10.50635
G1 X152.022 Y101.82 E12.29628
G1 X152.721 Y101.83 E12.32535
G1 X153.325 Y101.892 E12.35059
G1 X153.921 Y102.073 E12.37649
G1 X154.457 Y102.356 E12.40169
G1 X154.931 Y102.737 E12.42697
G1 X155.316 Y103.167 E12.45096
G1 X155.669 Y103.736 E12.4788
G1 X155.895 Y104.323 E12.50495
G1 X155.994 Y104.991 E12.53303
G1 X156.028 Y106.259 E12.58577
G1 X156.027 Y114.113 E12.9123
G1 X156.017 Y114.83 E12.94211
G1 X155.955 Y115.437 E12.96748
G1 X155.772 Y116.034 E12.99344
G1 X155.404 Y116.708 E13.02536
G1 X154.944 Y117.25 E13.05492
G1 X154.466 Y117.634 E13.08041
G1 X153.926 Y117.92 E13.10582
G1 X153.339 Y118.102 E13.13137
G1 X152.731 Y118.165 E13.15678
G1 X151.822 Y118.18 E13.19458
G1 X108.865 Y118.181 E14.98052
G1 X108.025 Y118.169 E15.01545
G1 X107.421 Y118.107 E15.04069
G1 X106.825 Y117.926 E15.06659
G1 X106.289 Y117.643 E15.09179
G1 X105.807 Y117.255 E15.11751
G1 X105.411 Y116.794 E15.14278
G1 X105.104 Y116.258 E15.16846
G1 X104.903 Y115.672 E15.19422
G1 X104.821 Y114.985 E15.22298
G1 X104.799 Y113.909 E15.26773
G1 X104.799 Y105.743 E15.60723
G1 X104.809 Y105.089 E15.63442
G1 X104.872 Y104.485 E15.65967
G1 X105.052 Y103.892 E15.68543
G1 X105.336 Y103.355 E15.71069
G1 X105.725 Y102.871 E15.73651
G1 F1500 E9.23651
;MESH:PLATempTower
EXCLUDE_OBJECT_START NAME=PLATempTower
G0 F6000 X108.098 Y104.405
G0 X108.463 Y105.483
G0 X109.299 Y113.681
;TYPE:WALL-INNER
G1 F1500 E15.73651
G1 F900 X151.527 Y113.68 E17.49214
G1 X151.527 Y106.321 E17.79809
G1 X109.3 Y106.32 E19.55369
G1 X109.299 Y113.681 E19.85972
G0 F6000 X108.799 Y114.181
G1 F900 X152.027 Y114.18 E21.65693
G1 X152.027 Y105.821 E22.00446
G1 X108.8 Y105.82 E23.80163
G1 X108.799 Y114.181 E24.14924
G0 F6000 X108.299 Y114.681
;TYPE:WALL-OUTER
G1 F900 X152.527 Y114.68 E25.98803
G1 X152.527 Y105.321 E26.37713
G1 X108.3 Y105.32 E28.21587
G1 X108.299 Y114.681 E28.60506
G0 F6000 X108.919 Y114.061
G0 X109.41 Y113.219
G0 X109.76 Y113.22
;TYPE:SKIN
G1 F900 X109.761 Y106.781 E28.87276
G1 X151.067 Y106.781 E30.59007
G1 X151.067 Y113.22 E30.85777
G1 X109.76 Y113.22 E32.57511
G0 F6000 X110.141 Y112.969
G1 F900 X110.009 Y112.837 E32.58288
G0 F6000 X110.009 Y112.13
G1 F900 X110.848 Y112.969 E32.63221
G0 F6000 X111.555 Y112.969
G1 F900 X110.009 Y111.423 E32.7231
G0 F6000 X110.009 Y110.716
G1 F900 X112.262 Y112.969 E32.85557
G0 F6000 X112.969 Y112.969
G1 F900 X110.009 Y110.009 E33.02961
G0 F6000 X110.009 Y109.302
G1 F900 X113.676 Y112.969 E33.24521
G0 F6000 X114.383 Y112.969
G1 F900 X110.009 Y108.595 E33.50239
G0 F6000 X110.009 Y107.888
G1 F900 X115.09 Y112.969 E33.80113
G0 F6000 X115.797 Y112.969
G1 F900 X110.009 Y107.181 E34.14144
G0 F6000 X110.566 Y107.031
G1 F900 X116.505 Y112.969 E34.49061
G0 F6000 X117.212 Y112.969
G1 F900 X111.273 Y107.031 E34.83977
G0 F6000 X111.98 Y107.031
G1 F900 X117.919 Y112.969 E35.18893
G0 F6000 X118.626 Y112.969
G1 F900 X112.688 Y107.031 E35.53806
G0 F6000 X113.395 Y107.031
G1 F900 X119.333 Y112.969 E35.88719
G0 F6000 X120.04 Y112.969
G1 F900 X114.102 Y107.031 E36.23632
G0 F6000 X114.809 Y107.031
G1 F900 X120.747 Y112.969 E36.58545
G0 F6000 X121.454 Y112.969
G1 F900 X115.516 Y107.031 E36.93459
G0 F6000 X116.223 Y107.031
G1 F900 X122.161 Y112.969 E37.28372
G0 F6000 X122.868 Y112.969
G1 F900 X116.93 Y107.031 E37.63285
G0 F6000 X117.637 Y107.031
G1 F900 X123.576 Y112.969 E37.98201
G0 F6000 X124.283 Y112.969
G1 F900 X118.344 Y107.031 E38.33117
G0 F6000 X119.052 Y107.031
G1 F900 X124.99 Y112.969 E38.6803
G0 F6000 X125.697 Y112.969
G1 F900 X119.759 Y107.031 E39.02943
G0 F6000 X120.466 Y107.031
G1 F900 X126.404 Y112.969 E39.37857
G0 F6000 X127.111 Y112.969
G1 F900 X121.173 Y107.031 E39.7277
G0 F6000 X121.88 Y107.031
G1 F900 X127.818 Y112.969 E40.07683
G0 F6000 X128.525 Y112.969
G1 F900 X122.587 Y107.031 E40.42596
G0 F6000 X123.294 Y107.031
G1 F900 X129.232 Y112.969 E40.77509
G0 F6000 X129.94 Y112.969
G1 F900 X124.001 Y107.031 E41.12425
G0 F6000 X124.708 Y107.031
G1 F900 X130.647 Y112.969 E41.47341
G0 F6000 X131.354 Y112.969
G1 F900 X125.415 Y107.031 E41.82258
G0 F6000 X126.123 Y107.031
G1 F900 X132.061 Y112.969 E42.17171
G0 F6000 X132.768 Y112.969
G1 F900 X126.83 Y107.031 E42.52084
G0 F6000 X127.537 Y107.031
G1 F900 X133.475 Y112.969 E42.86997
G0 F6000 X134.182 Y112.969
G1 F900 X128.244 Y107.031 E43.2191
G0 F6000 X128.951 Y107.031
G1 F900 X134.889 Y112.969 E43.56823
G0 F6000 X135.596 Y112.969
G1 F900 X129.658 Y107.031 E43.91737
G0 F6000 X130.365 Y107.031
G1 F900 X136.304 Y112.969 E44.26653
G0 F6000 X137.011 Y112.969
G1 F900 X131.072 Y107.031 E44.61569
G0 F6000 X131.779 Y107.031
G1 F900 X137.718 Y112.969 E44.96485
G0 F6000 X138.425 Y112.969
G1 F900 X132.487 Y107.031 E45.31398
G0 F6000 X133.194 Y107.031
G1 F900 X139.132 Y112.969 E45.66311
G0 F6000 X139.839 Y112.969
G1 F900 X133.901 Y107.031 E46.01224
G0 F6000 X134.608 Y107.031
G1 F900 X140.546 Y112.969 E46.36138
G0 F6000 X141.253 Y112.969
G1 F900 X135.315 Y107.031 E46.71051
G0 F6000 X136.022 Y107.031
G1 F900 X141.96 Y112.969 E47.05964
G0 F6000 X142.667 Y112.969
G1 F900 X136.729 Y107.031 E47.40877
G0 F6000 X137.436 Y107.031
G1 F900 X143.375 Y112.969 E47.75793
G0 F6000 X144.082 Y112.969
G1 F900 X138.143 Y107.031 E48.10709
G0 F6000 X138.851 Y107.031
G1 F900 X144.789 Y112.969 E48.45622
G0 F6000 X145.496 Y112.969
G1 F900 X139.558 Y107.031 E48.80536
G0 F6000 X140.265 Y107.031
G1 F900 X146.203 Y112.969 E49.15449
G0 F6000 X146.91 Y112.969
G1 F900 X140.972 Y107.031 E49.50362
G0 F6000 X141.679 Y107.031
G1 F900 X147.617 Y112.969 E49.85275
G0 F6000 X148.324 Y112.969
G1 F900 X142.386 Y107.031 E50.20188
G0 F6000 X143.093 Y107.031
G1 F900 X149.031 Y112.969 E50.55101
G0 F6000 X149.739 Y112.969
G1 F900 X143.8 Y107.031 E50.90017
G0 F6000 X144.507 Y107.031
G1 F900 X150.446 Y112.969 E51.24934
G0 F6000 X150.816 Y112.632
G1 F900 X145.214 Y107.031 E51.57868
G0 F6000 X145.922 Y107.031
G1 F900 X150.816 Y111.925 E51.86643
G0 F6000 X150.816 Y111.218
G1 F900 X146.629 Y107.031 E52.11261
G0 F6000 X147.336 Y107.031
G1 F900 X150.816 Y110.511 E52.31722
G0 F6000 X150.816 Y109.804
G1 F900 X148.043 Y107.031 E52.48026
G0 F6000 X148.75 Y107.031
G1 F900 X150.816 Y109.097 E52.60174
G0 F6000 X150.816 Y108.39
G1 F900 X149.457 Y107.031 E52.68164
G0 F6000 X150.164 Y107.031
G1 F900 X150.816 Y107.683 E52.71997
M104 S200
G0 F6000 X151.478 Y107.683
G1 F1500 E46.21997
;MESH:NONMESH
EXCLUDE_OBJECT_END NAME=PLATempTower
G0 F300 X151.478 Y107.683 Z0.4
G0 F6000 X151.345 Y113.498
G0 X109.031 Y113.952
;TIME_ELAPSED:96.409908
;LAYER:1
M106 S255
;TYPE:WALL-INNER
;MESH:PLATempTower
EXCLUDE_OBJECT_START NAME=PLATempTower
G1 F1500 E52.71997
G1 F2700 X151.8 Y113.952 E54.14248
G1 X151.8 Y106.048 E54.40537
G1 X109.031 Y106.048 E55.82787
G1 X109.031 Y113.952 E56.09076
G0 F10500 X108.631 Y114.352
G1 F2700 X152.2 Y114.352 E57.53987
G1 X152.2 Y105.648 E57.82936
G1 X108.631 Y105.648 E59.27847
G1 X108.631 Y114.352 E59.56797
G0 F10500 X108.231 Y114.748
;TYPE:WALL-OUTER
G1 F2700 X152.6 Y114.752 E61.04369
G1 X152.6 Y105.248 E61.35979
G1 X108.231 Y105.252 E62.83551
G1 X108.231 Y114.748 E63.15135
G1 F1500 E56.65135
G0 F10500 X108.501 Y114.482
G0 X151.43 Y106.418
;TYPE:SKIN
G1 F1500 E63.15135
G1 F1857.1 X151.43 Y113.582 E63.40154
G0 F10500 X144.7 Y112.26
G1 F1950 X144.7 Y107.46 E63.56119
G1 X149.5 Y107.46 E63.72084
G1 X149.5 Y112.26 E63.88049
G1 X144.7 Y112.26 E64.04014
G0 F10500 X118.14 Y113.592
G1 F1950 X118.14 Y106.408 E64.27908
G1 X142.78 Y106.408 E65.09861
G1 X142.78 Y113.592 E65.33755
G1 X118.14 Y113.592 E66.15708
G0 F10500 X111.42 Y112.26
G1 F1950 X111.42 Y107.46 E66.31672
G1 X116.22 Y107.46 E66.47637
G1 X116.22 Y112.26 E66.63602
G1 X111.42 Y112.26 E66.79567
G0 F10500 X109.446 Y106.463
G1 F1535.4 X109.446 Y113.538 E67.09452
G0 F10500 X111.619 Y107.866
;TYPE:SKIN
G1 F1950 X111.826 Y107.659 E67.10426
G0 F10500 X112.391 Y107.659
G1 F1950 X111.619 Y108.431 E67.14057
G0 F10500 X111.619 Y108.997
G1 F1950 X112.957 Y107.659 E67.20351
G0 F10500 X113.523 Y107.659
G1 F1950 X111.619 Y109.563 E67.29306
G0 F10500 X111.619 Y110.129
G1 F1950 X114.088 Y107.659 E67.40922
G0 F10500 X114.654 Y107.659
G1 F1950 X111.619 Y110.694 E67.55198
G0 F10500 X111.619 Y111.26
G1 F1950 X115.22 Y107.659 E67.72136
G0 F10500 X115.785 Y107.659
G1 F1950 X111.619 Y111.826 E67.91734
G0 F10500 X111.951 Y112.059
G1 F1950 X116.019 Y107.992 E68.10866
G0 F10500 X116.019 Y108.557
G1 F1950 X112.517 Y112.059 E68.27338
G0 F10500 X113.083 Y112.059
G1 F1950 X116.019 Y109.123 E68.41148
G0 F10500 X116.019 Y109.689
G1 F1950 X113.649 Y112.059 E68.52296
G0 F10500 X114.214 Y112.059
G1 F1950 X116.019 Y110.254 E68.60786
G0 F10500 X116.019 Y110.82
G1 F1950 X114.78 Y112.059 E68.66614
G0 F10500 X115.346 Y112.059
G1 F1950 X116.019 Y111.386 E68.6978
G0 F10500 X116.019 Y111.951
G1 F1950 X115.911 Y112.059 E68.70288
G0 F10500 X118.339 Y106.803
G1 F1950 X118.535 Y106.607 E68.7121
G0 F10500 X119.1 Y106.607
G1 F1950 X118.339 Y107.369 E68.74792
G0 F10500 X118.339 Y107.934
G1 F1950 X119.666 Y106.607 E68.81033
G0 F10500 X120.232 Y106.607
G1 F1950 X118.339 Y108.5 E68.89938
G0 F10500 X118.339 Y109.066
G1 F1950 X120.797 Y106.607 E69.01502
G0 F10500 X121.363 Y106.607
G1 F1950 X118.339 Y109.631 E69.15726
G0 F10500 X118.339 Y110.197
G1 F1950 X121.929 Y106.607 E69.32612
G0 F10500 X122.494 Y106.607
G1 F1950 X118.339 Y110.763 E69.52158
G0 F10500 X118.339 Y111.329
G1 F1950 X123.06 Y106.607 E69.74366
G0 F10500 X123.626 Y106.607
G1 F1950 X118.339 Y111.894 E69.99235
G0 F10500 X118.339 Y112.46
G1 F1950 X124.191 Y106.607 E70.26763
G0 F10500 X124.757 Y106.607
G1 F1950 X118.339 Y113.026 E70.56954
G0 F10500 X118.538 Y113.392
G1 F1950 X125.323 Y106.607 E70.88869
G0 F10500 X125.889 Y106.607
G1 F1950 X119.104 Y113.392 E71.20783
G0 F10500 X119.67 Y113.392
G1 F1950 X126.454 Y106.607 E71.52695
G0 F10500 X127.02 Y106.607
G1 F1950 X120.235 Y113.392 E71.8461
G0 F10500 X120.801 Y113.392
G1 F1950 X127.586 Y106.607 E72.16524
G0 F10500 X128.151 Y106.607
G1 F1950 X121.367 Y113.392 E72.48437
G0 F10500 X121.932 Y113.392
G1 F1950 X128.717 Y106.607 E72.80351
G0 F10500 X129.283 Y106.607
G1 F1950 X122.498 Y113.392 E73.12266
G0 F10500 X123.064 Y113.392
G1 F1950 X129.848 Y106.607 E73.44178
G0 F10500 X130.414 Y106.607
G1 F1950 X123.629 Y113.392 E73.76092
G0 F10500 X124.195 Y113.392
G1 F1950 X130.98 Y106.607 E74.08007
G0 F10500 X131.545 Y106.607
G1 F1950 X124.761 Y113.392 E74.39919
G0 F10500 X125.326 Y113.392
G1 F1950 X132.111 Y106.607 E74.71834
G0 F10500 X132.677 Y106.607
G1 F1950 X125.892 Y113.392 E75.03748
G0 F10500 X126.458 Y113.392
G1 F1950 X133.242 Y106.607 E75.35661
G0 F10500 X133.808 Y106.607
G1 F1950 X127.023 Y113.392 E75.67575
G0 F10500 X127.589 Y113.392
G1 F1950 X134.374 Y106.607 E75.9949
G0 F10500 X134.94 Y106.607
G1 F1950 X128.155 Y113.392 E76.31404
G0 F10500 X128.721 Y113.392
G1 F1950 X135.505 Y106.607 E76.63316
G0 F10500 X136.071 Y106.607
G1 F1950 X129.286 Y113.392 E76.95231
G0 F10500 X129.852 Y113.392
G1 F1950 X136.637 Y106.607 E77.27146
G0 F10500 X137.202 Y106.607
G1 F1950 X130.418 Y113.392 E77.59058
G0 F10500 X130.983 Y113.392
G1 F1950 X137.768 Y106.607 E77.90972
G0 F10500 X138.334 Y106.607
G1 F1950 X131.549 Y113.392 E78.22887
G0 F10500 X132.115 Y113.392
G1 F1950 X138.899 Y106.607 E78.54799
G0 F10500 X139.465 Y106.607
G1 F1950 X132.68 Y113.392 E78.86714
G0 F10500 X133.246 Y113.392
G1 F1950 X140.031 Y106.607 E79.18628
G0 F10500 X140.596 Y106.607
G1 F1950 X133.812 Y113.392 E79.5054
G0 F10500 X134.377 Y113.392
G1 F1950 X141.162 Y106.607 E79.82455
G0 F10500 X141.728 Y106.607
G1 F1950 X134.943 Y113.392 E80.1437
G0 F10500 X135.509 Y113.392
G1 F1950 X142.293 Y106.607 E80.46282
G0 F10500 X142.579 Y106.887
G1 F1950 X136.074 Y113.392 E80.76879
G0 F10500 X136.64 Y113.392
G1 F1950 X142.579 Y107.453 E81.04815
G0 F10500 X142.579 Y108.019
G1 F1950 X137.206 Y113.392 E81.30087
G0 F10500 X137.771 Y113.392
G1 F1950 X142.579 Y108.584 E81.52703
G0 F10500 X142.579 Y109.15
G1 F1950 X138.337 Y113.392 E81.72656
G0 F10500 X138.903 Y113.392
G1 F1950 X142.579 Y109.716 E81.89947
G0 F10500 X142.579 Y110.281
G1 F1950 X139.469 Y113.392 E82.04578
G0 F10500 X140.034 Y113.392
G1 F1950 X142.579 Y110.847 E82.16548
G0 F10500 X142.579 Y111.413
G1 F1950 X140.6 Y113.392 E82.25857
G0 F10500 X141.166 Y113.392
G1 F1950 X142.579 Y111.978 E82.32506
G0 F10500 X142.579 Y112.544
G1 F1950 X141.731 Y113.392 E82.36494
G0 F10500 X142.297 Y113.392
G1 F1950 X142.579 Y113.11 E82.37821
G0 F10500 X144.899 Y107.961
G1 F1950 X145.201 Y107.659 E82.39241
G0 F10500 X145.767 Y107.659
G1 F1950 X144.899 Y108.527 E82.43324
G0 F10500 X144.899 Y109.093
G1 F1950 X146.332 Y107.659 E82.50067
G0 F10500 X146.898 Y107.659
