;FLAVOR:Marlin
;TIME:4798
;Filament used: 2.73147m
;Layer height: 0.2
;MINX:97.05
;MINY:114.07
;MINZ:0.2
;MAXX:163.778
;MAXY:145.93
;MAXZ:59
;POSTPROCESSED
;Generated with Cura_SteamEngine 5.2.1
;
;

M82 ;absolute extrusion mode
START_PRINT EXTRUDER_TEMP=220.0 BED_TEMP=60 RELATIVE_E_MODE=False PROBE=false PROBE_AREA_START=%MINX%,%MINY% PROBE_AREA_END=%MAXX%,%MAXY%
G92 E0
G92 E0
G1 F1500 E-6.5
;LAYER_COUNT:295
;LAYER:0
M107
G0 F6000 X100.95 Y116.744 Z0.2
;TYPE:SKIRT
G1 F1500 E0
G1 F1200 X101.691 Y116.169 E0.0312
G1 X102.479 Y115.66 E0.0624
G1 X103.306 Y115.219 E0.09357
G1 X104.52 Y114.719 E0.13724
G1 X105.515 Y114.42 E0.17179
G1 X106.433 Y114.228 E0.20299
G1 X107.364 Y114.115 E0.23418
G1 X108.048 Y114.082 E0.25696
G1 X108.791 Y114.07 E0.28167
G1 X152.133 Y114.071 E1.72323
G1 X152.832 Y114.081 E1.74648
G1 X153.769 Y114.135 E1.7777
G1 X154.697 Y114.267 E1.80888
G1 X155.611 Y114.479 E1.84008
G1 X156.503 Y114.768 E1.87127
G1 X157.368 Y115.131 E1.90247
G1 X158.198 Y115.567 E1.93365
G1 X158.988 Y116.072 E1.96484
G1 X159.733 Y116.643 E1.99606
G1 X160.426 Y117.275 E2.02725
G1 X161.063 Y117.963 E2.05844
G1 X161.505 Y118.519 E2.08206
G1 X162.041 Y119.288 E2.11324
G1 X162.509 Y120.101 E2.14444
G1 X162.907 Y120.95 E2.17563
G1 X163.231 Y121.83 E2.20682
G1 X163.479 Y122.735 E2.23803
G1 X163.648 Y123.657 E2.2692
G1 X163.752 Y124.949 E2.31231
G1 X163.778 Y126.26 E2.35593
G1 X163.776 Y134.221 E2.62071
G1 X163.766 Y134.938 E2.64456
G1 X163.713 Y135.875 E2.67577
G1 X163.58 Y136.803 E2.70696
G1 X163.369 Y137.717 E2.73815
G1 X163.081 Y138.609 E2.76933
G1 X162.717 Y139.474 E2.80054
G1 X162.282 Y140.305 E2.83174
G1 X161.736 Y141.16 E2.86548
G1 X161.117 Y141.968 E2.89934
G1 X160.486 Y142.661 E2.93051
G1 X159.798 Y143.298 E2.96169
G1 X159.058 Y143.875 E2.9929
G1 X158.271 Y144.386 E3.02411
G1 X157.444 Y144.828 E3.0553
G1 X156.583 Y145.198 E3.08647
G1 X155.692 Y145.493 E3.11769
G1 X154.78 Y145.712 E3.14888
G1 X153.853 Y145.852 E3.18007
G1 X152.867 Y145.913 E3.21292
G1 X151.814 Y145.93 E3.24795
G1 X108.754 Y145.93 E4.68013
G1 X107.914 Y145.918 E4.70807
G1 X106.978 Y145.865 E4.73925
G1 X106.049 Y145.732 E4.77047
G1 X105.135 Y145.52 E4.80167
G1 X104.243 Y145.231 E4.83286
G1 X103.379 Y144.868 E4.86403
G1 X102.548 Y144.432 E4.89524
G1 X101.758 Y143.927 E4.92643
G1 X101.013 Y143.356 E4.95765
G1 X100.32 Y142.725 E4.98882
G1 X99.684 Y142.036 E5.02001
G1 X99.108 Y141.296 E5.0512
G1 X98.597 Y140.509 E5.08241
G1 X98.156 Y139.682 E5.11358
G1 X97.786 Y138.82 E5.14478
G1 X97.491 Y137.929 E5.176
G1 X97.273 Y137.017 E5.20718
G1 X97.133 Y136.09 E5.23837
G1 X97.073 Y135.144 E5.26989
G1 X97.051 Y134.068 E5.30569
G1 X97.05 Y125.625 E5.5865
G1 X97.06 Y124.971 E5.60826
G1 X97.115 Y124.035 E5.63944
G1 X97.248 Y123.106 E5.67066
G1 X97.461 Y122.193 E5.70184
G1 X97.75 Y121.301 E5.73303
G1 X98.115 Y120.437 E5.76422
G1 X98.552 Y119.607 E5.79542
G1 X99.057 Y118.817 E5.8266
G1 X99.629 Y118.073 E5.85782
G1 X100.261 Y117.381 E5.88899
G1 X100.95 Y116.744 E5.9202
G0 F6000 X101.339 Y116.942
G1 F1200 X102.075 Y116.389 E5.95082
G1 X102.857 Y115.903 E5.98144
G1 X103.678 Y115.487 E6.01205
G1 X104.661 Y115.094 E6.04726
G1 X105.63 Y114.804 E6.08091
G1 X106.532 Y114.617 E6.11154
G1 X107.446 Y114.51 E6.14215
G1 X108.055 Y114.482 E6.16243
G1 X108.798 Y114.47 E6.18714
G1 X152.128 Y114.471 E7.6283
G1 X152.827 Y114.481 E7.65156
G1 X153.746 Y114.534 E7.68217
G1 X154.657 Y114.667 E7.71279
G1 X155.553 Y114.878 E7.74341
G1 X156.427 Y115.166 E7.77402
G1 X157.273 Y115.529 E7.80464
G1 X158.085 Y115.964 E7.83527
G1 X158.855 Y116.468 E7.86588
G1 X159.579 Y117.037 E7.89651
G1 X160.251 Y117.666 E7.92712
G1 X161.143 Y118.698 E7.97249
G1 X161.712 Y119.517 E8.00566
G1 X162.17 Y120.315 E8.03627
G1 X162.557 Y121.151 E8.06691
G1 X162.87 Y122.017 E8.09753
G1 X163.107 Y122.906 E8.12813
G1 X163.266 Y123.813 E8.15876
G1 X163.353 Y124.958 E8.19695
G1 X163.376 Y126.032 E8.23268
G1 X163.376 Y134.216 E8.50488
G1 X163.366 Y134.933 E8.52873
G1 X163.313 Y135.852 E8.55935
G1 X163.181 Y136.763 E8.58997
G1 X162.97 Y137.659 E8.62058
G1 X162.682 Y138.534 E8.65122
G1 X162.319 Y139.38 E8.68184
G1 X161.885 Y140.191 E8.71243
G1 X161.405 Y140.935 E8.74188
G1 X160.8 Y141.724 E8.77495
G1 X160.178 Y142.404 E8.8056
G1 X159.5 Y143.026 E8.83621
G1 X158.77 Y143.588 E8.86685
G1 X157.995 Y144.084 E8.89745
G1 X157.179 Y144.511 E8.92808
G1 X156.33 Y144.865 E8.95868
G1 X155.452 Y145.145 E8.98933
G1 X154.554 Y145.347 E9.01994
G1 X153.642 Y145.471 E9.05055
G1 X152.86 Y145.513 E9.0766
G1 X151.814 Y145.53 E9.1114
G1 X108.76 Y145.53 E10.54338
G1 X107.92 Y145.518 E10.57132
G1 X107 Y145.465 E10.60197
G1 X106.089 Y145.332 E10.63259
G1 X105.193 Y145.121 E10.66321
G1 X104.319 Y144.833 E10.69381
G1 X103.473 Y144.47 E10.72443
G1 X102.661 Y144.035 E10.75507
G1 X101.891 Y143.531 E10.78568
G1 X101.167 Y142.962 E10.81631
G1 X100.495 Y142.333 E10.84692
G1 X99.88 Y141.647 E10.87756
G1 X99.327 Y140.911 E10.90818
G1 X98.84 Y140.13 E10.9388
G1 X98.423 Y139.309 E10.96942
G1 X98.078 Y138.456 E11.00003
G1 X97.809 Y137.575 E11.03066
G1 X97.617 Y136.675 E11.06127
G1 X97.505 Y135.761 E11.0919
G1 X97.473 Y135.136 E11.11271
G1 X97.451 Y134.06 E11.14851
G1 X97.45 Y125.631 E11.42886
G1 X97.46 Y124.977 E11.45061
G1 X97.514 Y124.058 E11.48123
G1 X97.648 Y123.147 E11.51186
G1 X97.86 Y122.251 E11.54248
G1 X98.149 Y121.377 E11.5731
G1 X98.513 Y120.531 E11.60373
G1 X98.949 Y119.72 E11.63436
G1 X99.453 Y118.95 E11.66496
G1 X100.023 Y118.227 E11.69559
G1 X100.653 Y117.556 E11.7262
G1 X101.339 Y116.942 E11.75682
G0 F6000 X101.726 Y117.143
G1 F1200 X102.458 Y116.614 E11.78686
G1 X103.234 Y116.152 E11.8169
G1 X104.048 Y115.761 E11.84693
G1 X104.88 Y115.446 E11.87652
G1 X105.745 Y115.187 E11.90655
G1 X106.63 Y115.007 E11.93659
G1 X107.527 Y114.905 E11.96662
G1 X108.061 Y114.882 E11.98439
G1 X108.969 Y114.869 E12.0146
G1 X152.122 Y114.871 E13.44987
G1 X152.821 Y114.881 E13.47312
G1 X153.722 Y114.934 E13.50314
G1 X154.616 Y115.066 E13.5332
G1 X155.494 Y115.277 E13.56323
G1 X156.35 Y115.565 E13.59327
G1 X157.177 Y115.927 E13.6233
G1 X157.969 Y116.361 E13.65334
G1 X158.72 Y116.864 E13.6834
G1 X159.423 Y117.431 E13.71344
G1 X160.073 Y118.058 E13.74348
G1 X160.827 Y118.943 E13.78215
G1 X161.383 Y119.745 E13.8146
G1 X161.831 Y120.53 E13.84467
G1 X162.207 Y121.351 E13.8747
G1 X162.509 Y122.202 E13.90473
G1 X162.735 Y123.076 E13.93476
G1 X162.882 Y123.967 E13.96479
G1 X162.953 Y124.967 E13.99814
G1 X162.976 Y126.041 E14.03387
G1 X162.976 Y134.21 E14.30557
G1 X162.966 Y134.927 E14.32942
G1 X162.913 Y135.829 E14.35947
G1 X162.781 Y136.722 E14.3895
G1 X162.571 Y137.6 E14.41952
G1 X162.283 Y138.457 E14.44959
G1 X161.921 Y139.284 E14.47962
G1 X161.487 Y140.076 E14.50966
G1 X161.032 Y140.764 E14.53709
G1 X160.482 Y141.481 E14.56715
G1 X159.871 Y142.145 E14.59716
G1 X159.203 Y142.753 E14.6272
G1 X158.484 Y143.3 E14.65725
G1 X157.72 Y143.781 E14.68728
G1 X156.916 Y144.192 E14.71731
G1 X156.078 Y144.531 E14.74738
G1 X155.215 Y144.794 E14.77738
G1 X154.331 Y144.98 E14.80743
G1 X153.434 Y145.087 E14.83747
G1 X152.853 Y145.113 E14.85682
G1 X151.814 Y145.13 E14.89138
G1 X108.765 Y145.13 E16.3232
G1 X107.925 Y145.118 E16.35114
G1 X107.024 Y145.065 E16.38116
G1 X106.13 Y144.933 E16.41121
G1 X105.252 Y144.722 E16.44125
G1 X104.396 Y144.434 E16.47129
G1 X103.569 Y144.072 E16.50131
G1 X102.777 Y143.638 E16.53135
G1 X102.027 Y143.135 E16.56138
G1 X101.324 Y142.568 E16.59142
G1 X100.673 Y141.942 E16.62146
G1 X100.081 Y141.26 E16.6515
G1 X99.552 Y140.528 E16.68154
G1 X99.089 Y139.753 E16.71156
G1 X98.697 Y138.939 E16.74161
G1 X98.378 Y138.094 E16.77166
G1 X98.135 Y137.224 E16.8017
G1 X97.97 Y136.336 E16.83174
G1 X97.873 Y135.128 E16.87205
G1 X97.849 Y133.843 E16.91479
G1 X97.85 Y125.637 E17.18773
G1 X97.86 Y124.983 E17.20948
G1 X97.914 Y124.082 E17.2395
G1 X98.047 Y123.188 E17.26956
G1 X98.259 Y122.31 E17.29961
G1 X98.548 Y121.455 E17.32962
G1 X98.911 Y120.628 E17.35966
G1 X99.346 Y119.836 E17.38972
G1 X99.849 Y119.086 E17.41975
G1 X100.416 Y118.384 E17.44977
G1 X101.044 Y117.734 E17.47983
G1 X101.726 Y117.143 E17.50984
G1 F1500 E11.00984
;MESH:PLA+TempTower
G0 F6000 X108.463 Y124.404
G0 X108.649 Y134.331
;TYPE:WALL-INNER
G1 F1500 E17.50984
G1 F1200 X152.177 Y134.33 E18.95759
G1 X152.177 Y125.671 E19.24559
G1 X108.65 Y125.67 E20.6933
G1 X108.649 Y134.331 E20.98137
G0 F6000 X108.249 Y134.731
;TYPE:WALL-OUTER
G1 F1200 X152.577 Y134.73 E22.45572
G1 X152.577 Y125.271 E22.77033
G1 X108.25 Y125.27 E24.24465
G1 X108.249 Y134.731 E24.55933
G0 F6000 X108.519 Y134.461
G0 X108.749 Y133.97
G0 X109.01 Y133.97
;TYPE:SKIN
G1 F1200 X151.817 Y133.97 E25.98309
G1 X151.817 Y130 E26.11514
G1 X151.817 Y126.031 E26.24715
G1 X109.011 Y126.031 E27.67088
G1 X109.01 Y133.97 E27.93493
G0 F6000 X109.444 Y133.769
G1 F1200 X109.209 Y133.534 E27.94599
G0 F6000 X109.209 Y132.968
G1 F1200 X110.01 Y133.769 E27.98366
G0 F6000 X110.575 Y133.769
G1 F1200 X109.209 Y132.402 E28.04794
G0 F6000 X109.209 Y131.837
G1 F1200 X111.141 Y133.769 E28.13881
G0 F6000 X111.707 Y133.769
G1 F1200 X109.209 Y131.271 E28.25631
G0 F6000 X109.209 Y130.705
G1 F1200 X112.273 Y133.769 E28.40043
G0 F6000 X112.838 Y133.769
G1 F1200 X109.209 Y130.14 E28.57113
G0 F6000 X109.21 Y129.575
G1 F1200 X113.404 Y133.769 E28.7684
G0 F6000 X113.97 Y133.769
G1 F1200 X109.21 Y129.009 E28.9923
G0 F6000 X109.21 Y128.443
G1 F1200 X114.535 Y133.769 E29.24279
G0 F6000 X115.101 Y133.769
G1 F1200 X109.21 Y127.878 E29.51989
G0 F6000 X109.21 Y127.312
G1 F1200 X115.667 Y133.769 E29.82361
G0 F6000 X116.232 Y133.769
G1 F1200 X109.21 Y126.746 E30.15392
G0 F6000 X109.26 Y126.23
G1 F1200 X116.798 Y133.769 E30.50851
G0 F6000 X117.364 Y133.769
G1 F1200 X109.825 Y126.23 E30.86312
G0 F6000 X110.391 Y126.23
G1 F1200 X117.929 Y133.769 E31.21771
G0 F6000 X118.495 Y133.769
G1 F1200 X110.957 Y126.23 E31.5723
G0 F6000 X111.522 Y126.23
G1 F1200 X119.061 Y133.769 E31.92691
G0 F6000 X119.626 Y133.769
G1 F1200 X112.088 Y126.23 E32.2815
G0 F6000 X112.654 Y126.23
G1 F1200 X120.192 Y133.769 E32.63609
G0 F6000 X120.758 Y133.769
G1 F1200 X113.219 Y126.23 E32.9907
G0 F6000 X113.785 Y126.23
G1 F1200 X121.323 Y133.769 E33.34529
G0 F6000 X121.889 Y133.769
G1 F1200 X114.351 Y126.23 E33.69987
G0 F6000 X114.916 Y126.23
G1 F1200 X122.455 Y133.769 E34.05448
G0 F6000 X123.021 Y133.769
G1 F1200 X115.482 Y126.23 E34.4091
G0 F6000 X116.048 Y126.23
G1 F1200 X123.586 Y133.769 E34.76368
G0 F6000 X124.152 Y133.769
G1 F1200 X116.613 Y126.23 E35.1183
G0 F6000 X117.179 Y126.23
G1 F1200 X124.718 Y133.769 E35.47291
G0 F6000 X125.283 Y133.769
G1 F1200 X117.745 Y126.23 E35.82749
G0 F6000 X118.31 Y126.23
G1 F1200 X125.849 Y133.769 E36.18211
G0 F6000 X126.415 Y133.769
G1 F1200 X118.876 Y126.23 E36.53672
G0 F6000 X119.442 Y126.23
G1 F1200 X126.98 Y133.769 E36.89131
G0 F6000 X127.546 Y133.769
G1 F1200 X120.008 Y126.23 E37.24589
G0 F6000 X120.573 Y126.23
G1 F1200 X128.112 Y133.769 E37.6005
G0 F6000 X128.677 Y133.769
G1 F1200 X121.139 Y126.23 E37.95509
G0 F6000 X121.705 Y126.23
G1 F1200 X129.243 Y133.769 E38.30968
G0 F6000 X129.809 Y133.769
G1 F1200 X122.27 Y126.23 E38.66429
G0 F6000 X122.836 Y126.23
G1 F1200 X130.374 Y133.769 E39.01888
G0 F6000 X130.941 Y133.769
G1 F1200 X123.402 Y126.23 E39.37349
G0 F6000 X123.967 Y126.23
G1 F1200 X131.507 Y133.769 E39.72813
G0 F6000 X132.072 Y133.769
G1 F1200 X124.533 Y126.23 E40.08274
G0 F6000 X125.099 Y126.23
G1 F1200 X132.638 Y133.769 E40.43735
G0 F6000 X133.204 Y133.769
G1 F1200 X125.664 Y126.23 E40.79198
G0 F6000 X126.23 Y126.23
G1 F1200 X133.769 Y133.769 E41.1466
G0 F6000 X134.335 Y133.769
G1 F1200 X126.796 Y126.23 E41.50121
G0 F6000 X127.361 Y126.23
G1 F1200 X134.901 Y133.769 E41.85584
G0 F6000 X135.466 Y133.769
G1 F1200 X127.927 Y126.23 E42.21045
G0 F6000 X128.493 Y126.23
G1 F1200 X136.032 Y133.769 E42.56507
G0 F6000 X136.598 Y133.769
G1 F1200 X129.059 Y126.23 E42.91968
G0 F6000 X129.624 Y126.23
G1 F1200 X137.163 Y133.769 E43.27429
G0 F6000 X137.729 Y133.769
G1 F1200 X130.19 Y126.23 E43.6289
G0 F6000 X130.756 Y126.231
G1 F1200 X138.295 Y133.769 E43.98349
G0 F6000 X138.86 Y133.769
G1 F1200 X131.322 Y126.231 E44.33805
G0 F6000 X131.888 Y126.231
G1 F1200 X139.426 Y133.769 E44.69262
G0 F6000 X139.992 Y133.769
G1 F1200 X132.453 Y126.231 E45.0472
G0 F6000 X133.019 Y126.231
G1 F1200 X140.557 Y133.769 E45.40177
G0 F6000 X141.123 Y133.769
G1 F1200 X133.585 Y126.231 E45.75633
G0 F6000 X134.15 Y126.231
G1 F1200 X141.689 Y133.769 E46.11092
G0 F6000 X142.255 Y133.769
G1 F1200 X134.716 Y126.231 E46.46551
G0 F6000 X135.282 Y126.231
G1 F1200 X142.82 Y133.769 E46.82007
G0 F6000 X143.386 Y133.769
G1 F1200 X135.847 Y126.231 E47.17466
G0 F6000 X136.413 Y126.231
G1 F1200 X143.952 Y133.769 E47.52925
G0 F6000 X144.517 Y133.769
G1 F1200 X136.979 Y126.231 E47.88381
G0 F6000 X137.544 Y126.231
G1 F1200 X145.083 Y133.769 E48.2384
G0 F6000 X145.649 Y133.769
G1 F1200 X138.11 Y126.231 E48.59299
G0 F6000 X138.676 Y126.231
G1 F1200 X146.214 Y133.769 E48.94755
G0 F6000 X146.78 Y133.769
G1 F1200 X139.242 Y126.231 E49.30212
G0 F6000 X139.807 Y126.231
G1 F1200 X147.346 Y133.769 E49.65671
G0 F6000 X147.911 Y133.769
G1 F1200 X140.373 Y126.231 E50.01127
G0 F6000 X140.939 Y126.231
G1 F1200 X148.477 Y133.769 E50.36583
G0 F6000 X149.043 Y133.769
G1 F1200 X141.504 Y126.231 E50.72042
G0 F6000 X142.07 Y126.231
G1 F1200 X149.608 Y133.769 E51.07499
G0 F6000 X150.174 Y133.769
G1 F1200 X142.636 Y126.231 E51.42955
G0 F6000 X143.201 Y126.231
G1 F1200 X150.74 Y133.769 E51.78414
G0 F6000 X151.306 Y133.769
G1 F1200 X143.767 Y126.231 E52.13873
G0 F6000 X144.333 Y126.231
G1 F1200 X151.616 Y133.514 E52.4813
G0 F6000 X151.616 Y132.948
G1 F1200 X144.898 Y126.231 E52.79727
G0 F6000 X145.464 Y126.231
G1 F1200 X151.616 Y132.383 E53.08664
G0 F6000 X151.616 Y131.817
G1 F1200 X146.03 Y126.231 E53.34939
G0 F6000 X146.595 Y126.231
G1 F1200 X151.616 Y131.251 E53.58554
G0 F6000 X151.616 Y130.686
G1 F1200 X147.161 Y126.231 E53.79509
G0 F6000 X147.727 Y126.231
G1 F1200 X151.616 Y130.12 E53.97801
G0 F6000 X151.616 Y129.554
G1 F1200 X148.293 Y126.231 E54.13432
G0 F6000 X148.858 Y126.231
G1 F1200 X151.616 Y128.989 E54.26404
G0 F6000 X151.616 Y128.423
G1 F1200 X149.424 Y126.231 E54.36715
G0 F6000 X149.99 Y126.231
G1 F1200 X151.616 Y127.857 E54.44363
G0 F6000 X151.616 Y127.291
G1 F1200 X150.555 Y126.231 E54.49351
G0 F6000 X151.121 Y126.231
M104 S220
G1 F1200 X151.616 Y126.726 E54.5168
G1 F1500 E48.0168
;MESH:NONMESH
G0 F300 X151.616 Y126.726 Z0.4
G0 F6000 X152.077 Y126.725
G0 X152.005 Y134.158
G0 X108.631 Y134.352
;TIME_ELAPSED:95.464324
;LAYER:1
M106 S85
;TYPE:WALL-INNER
;MESH:PLA+TempTower
G1 F1500 E54.5168
G1 F1800 X152.2 Y134.352 E55.96591
G1 X152.2 Y125.648 E56.2554
G1 X108.631 Y125.648 E57.70452
G1 X108.631 Y134.352 E57.99401
G0 F9000 X108.231 Y134.75
;TYPE:WALL-OUTER
G1 F1800 X152.6 Y134.752 E59.46973
G1 X152.6 Y125.272 E59.78504
G1 X152.588 Y125.248 E59.78593
G1 X108.231 Y125.25 E61.26125
G1 X108.231 Y134.75 E61.57722
G0 F9000 X108.501 Y134.482
G0 X108.731 Y133.992
G0 X108.991 Y133.992
;TYPE:SKIN
G1 F1800 X151.84 Y133.992 E63.00238
G1 X151.84 Y126.008 E63.26793
G1 X108.991 Y126.008 E64.6931
G1 X108.991 Y133.992 E64.95864
G0 F9000 X108.731 Y133.992
G0 X108.731 Y126.699
G0 X109.191 Y126.699
G1 F1800 X109.683 Y126.207 E64.98179
G0 F9000 X110.249 Y126.207
G1 F1800 X109.191 Y127.265 E65.03155
G0 F9000 X109.191 Y127.83
G1 F1800 X110.814 Y126.207 E65.10789
G0 F9000 X111.38 Y126.207
G1 F1800 X109.191 Y128.396 E65.21086
G0 F9000 X109.191 Y128.962
G1 F1800 X111.946 Y126.207 E65.34044
G0 F9000 X112.512 Y126.207
G1 F1800 X109.191 Y129.527 E65.49663
G0 F9000 X109.191 Y130.093
G1 F1800 X113.077 Y126.207 E65.67942
G0 F9000 X113.643 Y126.207
G1 F1800 X109.191 Y130.659 E65.88882
G0 F9000 X109.191 Y131.224
G1 F1800 X114.209 Y126.207 E66.12483
G0 F9000 X114.774 Y126.207
G1 F1800 X109.191 Y131.79 E66.38744
G0 F9000 X109.191 Y132.356
G1 F1800 X115.34 Y126.207 E66.67667
G0 F9000 X115.906 Y126.207
G1 F1800 X109.191 Y132.921 E66.9925
G0 F9000 X109.191 Y133.487
G1 F1800 X116.471 Y126.207 E67.33493
G0 F9000 X117.037 Y126.207
G1 F1800 X109.453 Y133.791 E67.69166
G0 F9000 X110.018 Y133.791
G1 F1800 X117.603 Y126.207 E68.04841
G0 F9000 X118.168 Y126.207
