; HEADER_BLOCK_START
; generated by OrcaSlicer 1.6.3 on 2023-07-26 at 01:13:58
; total layer number: 107
; HEADER_BLOCK_END

; THUMBNAIL_BLOCK_START
; THUMBNAIL_BLOCK_END

; external perimeters extrusion width = 0.45mm
; perimeters extrusion width = 0.45mm
; infill extrusion width = 0.45mm
; solid infill extrusion width = 0.45mm
; top infill extrusion width = 0.40mm
; first layer extrusion width = 0.42mm

; EXECUTABLE_BLOCK_START
EXCLUDE_OBJECT_DEFINE NAME=retraction_tower.stl_id_0_copy_0 CENTER=130,110 POLYGON=[[110,105.5],[110.102,104.724],[110.402,104],[110.879,103.379],[111.5,102.902],[112.224,102.602],[113,102.5],[147,102.5],[147.776,102.602],[148.5,102.902],[149.121,103.379],[149.598,104],[149.898,104.724],[150,105.5],[150,114.5],[149.898,115.276],[149.598,116],[149.121,116.621],[148.5,117.098],[147.776,117.398],[147,117.5],[113,117.5],[112.224,117.398],[111.5,117.098],[110.879,116.621],[110.402,116],[110.102,115.276],[110,114.5],[110,105.5]]
M73 P0 R16
;TYPE:Custom
START_PRINT EXTRUDER_TEMP=205 BED_TEMP=55 RELATIVE_E_MODE=1 PRESSURE_ADVANCE=0.06
G90
G21
M83 ; use relative distances for extrusion
; filament start gcode
SET_PRESSURE_ADVANCE ADVANCE=0.06; Override pressure advance value
M106 S0
;LAYER_CHANGE
;Z:0.2
;HEIGHT:0.2
; Calib_Retraction_tower: Z_HEIGHT: 0.2, length:0
G1 X109.202 Y101.194 F12000
G1 Z.2
G1 E0 F1800
;TYPE:Skirt
;WIDTH:0.42
G1 F900
G1 X110.446 Y100.357 E.047
G1 X111.864 Y99.872 E.047
G1 X113 Y99.746 E.03583
G1 X147.359 Y99.769 E1.07732
G1 X148.83 Y100.058 E.047
G1 X149.554 Y100.357 E.02456
G1 X150.177 Y100.717 E.02254
G1 X151.306 Y101.702 E.047
G1 X152.143 Y102.946 E.047
G1 X152.442 Y103.67 E.02456
G1 X152.731 Y105.141 E.047
G1 X152.754 Y114.5 E.29346
G1 X152.628 Y115.636 E.03583
G1 X152.442 Y116.33 E.02254
G1 X151.783 Y117.677 E.047
G1 X150.798 Y118.806 E.047
G1 X149.554 Y119.643 E.047
G1 X148.136 Y120.128 E.047
G1 X147 Y120.254 E.03583
G1 X113 Y120.254 E1.06605
G1 X111.864 Y120.128 E.03583
G1 X111.17 Y119.942 E.02254
G1 X109.823 Y119.283 E.047
G1 X108.694 Y118.298 E.047
G1 X107.857 Y117.054 E.047
G1 X107.372 Y115.636 E.047
G1 X107.246 Y114.5 E.03583
G1 X107.246 Y105.5 E.28219
G1 X107.372 Y104.364 E.03583
G1 X107.558 Y103.67 E.02254
G1 X108.217 Y102.323 E.047
G1 X109.163 Y101.239 E.04512
G1 X109.432 Y101.493 F12000
G1 F900
G1 X110.59 Y100.706 E.04392
G1 X111.913 Y100.245 E.04392
G1 X113 Y100.123 E.03429
G1 X147.31 Y100.143 E1.07577
M73 P1 R16
G1 X148.087 Y100.245 E.02456
G1 X149.41 Y100.706 E.04392
G1 X149.947 Y101.016 E.01946
G1 X151.007 Y101.932 E.04392
G1 X151.484 Y102.553 E.02456
G1 X152.094 Y103.814 E.04392
G1 X152.357 Y105.19 E.04392
G1 X152.377 Y114.5 E.29192
G1 X152.255 Y115.587 E.03429
G1 X152.094 Y116.186 E.01946
G1 X151.484 Y117.447 E.04392
G1 X150.568 Y118.507 E.04392
G1 X149.41 Y119.294 E.04392
G1 X148.087 Y119.755 E.04392
G1 X147 Y119.877 E.03429
G1 X113 Y119.877 E1.06605
G1 X111.913 Y119.755 E.03429
G1 X111.314 Y119.594 E.01946
G1 X110.053 Y118.984 E.04392
G1 X108.993 Y118.068 E.04392
G1 X108.206 Y116.91 E.04392
G1 X107.745 Y115.587 E.04392
G1 X107.623 Y114.5 E.03429
G1 X107.623 Y105.5 E.28219
G1 X107.745 Y104.413 E.03429
G1 X107.906 Y103.814 E.01946
G1 X108.516 Y102.553 E.04392
G1 X109.392 Y101.538 E.04204
; printing object retraction_tower.stl id:0 copy 0
EXCLUDE_OBJECT_START NAME=retraction_tower.stl_id_0_copy_0
;WIPE_START
G1 X110.59 Y100.706
G1 X111.101 Y100.528
;WIPE_END
G1 X149.228 Y104.903 F12000
;TYPE:Inner wall
;WIDTH:0.419999
G1 F900
G1 X149.313 Y105.71 E.02546
G1 X149.313 Y114.455 E.27418
G1 X149.228 Y115.097 E.02031
G1 X148.998 Y115.653 E.01888
G1 X148.631 Y116.131 E.01888
G1 X148.154 Y116.498 E.01888
G1 X147.597 Y116.728 E.01888
G1 X146.955 Y116.813 E.02031
G1 X113.045 Y116.813 E1.06322
M73 P2 R16
G1 X112.403 Y116.728 E.02031
G1 X111.847 Y116.498 E.01888
G1 X111.369 Y116.131 E.01888
G1 X111.002 Y115.654 E.01888
G1 X110.772 Y115.097 E.01888
G1 X110.687 Y114.455 E.02031
G1 X110.687 Y105.545 E.27936
G1 X110.772 Y104.903 E.02031
G1 X111.002 Y104.347 E.01888
G1 X111.369 Y103.869 E.01888
G1 X111.847 Y103.502 E.01888
G1 X112.403 Y103.272 E.01888
G1 X113.045 Y103.187 E.02031
G1 X146.955 Y103.187 E1.06322
G1 X147.597 Y103.272 E.02031
G1 X148.154 Y103.502 E.01888
G1 X148.631 Y103.869 E.01888
G1 X148.998 Y104.347 E.01888
G1 X149.205 Y104.847 E.017
G1 X149.596 Y104.804 F12000
;TYPE:Outer wall
G1 F900
G1 X149.69 Y105.71 E.02856
G1 X149.69 Y114.48 E.27495
G1 X149.596 Y115.196 E.02264
G1 X149.327 Y115.844 E.022
G1 X148.9 Y116.4 E.022
G1 X148.344 Y116.827 E.022
G1 X147.696 Y117.096 E.022
G1 X146.98 Y117.19 E.02264
G1 X113.02 Y117.19 E1.06477
G1 X112.304 Y117.096 E.02264
G1 X111.656 Y116.827 E.022
G1 X111.1 Y116.4 E.022
G1 X110.673 Y115.844 E.022
G1 X110.404 Y115.196 E.022
G1 X110.31 Y114.48 E.02264
G1 X110.31 Y105.52 E.28091
G1 X110.404 Y104.804 E.02264
G1 X110.673 Y104.156 E.022
G1 X111.1 Y103.6 E.022
G1 X111.656 Y103.173 E.022
G1 X112.304 Y102.904 E.022
G1 X113.02 Y102.81 E.02264
G1 X146.98 Y102.81 E1.06477
M73 P3 R16
G1 X147.696 Y102.904 E.02264
G1 X148.344 Y103.173 E.022
G1 X148.9 Y103.6 E.022
G1 X149.327 Y104.156 E.022
G1 X149.573 Y104.749 E.02011
G1 X149.538 Y104.86
;WIPE_START
G1 X149.69 Y105.71
G1 X149.69 Y106.742
;WIPE_END
G1 X147.152 Y103.327 F12000
;TYPE:Bottom surface
;WIDTH:0.4215
G1 F2100
G1 X148.976 Y105.151 E.08119
G1 X149.03 Y105.564 E.01311
G1 X149.03 Y105.741 E.00557
G1 X146.759 Y103.47 E.10109
G1 X146.224 Y103.47 E.01685
G1 X149.03 Y106.276 E.12492
G1 X149.03 Y106.811 E.01685
G1 X145.689 Y103.47 E.14876
G1 X145.153 Y103.47 E.01685
G1 X149.03 Y107.347 E.17259
G1 X149.03 Y107.882 E.01685
G1 X144.618 Y103.47 E.19642
G1 X144.082 Y103.47 E.01685
G1 X149.03 Y108.418 E.22026
G1 X149.03 Y108.953 E.01685
G1 X143.547 Y103.47 E.24409
G1 X143.012 Y103.47 E.01685
G1 X149.03 Y109.488 E.26793
G1 X149.03 Y110.024 E.01685
G1 X142.476 Y103.47 E.29176
G1 X141.941 Y103.47 E.01685
G1 X149.03 Y110.559 E.3156
G1 X149.03 Y111.094 E.01685
G1 X141.406 Y103.47 E.33943
G1 X140.87 Y103.47 E.01685
G1 X149.03 Y111.63 E.36327
G1 X149.03 Y112.165 E.01685
G1 X140.335 Y103.47 E.3871
G1 X139.799 Y103.47 E.01685
G1 X149.03 Y112.701 E.41094
G1 X149.03 Y113.236 E.01685
G1 X139.264 Y103.47 E.43477
G1 X138.729 Y103.47 E.01685
G1 X149.03 Y113.771 E.45861
G1 X149.03 Y114.307 E.01685
G1 X138.193 Y103.47 E.48244
G1 X137.658 Y103.47 E.01685
G1 X148.983 Y114.795 E.50417
G1 X148.953 Y115.023 E.00725
G1 X148.872 Y115.219 E.00668
G1 X137.122 Y103.47 E.52306
G1 X136.587 Y103.47 E.01685
G1 X148.698 Y115.58 E.53914
G1 X148.465 Y115.883 E.01202
G1 X136.052 Y103.47 E.55262
G1 X135.516 Y103.47 E.01685
G1 X148.173 Y116.127 E.56345
M73 P4 R16
G1 X148.011 Y116.251 E.00643
G1 X147.835 Y116.324 E.006
G1 X134.981 Y103.47 E.57223
G1 X134.445 Y103.47 E.01685
G1 X147.439 Y116.464 E.57847
G1 X146.966 Y116.526 E.01502
G1 X133.91 Y103.47 E.58124
G1 X133.375 Y103.47 E.01685
G1 X146.435 Y116.53 E.58142
G1 X145.899 Y116.53 E.01685
G1 X132.839 Y103.47 E.58142
G1 X132.304 Y103.47 E.01685
G1 X145.364 Y116.53 E.58142
G1 X144.829 Y116.53 E.01685
G1 X131.768 Y103.47 E.58142
M73 P4 R15
G1 X131.233 Y103.47 E.01685
G1 X144.293 Y116.53 E.58142
G1 X143.758 Y116.53 E.01685
G1 X130.698 Y103.47 E.58142
G1 X130.162 Y103.47 E.01685
G1 X143.223 Y116.53 E.58142
G1 X142.687 Y116.53 E.01685
G1 X129.627 Y103.47 E.58142
G1 X129.091 Y103.47 E.01685
G1 X142.152 Y116.53 E.58142
G1 X141.616 Y116.53 E.01685
G1 X128.556 Y103.47 E.58142
G1 X128.021 Y103.47 E.01685
G1 X141.081 Y116.53 E.58142
G1 X140.546 Y116.53 E.01685
G1 X127.485 Y103.47 E.58142
G1 X126.95 Y103.47 E.01685
G1 X140.01 Y116.53 E.58142
G1 X139.475 Y116.53 E.01685
G1 X126.415 Y103.47 E.58142
M73 P5 R15
G1 X125.879 Y103.47 E.01685
G1 X138.939 Y116.53 E.58142
G1 X138.404 Y116.53 E.01685
G1 X125.344 Y103.47 E.58142
G1 X124.808 Y103.47 E.01685
G1 X137.869 Y116.53 E.58142
G1 X137.333 Y116.53 E.01685
G1 X124.273 Y103.47 E.58142
G1 X123.738 Y103.47 E.01685
G1 X136.798 Y116.53 E.58142
G1 X136.262 Y116.53 E.01685
G1 X123.202 Y103.47 E.58142
G1 X122.667 Y103.47 E.01685
G1 X135.727 Y116.53 E.58142
G1 X135.192 Y116.53 E.01685
G1 X122.131 Y103.47 E.58142
G1 X121.596 Y103.47 E.01685
G1 X134.656 Y116.53 E.58142
G1 X134.121 Y116.53 E.01685
G1 X121.061 Y103.47 E.58142
G1 X120.525 Y103.47 E.01685
G1 X133.585 Y116.53 E.58142
G1 X133.05 Y116.53 E.01685
G1 X119.99 Y103.47 E.58142
G1 X119.454 Y103.47 E.01685
G1 X132.515 Y116.53 E.58142
G1 X131.979 Y116.53 E.01685
G1 X118.919 Y103.47 E.58142
G1 X118.384 Y103.47 E.01685
G1 X131.444 Y116.53 E.58142
G1 X130.908 Y116.53 E.01685
G1 X117.848 Y103.47 E.58142
M73 P6 R15
G1 X117.313 Y103.47 E.01685
G1 X130.373 Y116.53 E.58142
G1 X129.838 Y116.53 E.01685
G1 X116.777 Y103.47 E.58142
G1 X116.242 Y103.47 E.01685
G1 X129.302 Y116.53 E.58142
G1 X128.767 Y116.53 E.01685
G1 X115.707 Y103.47 E.58142
G1 X115.171 Y103.47 E.01685
G1 X128.232 Y116.53 E.58142
G1 X127.696 Y116.53 E.01685
G1 X114.636 Y103.47 E.58142
G1 X114.1 Y103.47 E.01685
G1 X127.161 Y116.53 E.58142
G1 X126.625 Y116.53 E.01685
G1 X113.565 Y103.47 E.58142
G1 X113.034 Y103.474 E.01673
G1 X126.09 Y116.53 E.58124
G1 X125.555 Y116.53 E.01685
G1 X112.561 Y103.536 E.57847
G1 X112.477 Y103.547 E.00266
G1 X112.165 Y103.676 E.01061
G1 X125.019 Y116.53 E.57223
G1 X124.484 Y116.53 E.01685
G1 X111.827 Y103.873 E.56345
G1 X111.57 Y104.07 E.01018
G1 X111.535 Y104.117 E.00184
G1 X123.948 Y116.53 E.55262
G1 X123.413 Y116.53 E.01685
G1 X111.302 Y104.42 E.53914
G1 X111.249 Y104.489 E.00276
G1 X111.128 Y104.781 E.00994
G1 X122.878 Y116.53 E.52306
G1 X122.342 Y116.53 E.01685
G1 X111.017 Y105.205 E.50417
G1 X110.97 Y105.564 E.01138
G1 X110.97 Y105.693 E.00408
G1 X121.807 Y116.53 E.48244
G1 X121.271 Y116.53 E.01685
M73 P7 R15
G1 X110.97 Y106.229 E.4586
G1 X110.97 Y106.764 E.01685
G1 X120.736 Y116.53 E.43477
G1 X120.201 Y116.53 E.01685
G1 X110.97 Y107.299 E.41094
G1 X110.97 Y107.835 E.01685
G1 X119.665 Y116.53 E.3871
G1 X119.13 Y116.53 E.01685
G1 X110.97 Y108.37 E.36327
G1 X110.97 Y108.906 E.01685
G1 X118.594 Y116.53 E.33943
G1 X118.059 Y116.53 E.01685
G1 X110.97 Y109.441 E.3156
G1 X110.97 Y109.976 E.01685
G1 X117.524 Y116.53 E.29176
G1 X116.988 Y116.53 E.01685
G1 X110.97 Y110.512 E.26793
G1 X110.97 Y111.047 E.01685
G1 X116.453 Y116.53 E.24409
G1 X115.917 Y116.53 E.01685
G1 X110.97 Y111.583 E.22026
G1 X110.97 Y112.118 E.01685
G1 X115.382 Y116.53 E.19642
G1 X114.847 Y116.53 E.01685
G1 X110.97 Y112.653 E.17259
G1 X110.97 Y113.189 E.01685
G1 X114.311 Y116.53 E.14875
G1 X113.776 Y116.53 E.01685
G1 X110.97 Y113.724 E.12492
G1 X110.97 Y114.259 E.01685
G1 X113.241 Y116.53 E.10108
G1 X113.064 Y116.53 E.00557
G1 X112.651 Y116.476 E.01311
G1 X110.827 Y114.652 E.08119
; stop printing object retraction_tower.stl id:0 copy 0
EXCLUDE_OBJECT_END NAME=retraction_tower.stl_id_0_copy_0
M106 S255
;LAYER_CHANGE
;Z:0.4
;HEIGHT:0.2
; Calib_Retraction_tower: Z_HEIGHT: 0.4, length:0
;WIPE_START
G1 F2100
G1 X112.241 Y116.066
;WIPE_END
M140 S55 ; set bed temperature
G1 X110.503 Y119.616 Z.4 F12000
;TYPE:Skirt
;WIDTH:0.42
G1 F3600
G1 X109.823 Y119.283 E.02373
G1 X108.694 Y118.298 E.047
G1 X107.857 Y117.054 E.047
G1 X107.372 Y115.636 E.047
G1 X107.246 Y114.5 E.03583
G1 X107.246 Y105.5 E.28219
G1 X107.372 Y104.364 E.03583
G1 X107.558 Y103.67 E.02254
G1 X108.217 Y102.323 E.047
G1 X109.202 Y101.194 E.047
G1 X110.446 Y100.357 E.047
G1 X111.864 Y99.872 E.047
G1 X113 Y99.746 E.03583
G1 X147.359 Y99.769 E1.07732
G1 X148.83 Y100.058 E.047
G1 X149.554 Y100.357 E.02456
G1 X150.177 Y100.717 E.02254
G1 X151.306 Y101.702 E.047
G1 X152.143 Y102.946 E.047
G1 X152.442 Y103.67 E.02456
G1 X152.731 Y105.141 E.047
G1 X152.754 Y114.5 E.29346
G1 X152.628 Y115.636 E.03583
G1 X152.442 Y116.33 E.02254
G1 X151.783 Y117.677 E.047
G1 X150.798 Y118.806 E.047
G1 X149.554 Y119.643 E.047
G1 X148.136 Y120.128 E.047
G1 X147 Y120.254 E.03583
G1 X113 Y120.254 E1.06605
G1 X111.864 Y120.128 E.03583
G1 X111.17 Y119.942 E.02254
G1 X110.557 Y119.642 E.02138
G1 X110.72 Y119.306 F12000
G1 F3600
G1 X110.053 Y118.984 E.02322
G1 X108.993 Y118.068 E.04392
G1 X108.206 Y116.91 E.04392
G1 X107.745 Y115.587 E.04392
G1 X107.623 Y114.5 E.03429
G1 X107.623 Y105.5 E.28219
G1 X107.745 Y104.413 E.03429
G1 X107.906 Y103.814 E.01946
G1 X108.516 Y102.553 E.04392
G1 X109.432 Y101.493 E.04392
G1 X110.59 Y100.706 E.04392
G1 X111.913 Y100.245 E.04392
G1 X113 Y100.123 E.03429
G1 X147.31 Y100.143 E1.07577
G1 X148.087 Y100.245 E.02456
G1 X149.41 Y100.706 E.04392
G1 X149.947 Y101.016 E.01946
G1 X151.007 Y101.932 E.04392
G1 X151.484 Y102.553 E.02456
G1 X152.094 Y103.814 E.04392
G1 X152.357 Y105.19 E.04392
G1 X152.377 Y114.5 E.29192
G1 X152.255 Y115.587 E.03429
G1 X152.094 Y116.186 E.01946
G1 X151.484 Y117.447 E.04392
G1 X150.568 Y118.507 E.04392
G1 X149.41 Y119.294 E.04392
G1 X148.087 Y119.755 E.04392
G1 X147 Y119.877 E.03429
G1 X113 Y119.877 E1.06605
M73 P8 R15
G1 X111.913 Y119.755 E.03429
G1 X111.314 Y119.594 E.01946
G1 X110.774 Y119.333 E.01882
; printing object retraction_tower.stl id:0 copy 0
EXCLUDE_OBJECT_START NAME=retraction_tower.stl_id_0_copy_0
;WIPE_START
G1 X110.053 Y118.984
G1 X109.145 Y118.2
;WIPE_END
G1 X149.282 Y104.889 F12000
;TYPE:Inner wall
;WIDTH:0.449999
G1 F6000
G1 X149.368 Y105.71 E.02797
G1 X149.368 Y114.459 E.29611
G1 X149.282 Y115.111 E.02229
G1 X149.046 Y115.681 E.02088
G1 X148.671 Y116.171 E.02088
G1 X148.181 Y116.546 E.02088
G1 X147.611 Y116.782 E.02088
G1 X146.959 Y116.868 E.02229
G1 X113.041 Y116.868 E1.14805
G1 X112.389 Y116.782 E.02229
G1 X111.819 Y116.546 E.02088
G1 X111.329 Y116.171 E.02088
G1 X110.954 Y115.681 E.02088
G1 X110.718 Y115.111 E.02088
G1 X110.632 Y114.459 E.02229
G1 X110.632 Y105.541 E.30183
G1 X110.718 Y104.889 E.02229
G1 X110.954 Y104.319 E.02088
G1 X111.329 Y103.829 E.02088
G1 X111.819 Y103.454 E.02088
G1 X112.389 Y103.218 E.02088
G1 X113.041 Y103.132 E.02229
G1 X146.959 Y103.132 E1.14805
G1 X147.611 Y103.218 E.02229
G1 X148.181 Y103.454 E.02088
G1 X148.671 Y103.829 E.02088
G1 X149.046 Y104.319 E.02088
G1 X149.259 Y104.833 E.01884
G1 X149.679 Y104.782 F12000
;TYPE:Outer wall
G1 F4500
G1 X149.775 Y105.71 E.03159
G1 X149.775 Y114.485 E.29702
G1 X149.679 Y115.218 E.02501
G1 X149.402 Y115.887 E.0245
G1 X148.961 Y116.461 E.0245
G1 X148.387 Y116.902 E.0245
G1 X147.718 Y117.179 E.0245
G1 X146.985 Y117.275 E.02501
G1 X113.015 Y117.275 E1.14986
G1 X112.282 Y117.179 E.02501
G1 X111.613 Y116.902 E.0245
G1 X111.039 Y116.461 E.0245
G1 X110.598 Y115.887 E.0245
G1 X110.321 Y115.218 E.0245
G1 X110.225 Y114.485 E.02501
G1 X110.225 Y105.515 E.30364
G1 X110.321 Y104.782 E.02501
G1 X110.598 Y104.113 E.0245
G1 X111.039 Y103.539 E.0245
G1 X111.613 Y103.098 E.0245
G1 X112.282 Y102.821 E.0245
G1 X113.015 Y102.725 E.02501
G1 X146.985 Y102.725 E1.14986
G1 X147.718 Y102.821 E.02501
G1 X148.387 Y103.098 E.0245
G1 X148.961 Y103.539 E.0245
G1 X149.402 Y104.113 E.0245
G1 X149.656 Y104.727 E.02247
G1 X149.621 Y104.838
;WIPE_START
G1 X149.775 Y105.71
G1 X149.775 Y106.72
;WIPE_END
G1 X147.857 Y116.548 F12000
;TYPE:Internal solid infill
;WIDTH:0.453805
G1 F4800
G1 X148.454 Y115.952 E.02881
G1 X148.779 Y115.527 E.01827
G1 X148.985 Y115.032 E.01832
G1 X149.014 Y114.811 E.00762
G1 X147.311 Y116.514 E.08229
G1 X146.939 Y116.563 E.01282
G1 X146.68 Y116.563 E.00882
G1 X149.063 Y114.18 E.1151
G1 X149.063 Y113.599 E.01985
G1 X146.099 Y116.563 E.14317
G1 X145.518 Y116.563 E.01985
G1 X149.063 Y113.018 E.17125
G1 X149.063 Y112.437 E.01985
G1 X144.937 Y116.563 E.19932
G1 X144.356 Y116.563 E.01985
G1 X149.063 Y111.856 E.2274
G1 X149.063 Y111.275 E.01985
G1 X143.775 Y116.563 E.25548
G1 X143.194 Y116.563 E.01985
G1 X149.063 Y110.694 E.28355
G1 X149.063 Y110.113 E.01985
G1 X142.613 Y116.563 E.31163
G1 X142.032 Y116.563 E.01985
G1 X149.063 Y109.532 E.3397
G1 X149.063 Y108.951 E.01985
G1 X141.451 Y116.563 E.36778
G1 X140.87 Y116.563 E.01985
G1 X149.063 Y108.37 E.39586
G1 X149.063 Y107.789 E.01985
G1 X140.289 Y116.563 E.42393
G1 X139.708 Y116.563 E.01985
G1 X149.063 Y107.208 E.45201
G1 X149.063 Y106.626 E.01985
G1 X139.126 Y116.563 E.48008
G1 X138.545 Y116.563 E.01985
G1 X149.063 Y106.045 E.50816
G1 X149.051 Y105.476 E.01947
G1 X137.964 Y116.563 E.53569
G1 X137.383 Y116.563 E.01985
G1 X148.982 Y104.963 E.56044
