;FLAVOR:Marlin
;TIME:2553
;Filament used: 1.36523m
;Layer height: 0.2
;MINX:109.123
;MINY:101.619
;MINZ:0.2
;MAXX:150.873
;MAXY:118.381
;MAXZ:39.4
;POSTPROCESSED
;Generated with Cura_SteamEngine 5.3.1
;
;

M82 ;absolute extrusion mode
START_PRINT EXTRUDER_TEMP=200 BED_TEMP=55 RELATIVE_E_MODE=False PROBE=alse PROBE_AREA_START=%MINX%,%MINY% PROBE_AREA_END=%MAXX%,%MAXY%
G92 E0
G92 E0
G1 F1500 E-6.5
;LAYER_COUNT:197
;LAYER:0
M107
G0 F6000 X110.769 Y103.316 Z0.2
;TYPE:SKIRT
G1 F1500 E0
G1 F900 X111.091 Y103.041 E0.0176
G1 X111.459 Y102.831 E0.03522
G1 X111.86 Y102.694 E0.05284
G1 X112.35 Y102.632 E0.07337
G1 X113.253 Y102.619 E0.11092
G1 X146.854 Y102.62 E1.50789
G1 X147.553 Y102.63 E1.53695
G1 X147.974 Y102.676 E1.55456
G1 X148.38 Y102.8 E1.57221
G1 X148.754 Y102.998 E1.5898
G1 X149.085 Y103.263 E1.60743
G1 X149.366 Y103.58 E1.62504
G1 X149.62 Y103.993 E1.6452
G1 X149.77 Y104.39 E1.66284
G1 X149.849 Y104.937 E1.68582
G1 X149.873 Y106.059 E1.73248
G1 X149.872 Y114.301 E2.07514
G1 X149.862 Y115.017 E2.10491
G1 X149.816 Y115.439 E2.12256
G1 X149.692 Y115.844 E2.14017
G1 X149.422 Y116.337 E2.16354
G1 X149.093 Y116.726 E2.18472
G1 X148.763 Y116.992 E2.20234
G1 X148.389 Y117.191 E2.21996
G1 X147.985 Y117.317 E2.23755
G1 X147.561 Y117.365 E2.25529
G1 X146.658 Y117.38 E2.29284
G1 X113.203 Y117.381 E3.68373
G1 X112.35 Y117.368 E3.7192
G1 X111.928 Y117.321 E3.73686
G1 X111.523 Y117.197 E3.75447
G1 X111.149 Y116.999 E3.77206
G1 X110.818 Y116.734 E3.78969
G1 X110.543 Y116.411 E3.80732
G1 X110.333 Y116.043 E3.82494
G1 X110.196 Y115.642 E3.84256
G1 X110.135 Y115.181 E3.86189
G1 X110.124 Y114.76 E3.8794
G1 X110.123 Y105.558 E4.26197
G1 X110.134 Y104.847 E4.29154
G1 X110.181 Y104.426 E4.30915
G1 X110.305 Y104.021 E4.32676
G1 X110.504 Y103.646 E4.34441
G1 X110.769 Y103.316 E4.36201
G0 F6000 X110.408 Y102.966
G1 F900 X110.802 Y102.631 E4.38351
G1 X111.253 Y102.373 E4.40511
G1 X111.748 Y102.204 E4.42685
G1 X112.343 Y102.132 E4.45177
G1 X113.253 Y102.119 E4.48961
G1 X146.861 Y102.12 E5.88687
G1 X147.56 Y102.13 E5.91593
G1 X148.073 Y102.184 E5.93738
G1 X148.573 Y102.336 E5.9591
G1 X149.027 Y102.576 E5.98045
G1 X149.433 Y102.902 E6.0021
G1 X149.769 Y103.281 E6.02316
G1 X150.072 Y103.773 E6.04718
G1 X150.257 Y104.265 E6.06904
G1 X150.349 Y104.926 E6.09678
G1 X150.373 Y106.059 E6.1439
G1 X150.372 Y114.308 E6.48685
G1 X150.362 Y115.024 E6.51662
G1 X150.308 Y115.538 E6.53811
G1 X150.154 Y116.041 E6.55998
G1 X149.837 Y116.621 E6.58746
G1 X149.445 Y117.084 E6.61268
G1 X149.041 Y117.41 E6.63426
G1 X148.582 Y117.654 E6.65588
G1 X148.085 Y117.809 E6.67752
G1 X147.569 Y117.865 E6.6991
G1 X146.666 Y117.88 E6.73665
G1 X113.195 Y117.881 E8.12821
G1 X112.342 Y117.868 E8.16368
G1 X111.829 Y117.813 E8.18513
G1 X111.33 Y117.661 E8.20681
G1 X110.876 Y117.421 E8.22816
G1 X110.466 Y117.092 E8.25002
G1 X110.133 Y116.701 E8.27137
G1 X109.875 Y116.249 E8.29301
G1 X109.706 Y115.755 E8.31472
G1 X109.639 Y115.247 E8.33602
G1 X109.624 Y114.76 E8.35628
G1 X109.623 Y105.55 E8.73918
G1 X109.637 Y104.792 E8.7707
G1 X109.689 Y104.325 E8.79024
G1 X109.842 Y103.827 E8.8119
G1 X110.084 Y103.37 E8.8334
G1 X110.408 Y102.966 E8.85493
G0 F6000 X110.048 Y102.616
G1 F900 X110.512 Y102.221 E8.88026
G1 X111.047 Y101.915 E8.90589
G1 X111.635 Y101.714 E8.93172
G1 X112.336 Y101.632 E8.96106
G1 X113.253 Y101.619 E8.99919
G1 X146.868 Y101.62 E10.39674
G1 X147.567 Y101.63 E10.42581
G1 X148.171 Y101.692 E10.45105
G1 X148.767 Y101.873 E10.47695
G1 X149.303 Y102.156 E10.50215
G1 X149.779 Y102.539 E10.52755
G1 X150.172 Y102.982 E10.55217
G1 X150.523 Y103.551 E10.57996
G1 X150.745 Y104.141 E10.60617
G1 X150.849 Y104.915 E10.63864
G1 X150.873 Y106.059 E10.68621
G1 X150.872 Y114.315 E11.02946
G1 X150.862 Y115.031 E11.05923
G1 X150.8 Y115.638 E11.08459
G1 X150.616 Y116.238 E11.11069
G1 X150.252 Y116.905 E11.14228
G1 X149.797 Y117.442 E11.17154
G1 X149.319 Y117.828 E11.19708
G1 X148.775 Y118.117 E11.22269
G1 X148.186 Y118.301 E11.24835
G1 X147.577 Y118.365 E11.27381
G1 X146.666 Y118.38 E11.31169
G1 X113.187 Y118.381 E12.70358
G1 X112.334 Y118.368 E12.73905
G1 X111.73 Y118.305 E12.7643
G1 X111.137 Y118.125 E12.79006
G1 X110.6 Y117.841 E12.81532
G1 X110.116 Y117.452 E12.84113
G1 X109.723 Y116.991 E12.86632
G1 X109.417 Y116.455 E12.89198
G1 X109.216 Y115.867 E12.91781
G1 X109.139 Y115.262 E12.94317
G1 X109.124 Y114.76 E12.96405
G1 X109.123 Y105.541 E13.34733
G1 X109.137 Y104.783 E13.37885
G1 X109.197 Y104.224 E13.40222
G1 X109.378 Y103.635 E13.42784
G1 X109.664 Y103.094 E13.45328
G1 X110.048 Y102.616 E13.47878
G1 F1500 E6.97878
;MESH:RetractTower
G0 F6000 X112.424 Y104.205
G0 X112.787 Y105.283
G0 X113.623 Y113.881
;TYPE:WALL-INNER
G1 F1500 E13.47878
G1 F900 X146.372 Y113.88 E14.84032
G1 X146.372 Y106.121 E15.1629
G1 X113.624 Y106.12 E16.52441
G1 X113.623 Y113.881 E16.84707
G0 F6000 X113.123 Y114.381
G1 F900 X146.872 Y114.38 E18.25019
G1 X146.872 Y105.621 E18.61435
G1 X113.124 Y105.62 E20.01743
G1 X113.123 Y114.381 E20.38167
G0 F6000 X112.623 Y114.881
;TYPE:WALL-OUTER
G1 F900 X147.372 Y114.88 E21.82636
G1 X147.372 Y105.121 E22.23209
G1 X112.624 Y105.12 E23.67675
G1 X112.623 Y114.881 E24.08256
G0 F6000 X113.243 Y114.261
G0 X113.734 Y113.419
G0 X114.084 Y113.42
;TYPE:SKIN
G1 F900 X114.085 Y106.581 E24.3669
G1 X145.912 Y106.581 E25.69011
G1 X145.912 Y113.42 E25.97444
G1 X114.084 Y113.42 E27.2977
G0 F6000 X114.583 Y113.169
G1 F900 X114.333 Y112.919 E27.3124
G0 F6000 X114.333 Y112.212
G1 F900 X115.29 Y113.169 E27.36866
G0 F6000 X115.998 Y113.169
G1 F900 X114.333 Y111.505 E27.46653
G0 F6000 X114.333 Y110.797
G1 F900 X116.705 Y113.169 E27.60599
G0 F6000 X117.412 Y113.169
G1 F900 X114.333 Y110.09 E27.78703
G0 F6000 X114.333 Y109.383
G1 F900 X118.119 Y113.169 E28.00963
G0 F6000 X118.826 Y113.169
G1 F900 X114.333 Y108.676 E28.2738
G0 F6000 X114.333 Y107.969
G1 F900 X119.533 Y113.169 E28.57954
G0 F6000 X120.24 Y113.169
G1 F900 X114.333 Y107.262 E28.92685
G0 F6000 X114.609 Y106.831
G1 F900 X120.947 Y113.169 E29.2995
G0 F6000 X121.654 Y113.169
G1 F900 X115.316 Y106.831 E29.67215
G0 F6000 X116.023 Y106.831
G1 F900 X122.362 Y113.169 E30.04483
G0 F6000 X123.069 Y113.169
G1 F900 X116.73 Y106.831 E30.41751
G0 F6000 X117.437 Y106.831
G1 F900 X123.776 Y113.169 E30.79019
G0 F6000 X124.483 Y113.169
G1 F900 X118.144 Y106.831 E31.16287
G0 F6000 X118.851 Y106.831
G1 F900 X125.19 Y113.169 E31.53555
G0 F6000 X125.897 Y113.169
G1 F900 X119.559 Y106.831 E31.9082
G0 F6000 X120.266 Y106.831
G1 F900 X126.604 Y113.169 E32.28085
G0 F6000 X127.311 Y113.169
G1 F900 X120.973 Y106.831 E32.6535
G0 F6000 X121.68 Y106.831
G1 F900 X128.018 Y113.169 E33.02615
G0 F6000 X128.725 Y113.169
G1 F900 X122.387 Y106.831 E33.3988
G0 F6000 X123.094 Y106.831
G1 F900 X129.433 Y113.169 E33.77148
G0 F6000 X130.14 Y113.169
G1 F900 X123.801 Y106.831 E34.14416
G0 F6000 X124.508 Y106.831
G1 F900 X130.847 Y113.169 E34.51684
G0 F6000 X131.554 Y113.169
G1 F900 X125.215 Y106.831 E34.88952
G0 F6000 X125.922 Y106.831
G1 F900 X132.261 Y113.169 E35.2622
G0 F6000 X132.968 Y113.169
G1 F900 X126.63 Y106.831 E35.63485
G0 F6000 X127.337 Y106.831
G1 F900 X133.675 Y113.169 E36.0075
G0 F6000 X134.382 Y113.169
G1 F900 X128.044 Y106.831 E36.38015
G0 F6000 X128.751 Y106.831
G1 F900 X135.089 Y113.169 E36.7528
G0 F6000 X135.797 Y113.169
G1 F900 X129.458 Y106.831 E37.12548
G0 F6000 X130.165 Y106.831
G1 F900 X136.504 Y113.169 E37.49816
G0 F6000 X137.211 Y113.169
G1 F900 X130.872 Y106.831 E37.87084
G0 F6000 X131.579 Y106.831
G1 F900 X137.918 Y113.169 E38.24351
G0 F6000 X138.625 Y113.169
G1 F900 X132.286 Y106.831 E38.61619
G0 F6000 X132.994 Y106.831
G1 F900 X139.332 Y113.169 E38.98884
G0 F6000 X140.039 Y113.169
G1 F900 X133.701 Y106.831 E39.36149
G0 F6000 X134.408 Y106.831
G1 F900 X140.746 Y113.169 E39.73414
G0 F6000 X141.453 Y113.169
G1 F900 X135.115 Y106.831 E40.10679
G0 F6000 X135.822 Y106.831
G1 F900 X142.16 Y113.169 E40.47944
G0 F6000 X142.868 Y113.169
G1 F900 X136.529 Y106.831 E40.85212
G0 F6000 X137.236 Y106.831
G1 F900 X143.575 Y113.169 E41.2248
G0 F6000 X144.282 Y113.169
G1 F900 X137.943 Y106.831 E41.59748
G0 F6000 X138.65 Y106.831
G1 F900 X144.989 Y113.169 E41.97016
G0 F6000 X145.661 Y113.134
G1 F900 X139.358 Y106.831 E42.34075
G0 F6000 X140.065 Y106.831
G1 F900 X145.661 Y112.427 E42.66978
G0 F6000 X145.661 Y111.72
G1 F900 X140.772 Y106.831 E42.95723
G0 F6000 X141.479 Y106.831
G1 F900 X145.661 Y111.012 E43.20309
G0 F6000 X145.661 Y110.305
G1 F900 X142.186 Y106.831 E43.40738
G0 F6000 X142.893 Y106.831
G1 F900 X145.661 Y109.598 E43.57009
G0 F6000 X145.661 Y108.891
G1 F900 X143.6 Y106.831 E43.69124
G0 F6000 X144.307 Y106.831
G1 F900 X145.661 Y108.184 E43.77082
G0 F6000 X145.661 Y107.477
G1 F900 X145.014 Y106.831 E43.80884
M104 S200
G0 F6000 X145.014 Y106.169
G1 F1500 E37.30884
;MESH:NONMESH
G0 F300 X145.014 Y106.169 Z0.4
G0 F6000 X113.806 Y106.302
G0 X113.355 Y114.152
;TIME_ELAPSED:81.137250
;LAYER:1
M106 S255
;TYPE:WALL-INNER
;MESH:RetractTower
G1 F1500 E43.80884
G1 F2700 X146.645 Y114.152 E44.91607
G1 X146.645 Y105.848 E45.19226
G1 X113.355 Y105.848 E46.29949
G1 X113.355 Y114.152 E46.57568
G0 F10500 X112.955 Y114.552
G1 F2700 X147.045 Y114.552 E47.70952
G1 X147.045 Y105.448 E48.01232
G1 X112.955 Y105.448 E49.14616
G1 X112.955 Y114.552 E49.44896
G0 F10500 X112.555 Y114.948
;TYPE:WALL-OUTER
G1 F2700 X147.445 Y114.952 E50.6094
G1 X147.445 Y105.048 E50.93881
G1 X112.555 Y105.052 E52.09926
G1 X112.555 Y114.948 E52.4284
G1 F1500 E45.9284
G0 F10500 X112.825 Y114.682
G0 X144.142 Y106.209
;TYPE:SKIN
G1 F1500 E52.4284
G1 F1950 X146.285 Y106.208 E52.49968
G1 X146.281 Y108.293 E52.56902
G1 X145.836 Y107.536 E52.59823
G1 X145.251 Y106.894 E52.62712
G1 X144.549 Y106.389 E52.65588
G1 X144.142 Y106.209 E52.67068
G0 F10500 X144.142 Y113.791
G1 F1950 X144.549 Y113.611 E52.68548
G1 X145.251 Y113.106 E52.71425
G1 X145.836 Y112.464 E52.74313
G1 X146.281 Y111.707 E52.77234
G1 X146.285 Y113.792 E52.84169
G1 X144.142 Y113.791 E52.91296
G0 F10500 X140.247 Y110.001
G1 F1950 X140.294 Y109.536 E52.92851
G1 X140.439 Y109.09 E52.94411
G1 X140.674 Y108.683 E52.95974
G1 X140.984 Y108.339 E52.97514
G1 X141.363 Y108.066 E52.99068
G1 X141.802 Y107.868 E53.00669
G1 X142.246 Y107.773 E53.0218
G1 X142.722 Y107.774 E53.03763
G1 X143.17 Y107.87 E53.05287
G1 X143.603 Y108.063 E53.06863
G1 X143.983 Y108.336 E53.0842
G1 X144.295 Y108.683 E53.09972
G1 X144.529 Y109.091 E53.11536
G1 X144.674 Y109.537 E53.13096
G1 X144.723 Y110.001 E53.14648
G1 X144.674 Y110.464 E53.16196
G1 X144.529 Y110.91 E53.17756
G1 X144.295 Y111.317 E53.19318
G1 X143.985 Y111.661 E53.20858
G1 X143.603 Y111.938 E53.22427
G1 X143.172 Y112.13 E53.23996
G1 X142.723 Y112.227 E53.25524
G1 X142.247 Y112.227 E53.27107
G1 X141.8 Y112.131 E53.28628
G1 X141.37 Y111.94 E53.30193
G1 X140.985 Y111.662 E53.31772
G1 X140.674 Y111.317 E53.33317
G1 X140.439 Y110.91 E53.34881
G1 X140.294 Y110.464 E53.3644
G1 X140.247 Y110.001 E53.37988
G0 F10500 X122.645 Y113.792
G1 F1950 X122.645 Y106.208 E53.63213
G1 X140.829 Y106.208 E54.23693
G1 X140.417 Y106.389 E54.2519
G1 X139.72 Y106.893 E54.2805
G1 X139.109 Y107.571 E54.31086
G1 X138.691 Y108.292 E54.33858
G1 X138.421 Y109.114 E54.36736
G1 X138.326 Y110.021 E54.39769
G1 X138.421 Y110.886 E54.42663
G1 X138.691 Y111.708 E54.45541
G1 X139.109 Y112.429 E54.48313
G1 X139.689 Y113.079 E54.5121
G1 X140.417 Y113.611 E54.54209
G1 X140.825 Y113.791 E54.55692
G1 X122.645 Y113.792 E55.16159
G0 F10500 X116.245 Y112.24
G1 F1950 X116.245 Y107.76 E55.3106
G1 X120.725 Y107.76 E55.4596
G1 X120.725 Y112.24 E55.60861
G1 X116.245 Y112.24 E55.75761
G0 F10500 X113.767 Y113.74
G1 F1544.6 X113.767 Y106.26 E56.07171
G1 X114.273 Y106.26 E56.09295
G1 X114.273 Y113.74 E56.40705
G1 X113.767 Y113.74 E56.42829
G0 F10500 X116.444 Y108.132
;TYPE:SKIN
G1 F1950 X116.616 Y107.96 E56.43638
G0 F10500 X117.182 Y107.96
G1 F1950 X116.444 Y108.698 E56.4711
G0 F10500 X116.444 Y109.264
G1 F1950 X117.748 Y107.96 E56.53243
G0 F10500 X118.313 Y107.96
G1 F1950 X116.444 Y109.829 E56.62035
G0 F10500 X116.444 Y110.395
G1 F1950 X118.879 Y107.96 E56.73488
G0 F10500 X119.445 Y107.96
G1 F1950 X116.444 Y110.961 E56.87604
G0 F10500 X116.444 Y111.527
G1 F1950 X120.01 Y107.96 E57.0438
G0 F10500 X120.524 Y108.012
G1 F1950 X116.496 Y112.04 E57.23326
G0 F10500 X117.062 Y112.04
G1 F1950 X120.524 Y108.578 E57.3961
G0 F10500 X120.524 Y109.144
G1 F1950 X117.627 Y112.04 E57.53234
G0 F10500 X118.193 Y112.04
G1 F1950 X120.524 Y109.709 E57.64199
G0 F10500 X120.524 Y110.275
G1 F1950 X118.759 Y112.04 E57.72501
G0 F10500 X119.324 Y112.04
G1 F1950 X120.524 Y110.841 E57.78143
G0 F10500 X120.524 Y111.406
G1 F1950 X119.89 Y112.04 E57.81125
G0 F10500 X120.456 Y112.04
G1 F1950 X120.524 Y111.972 E57.81445
G0 F10500 X122.844 Y106.824
G1 F1950 X123.26 Y106.408 E57.83402
G0 F10500 X123.825 Y106.408
G1 F1950 X122.844 Y107.389 E57.88016
G0 F10500 X122.844 Y107.955
G1 F1950 X124.391 Y106.408 E57.95293
G0 F10500 X124.957 Y106.408
G1 F1950 X122.844 Y108.521 E58.05231
G0 F10500 X122.844 Y109.086
G1 F1950 X125.522 Y106.408 E58.17828
G0 F10500 X126.088 Y106.408
G1 F1950 X122.844 Y109.652 E58.33087
G0 F10500 X122.844 Y110.218
G1 F1950 X126.654 Y106.408 E58.51008
G0 F10500 X127.219 Y106.408
G1 F1950 X122.844 Y110.783 E58.71586
G0 F10500 X122.844 Y111.349
G1 F1950 X127.785 Y106.408 E58.94827
G0 F10500 X128.351 Y106.408
G1 F1950 X122.844 Y111.915 E59.20731
G0 F10500 X122.844 Y112.48
G1 F1950 X128.916 Y106.408 E59.49291
G0 F10500 X129.482 Y106.408
G1 F1950 X122.844 Y113.046 E59.80515
G0 F10500 X122.864 Y113.592
G1 F1950 X130.048 Y106.408 E60.14306
G0 F10500 X130.613 Y106.408
G1 F1950 X123.429 Y113.592 E60.48097
G0 F10500 X123.995 Y113.592
G1 F1950 X131.179 Y106.408 E60.81889
G0 F10500 X131.745 Y106.408
G1 F1950 X124.561 Y113.592 E61.1568
G0 F10500 X125.126 Y113.592
G1 F1950 X132.31 Y106.408 E61.49471
G0 F10500 X132.876 Y106.408
G1 F1950 X125.692 Y113.592 E61.83263
G0 F10500 X126.258 Y113.592
G1 F1950 X133.442 Y106.408 E62.17054
G0 F10500 X134.008 Y106.408
G1 F1950 X126.823 Y113.592 E62.50848
G0 F10500 X127.389 Y113.592
G1 F1950 X134.573 Y106.408 E62.84639
G0 F10500 X135.139 Y106.408
G1 F1950 X127.955 Y113.592 E63.1843
G0 F10500 X128.52 Y113.592
G1 F1950 X135.705 Y106.408 E63.52224
G0 F10500 X136.27 Y106.408
G1 F1950 X129.086 Y113.592 E63.86015
G0 F10500 X129.652 Y113.592
G1 F1950 X136.836 Y106.408 E64.19807
G0 F10500 X137.402 Y106.408
G1 F1950 X130.217 Y113.592 E64.536
G0 F10500 X130.783 Y113.592
G1 F1950 X137.967 Y106.408 E64.87392
G0 F10500 X138.533 Y106.408
G1 F1950 X131.349 Y113.592 E65.21183
G0 F10500 X131.915 Y113.591
G1 F1950 X139.099 Y106.408 E65.54972
G0 F10500 X139.664 Y106.408
G1 F1950 X132.481 Y113.591 E65.88759
G0 F10500 X133.047 Y113.591
G1 F1950 X138.612 Y108.026 E66.14935
G0 F10500 X138.266 Y108.937
G1 F1950 X133.612 Y113.591 E66.36826
G0 F10500 X134.178 Y113.591
G1 F1950 X138.163 Y109.607 E66.55568
G0 F10500 X138.141 Y110.194
G1 F1950 X134.744 Y113.591 E66.71546
G0 F10500 X135.309 Y113.591
G1 F1950 X138.195 Y110.706 E66.85118
G0 F10500 X138.3 Y111.166
G1 F1950 X135.875 Y113.591 E66.96525
G0 F10500 X136.441 Y113.591
G1 F1950 X138.438 Y111.594 E67.05918
G0 F10500 X138.616 Y111.981
G1 F1950 X137.006 Y113.591 E67.13491
G0 F10500 X137.572 Y113.591
G1 F1950 X138.824 Y112.34 E67.19378
G0 F10500 X139.054 Y112.675
G1 F1950 X138.138 Y113.591 E67.23686
G0 F10500 X138.703 Y113.591
G1 F1950 X139.322 Y112.973 E67.26596
G0 F10500 X139.596 Y113.265
G1 F1950 X139.269 Y113.591 E67.28131
G0 F10500 X139.835 Y113.591
G1 F1950 X139.923 Y113.503 E67.28545
G0 F10500 X140.507 Y109.525
G1 F1950 X142.004 Y108.028 E67.35587
G0 F10500 X142.625 Y107.973
G1 F1950 X140.461 Y110.136 E67.45763
G0 F10500 X140.552 Y110.612
G1 F1950 X143.104 Y108.06 E67.57767
G0 F10500 X143.496 Y108.234
G1 F1950 X140.724 Y111.005 E67.70803
G0 F10500 X140.96 Y111.335
G1 F1950 X143.826 Y108.469 E67.84284
G0 F10500 X144.097 Y108.764
G1 F1950 X141.251 Y111.609 E67.97668
G0 F10500 X141.601 Y111.825
G1 F1950 X144.31 Y109.116 E68.10411
G0 F10500 X144.46 Y109.532
G1 F1950 X142.018 Y111.973 E68.21895
G0 F10500 X142.531 Y112.026
G1 F1950 X144.514 Y110.043 E68.31222
G0 F10500 X144.367 Y110.756
G1 F1950 X143.246 Y111.877 E68.36495
