; HEADER_BLOCK_START
; generated by OrcaSlicer 1.6.3 on 2023-07-26 at 08:53:45
; total layer number: 107
; HEADER_BLOCK_END

; THUMBNAIL_BLOCK_START
; THUMBNAIL_BLOCK_END

; external perimeters extrusion width = 0.45mm
; perimeters extrusion width = 0.45mm
; infill extrusion width = 0.45mm
; solid infill extrusion width = 0.45mm
; top infill extrusion width = 0.40mm
; first layer extrusion width = 0.42mm

; EXECUTABLE_BLOCK_START
EXCLUDE_OBJECT_DEFINE NAME=retraction_tower.stl_id_0_copy_0 CENTER=130,110 POLYGON=[[110.001,105.5],[110.103,104.722],[110.401,103.998],[110.879,103.378],[111.499,102.9],[112.223,102.602],[113.001,102.5],[147.001,102.5],[147.777,102.602],[148.499,102.9],[149.121,103.378],[149.597,103.998],[149.899,104.722],[149.999,105.5],[149.999,114.5],[149.899,115.276],[149.597,115.998],[149.121,116.62],[148.499,117.096],[147.777,117.396],[147.001,117.5],[113.001,117.5],[112.223,117.396],[111.499,117.096],[110.879,116.62],[110.401,115.998],[110.103,115.276],[110.001,114.5],[110.001,105.5]]
M73 P0 R17
;TYPE:Custom
START_PRINT EXTRUDER_TEMP=205 BED_TEMP=55 RELATIVE_E_MODE=1 PRESSURE_ADVANCE=0.06
G90
G21
M83 ; use relative distances for extrusion
; filament start gcode
SET_PRESSURE_ADVANCE ADVANCE=0.06; Override pressure advance value
M106 S0
;LAYER_CHANGE
;Z:0.2
;HEIGHT:0.2
G1 E-1 F1800
G1 X109.197 Y101.197 F12000
G1 Z.4
G1 Z.2
G1 E1 F1800
;TYPE:Skirt
;WIDTH:0.42
G1 F900
G1 X109.817 Y100.719 E.02455
G1 X110.451 Y100.353 E.02293
G1 X111.865 Y99.871 E.04685
G1 X113.001 Y99.746 E.03584
G1 X147.36 Y99.769 E1.0773
G1 X148.136 Y99.871 E.02454
G1 X149.55 Y100.354 E.04684
G1 X150.177 Y100.716 E.02271
G1 X151.306 Y101.701 E.04695
G1 X152.139 Y102.938 E.04676
G1 X152.441 Y103.662 E.0246
G1 X152.631 Y104.371 E.02302
G1 X152.731 Y105.149 E.02459
G1 X152.753 Y114.5 E.2932
M73 P0 R16
G1 X152.631 Y115.628 E.03558
G1 X152.44 Y116.339 E.02307
G1 X152.138 Y117.061 E.02454
G1 X151.308 Y118.294 E.0466
G1 X150.795 Y118.807 E.02276
G1 X149.556 Y119.639 E.0468
G1 X148.143 Y120.126 E.04685
G1 X147.001 Y120.254 E.03603
G1 X113.001 Y120.254 E1.06605
G1 X111.858 Y120.126 E.03606
G1 X111.169 Y119.94 E.02238
G1 X109.822 Y119.281 E.04703
G1 X108.695 Y118.298 E.04687
G1 X107.855 Y117.049 E.04721
G1 X107.372 Y115.635 E.04684
G1 X107.247 Y114.5 E.0358
G1 X107.247 Y105.5 E.28219
G1 X107.372 Y104.364 E.03584
G1 X107.854 Y102.95 E.04685
G1 X108.22 Y102.316 E.02293
G1 X109.158 Y101.242 E.04472
G1 X109.428 Y101.495 F12000
G1 F900
G1 X110.594 Y100.702 E.04424
G1 X111.914 Y100.245 E.04379
G1 X113.001 Y100.123 E.0343
G1 X147.311 Y100.143 E1.07576
M73 P1 R16
G1 X148.087 Y100.245 E.02454
G1 X149.406 Y100.703 E.04378
G1 X149.947 Y101.015 E.0196
G1 X151.006 Y101.93 E.04389
G1 X151.791 Y103.083 E.04371
G1 X152.093 Y103.807 E.0246
G1 X152.357 Y105.197 E.04436
G1 X152.376 Y114.5 E.29169
G1 X152.257 Y115.58 E.03406
G1 X151.79 Y116.915 E.04436
G1 X151.009 Y118.065 E.04357
G1 X150.566 Y118.508 E.01965
G1 X149.411 Y119.291 E.04375
G1 X148.093 Y119.752 E.04379
G1 X147.001 Y119.877 E.03446
G1 X113.001 Y119.877 E1.06605
G1 X111.908 Y119.752 E.03449
G1 X111.313 Y119.592 E.01932
G1 X110.051 Y118.981 E.04395
G1 X108.994 Y118.068 E.0438
G1 X108.204 Y116.905 E.0441
G1 X107.746 Y115.586 E.04378
G1 X107.624 Y114.5 E.03426
G1 X107.624 Y105.5 E.28219
G1 X107.746 Y104.413 E.0343
G1 X108.203 Y103.093 E.04379
G1 X108.518 Y102.547 E.01979
G1 X109.388 Y101.541 E.04169
; printing object retraction_tower.stl id:0 copy 0
EXCLUDE_OBJECT_START NAME=retraction_tower.stl_id_0_copy_0
G1 E-.7 F1800
;WIPE_START
G1 F900
G1 X110.594 Y100.702 E-.20934
G1 X111.096 Y100.528 E-.07566
;WIPE_END
G1 E-.015 F1800
G17
G3 Z.6 I-.139 J1.209 P1  F12000
G1 X149.229 Y104.901 Z.6
G1 Z.2
G1 E1 F1800
;TYPE:Inner wall
;WIDTH:0.419999
G1 F900
G1 X149.312 Y105.705 E.02534
G1 X149.312 Y114.456 E.27438
G1 X149.229 Y115.096 E.02025
G1 X148.997 Y115.651 E.01885
G1 X148.631 Y116.13 E.01891
G1 X148.153 Y116.496 E.01888
G1 X147.597 Y116.727 E.01888
G1 X146.955 Y116.813 E.02029
G1 X113.047 Y116.813 E1.06317
M73 P2 R16
G1 X112.403 Y116.727 E.02036
G1 X111.846 Y116.496 E.01892
G1 X111.369 Y116.13 E.01884
G1 X111.001 Y115.652 E.01891
G1 X110.772 Y115.097 E.01881
G1 X110.688 Y114.455 E.02031
G1 X110.688 Y105.545 E.27937
G1 X110.773 Y104.9 E.02038
G1 X111.001 Y104.345 E.01884
G1 X111.369 Y103.868 E.01887
G1 X111.846 Y103.5 E.01887
G1 X112.401 Y103.272 E.01884
G1 X113.046 Y103.187 E.02038
G1 X146.956 Y103.187 E1.06323
G1 X147.598 Y103.271 E.02031
G1 X148.153 Y103.5 E.01881
G1 X148.631 Y103.868 E.01891
G1 X148.997 Y104.345 E.01887
G1 X149.206 Y104.846 E.01701
G1 X149.597 Y104.803 F12000
;TYPE:Outer wall
G1 F900
G1 X149.689 Y105.705 E.02844
G1 X149.689 Y114.48 E.27513
G1 X149.597 Y115.195 E.0226
G1 X149.326 Y115.841 E.02197
G1 X148.9 Y116.399 E.02201
G1 X148.343 Y116.825 E.022
G1 X147.696 Y117.094 E.02197
G1 X146.98 Y117.19 E.02263
G1 X113.022 Y117.19 E1.06475
G1 X112.304 Y117.094 E.02269
G1 X111.655 Y116.825 E.02202
G1 X111.1 Y116.399 E.02195
G1 X110.672 Y115.842 E.02203
G1 X110.405 Y115.195 E.02193
G1 X110.311 Y114.48 E.02263
G1 X110.311 Y105.52 E.28092
G1 X110.405 Y104.802 E.0227
G1 X110.672 Y104.154 E.02197
G1 X111.1 Y103.599 E.02199
G1 X111.655 Y103.171 E.02199
G1 X112.304 Y102.904 E.02197
G1 X113.021 Y102.81 E.0227
G1 X146.981 Y102.81 E1.06477
M73 P3 R16
G1 X147.696 Y102.904 E.02263
G1 X148.343 Y103.171 E.02193
G1 X148.9 Y103.599 E.02203
G1 X149.326 Y104.155 E.02196
G1 X149.574 Y104.747 E.02014
G1 X149.539 Y104.858
G1 E-.7 F1800
;WIPE_START
G1 F900
G1 X149.689 Y105.705 E-.13744
G1 X149.689 Y106.741 E-.14756
;WIPE_END
G1 E-.015 F1800
G17
G3 Z.6 I.977 J-.726 P1  F12000
G1 X147.152 Y103.327 Z.6
G1 Z.2
G1 E1 F1800
;TYPE:Bottom surface
;WIDTH:0.421492
G1 F2100
G1 X148.976 Y105.151 E.08119
G1 X149.029 Y105.562 E.01305
G1 X149.029 Y105.739 E.00557
G1 X146.76 Y103.47 E.10102
G1 X146.225 Y103.47 E.01685
G1 X149.029 Y106.274 E.12485
G1 X149.029 Y106.81 E.01685
G1 X145.689 Y103.47 E.14869
G1 X145.154 Y103.47 E.01685
G1 X149.029 Y107.345 E.17252
G1 X149.029 Y107.881 E.01685
G1 X144.618 Y103.47 E.19635
G1 X144.083 Y103.47 E.01685
G1 X149.029 Y108.416 E.22019
G1 X149.029 Y108.951 E.01685
G1 X143.548 Y103.47 E.24402
G1 X143.012 Y103.47 E.01685
G1 X149.029 Y109.487 E.26785
G1 X149.029 Y110.022 E.01685
G1 X142.477 Y103.47 E.29169
G1 X141.941 Y103.47 E.01685
G1 X149.029 Y110.558 E.31552
G1 X149.029 Y111.093 E.01685
G1 X141.406 Y103.47 E.33936
G1 X140.871 Y103.47 E.01685
G1 X149.029 Y111.628 E.36319
G1 X149.029 Y112.164 E.01685
G1 X140.335 Y103.47 E.38702
G1 X139.8 Y103.47 E.01685
G1 X149.029 Y112.699 E.41086
G1 X149.029 Y113.234 E.01685
G1 X139.265 Y103.47 E.43469
G1 X138.729 Y103.47 E.01685
G1 X149.029 Y113.77 E.45852
G1 X149.029 Y114.305 E.01685
G1 X138.194 Y103.47 E.48236
G1 X137.658 Y103.47 E.01685
G1 X148.983 Y114.795 E.50414
G1 X148.954 Y115.022 E.00723
G1 X148.872 Y115.219 E.00669
G1 X137.123 Y103.47 E.52302
G1 X136.588 Y103.47 E.01685
G1 X148.697 Y115.579 E.53905
G1 X148.464 Y115.882 E.01202
G1 X136.052 Y103.47 E.55255
M73 P4 R16
G1 X135.517 Y103.47 E.01685
G1 X148.172 Y116.125 E.56337
G1 X148.01 Y116.249 E.00642
G1 X147.834 Y116.322 E.00601
G1 X134.982 Y103.47 E.57215
G1 X134.446 Y103.47 E.01685
G1 X147.439 Y116.463 E.57841
G1 X146.967 Y116.526 E.01499
G1 X133.911 Y103.47 E.58122
G1 X133.375 Y103.47 E.01685
G1 X146.436 Y116.53 E.58141
G1 X145.9 Y116.53 E.01685
G1 X132.84 Y103.47 E.58141
G1 X132.305 Y103.47 E.01685
G1 X145.365 Y116.53 E.58141
G1 X144.829 Y116.53 E.01685
G1 X131.769 Y103.47 E.58141
G1 X131.234 Y103.47 E.01685
G1 X144.294 Y116.53 E.58141
G1 X143.759 Y116.53 E.01685
G1 X130.698 Y103.47 E.58141
G1 X130.163 Y103.47 E.01685
G1 X143.223 Y116.53 E.58141
G1 X142.688 Y116.53 E.01685
G1 X129.628 Y103.47 E.58141
G1 X129.092 Y103.47 E.01685
G1 X142.153 Y116.53 E.58141
G1 X141.617 Y116.53 E.01685
G1 X128.557 Y103.47 E.58141
G1 X128.022 Y103.47 E.01685
G1 X141.082 Y116.53 E.58141
G1 X140.546 Y116.53 E.01685
G1 X127.486 Y103.47 E.58141
G1 X126.951 Y103.47 E.01685
G1 X140.011 Y116.53 E.58141
M73 P5 R16
G1 X139.476 Y116.53 E.01685
G1 X126.415 Y103.47 E.58141
G1 X125.88 Y103.47 E.01685
G1 X138.94 Y116.53 E.58141
G1 X138.405 Y116.53 E.01685
G1 X125.345 Y103.47 E.58141
G1 X124.809 Y103.47 E.01685
G1 X137.87 Y116.53 E.58141
G1 X137.334 Y116.53 E.01685
G1 X124.274 Y103.47 E.58141
G1 X123.739 Y103.47 E.01685
G1 X136.799 Y116.53 E.58141
G1 X136.263 Y116.53 E.01685
G1 X123.203 Y103.47 E.58141
G1 X122.668 Y103.47 E.01685
G1 X135.728 Y116.53 E.58141
G1 X135.193 Y116.53 E.01685
G1 X122.132 Y103.47 E.58141
G1 X121.597 Y103.47 E.01685
G1 X134.657 Y116.53 E.58141
G1 X134.122 Y116.53 E.01685
G1 X121.062 Y103.47 E.58141
G1 X120.526 Y103.47 E.01685
G1 X133.586 Y116.53 E.58141
G1 X133.051 Y116.53 E.01685
G1 X119.991 Y103.47 E.58141
G1 X119.455 Y103.47 E.01685
G1 X132.516 Y116.53 E.58141
G1 X131.98 Y116.53 E.01685
G1 X118.92 Y103.47 E.58141
G1 X118.385 Y103.47 E.01685
G1 X131.445 Y116.53 E.58141
G1 X130.91 Y116.53 E.01685
G1 X117.849 Y103.47 E.58141
M73 P6 R16
G1 X117.314 Y103.47 E.01685
G1 X130.374 Y116.53 E.58141
G1 X129.839 Y116.53 E.01685
G1 X116.779 Y103.47 E.58141
G1 X116.243 Y103.47 E.01685
G1 X129.303 Y116.53 E.58141
G1 X128.768 Y116.53 E.01685
G1 X115.708 Y103.47 E.58141
G1 X115.172 Y103.47 E.01685
G1 X128.233 Y116.53 E.58141
G1 X127.697 Y116.53 E.01685
G1 X114.637 Y103.47 E.58141
M73 P6 R15
G1 X114.102 Y103.47 E.01685
G1 X127.162 Y116.53 E.58141
G1 X126.626 Y116.53 E.01685
G1 X113.566 Y103.47 E.58141
G1 X113.035 Y103.474 E.01673
G1 X126.091 Y116.53 E.58123
G1 X125.556 Y116.53 E.01685
G1 X112.561 Y103.536 E.57847
G1 X112.475 Y103.547 E.00275
G1 X112.165 Y103.675 E.01055
G1 X125.02 Y116.53 E.57229
G1 X124.485 Y116.53 E.01685
G1 X111.827 Y103.872 E.56351
G1 X111.571 Y104.07 E.01019
G1 X111.535 Y104.116 E.00183
G1 X123.95 Y116.53 E.55266
G1 X123.414 Y116.53 E.01685
G1 X111.302 Y104.418 E.5392
G1 X111.248 Y104.487 E.00276
G1 X111.128 Y104.779 E.00995
G1 X122.879 Y116.53 E.52311
G1 X122.343 Y116.53 E.01685
G1 X111.018 Y105.205 E.50418
G1 X110.971 Y105.563 E.01139
G1 X110.971 Y105.693 E.00408
G1 X121.808 Y116.53 E.48244
G1 X121.273 Y116.53 E.01685
G1 X110.971 Y106.228 E.45861
M73 P7 R15
G1 X110.971 Y106.764 E.01685
G1 X120.737 Y116.53 E.43477
G1 X120.202 Y116.53 E.01685
G1 X110.971 Y107.299 E.41094
G1 X110.971 Y107.834 E.01685
G1 X119.667 Y116.53 E.38711
G1 X119.131 Y116.53 E.01685
G1 X110.971 Y108.37 E.36327
G1 X110.971 Y108.905 E.01685
G1 X118.596 Y116.53 E.33944
G1 X118.06 Y116.53 E.01685
G1 X110.971 Y109.441 E.31561
G1 X110.971 Y109.976 E.01685
G1 X117.525 Y116.53 E.29177
G1 X116.99 Y116.53 E.01685
G1 X110.971 Y110.511 E.26794
G1 X110.971 Y111.047 E.01685
G1 X116.454 Y116.53 E.2441
G1 X115.919 Y116.53 E.01685
G1 X110.971 Y111.582 E.22027
G1 X110.971 Y112.118 E.01685
G1 X115.383 Y116.53 E.19644
G1 X114.848 Y116.53 E.01685
G1 X110.971 Y112.653 E.1726
G1 X110.971 Y113.188 E.01685
G1 X114.313 Y116.53 E.14877
G1 X113.777 Y116.53 E.01685
G1 X110.971 Y113.724 E.12494
G1 X110.971 Y114.259 E.01685
G1 X113.242 Y116.53 E.1011
G1 X113.066 Y116.53 E.00555
G1 X112.651 Y116.475 E.01316
G1 X110.828 Y114.652 E.08116
; stop printing object retraction_tower.stl id:0 copy 0
EXCLUDE_OBJECT_END NAME=retraction_tower.stl_id_0_copy_0
M106 S255
;LAYER_CHANGE
;Z:0.4
;HEIGHT:0.2
G1 E-.7 F1800
;WIPE_START
G1 F2100
G1 X112.242 Y116.066 E-.285
;WIPE_END
G1 E-.015 F1800
M140 S55 ; set bed temperature
G17
G3 Z.6 I-1.093 J-.535 P1  F12000
G1 X110.504 Y119.615 Z.6
G1 Z.4
G1 E1 F1800
;TYPE:Skirt
;WIDTH:0.42
G1 F3600
G1 X109.822 Y119.281 E.02381
G1 X108.695 Y118.298 E.04687
G1 X107.855 Y117.049 E.04721
G1 X107.372 Y115.635 E.04684
G1 X107.247 Y114.5 E.0358
G1 X107.247 Y105.5 E.28219
G1 X107.372 Y104.364 E.03584
G1 X107.854 Y102.95 E.04685
G1 X108.22 Y102.316 E.02293
G1 X109.197 Y101.197 E.0466
G1 X109.817 Y100.719 E.02455
G1 X110.451 Y100.353 E.02293
G1 X111.865 Y99.871 E.04685
G1 X113.001 Y99.746 E.03584
G1 X147.36 Y99.769 E1.0773
G1 X148.136 Y99.871 E.02454
G1 X149.55 Y100.354 E.04684
G1 X150.177 Y100.716 E.02271
G1 X151.306 Y101.701 E.04695
G1 X152.139 Y102.938 E.04676
G1 X152.441 Y103.662 E.0246
G1 X152.631 Y104.371 E.02302
G1 X152.731 Y105.149 E.02459
G1 X152.753 Y114.5 E.2932
G1 X152.631 Y115.628 E.03558
G1 X152.44 Y116.339 E.02307
G1 X152.138 Y117.061 E.02454
G1 X151.308 Y118.294 E.0466
G1 X150.795 Y118.807 E.02276
G1 X149.556 Y119.639 E.0468
G1 X148.143 Y120.126 E.04685
G1 X147.001 Y120.254 E.03603
G1 X113.001 Y120.254 E1.06605
G1 X111.858 Y120.126 E.03606
G1 X111.169 Y119.94 E.02238
G1 X110.558 Y119.641 E.02134
G1 X110.72 Y119.305 F12000
G1 F3600
G1 X110.051 Y118.981 E.02329
G1 X108.994 Y118.068 E.0438
G1 X108.204 Y116.905 E.0441
G1 X107.746 Y115.586 E.04378
G1 X107.624 Y114.5 E.03426
G1 X107.624 Y105.5 E.28219
G1 X107.746 Y104.413 E.0343
G1 X108.203 Y103.093 E.04379
G1 X108.518 Y102.547 E.01979
G1 X109.428 Y101.495 E.04358
G1 X110.594 Y100.702 E.04424
G1 X111.914 Y100.245 E.04379
G1 X113.001 Y100.123 E.0343
G1 X147.311 Y100.143 E1.07576
G1 X148.087 Y100.245 E.02454
G1 X149.406 Y100.703 E.04378
G1 X149.947 Y101.015 E.0196
G1 X151.006 Y101.93 E.04389
G1 X151.791 Y103.083 E.04371
G1 X152.093 Y103.807 E.0246
G1 X152.357 Y105.197 E.04436
G1 X152.376 Y114.5 E.29169
G1 X152.257 Y115.58 E.03406
G1 X151.79 Y116.915 E.04436
G1 X151.009 Y118.065 E.04357
G1 X150.566 Y118.508 E.01965
G1 X149.411 Y119.291 E.04375
M73 P8 R15
G1 X148.093 Y119.752 E.04379
G1 X147.001 Y119.877 E.03446
G1 X113.001 Y119.877 E1.06605
G1 X111.908 Y119.752 E.03449
G1 X111.313 Y119.592 E.01932
G1 X110.774 Y119.331 E.01877
; printing object retraction_tower.stl id:0 copy 0
EXCLUDE_OBJECT_START NAME=retraction_tower.stl_id_0_copy_0
G1 E-.7 F1800
;WIPE_START
G1 F3600
G1 X110.051 Y118.981 E-.11442
G1 X109.145 Y118.199 E-.17058
;WIPE_END
G1 E-.015 F1800
G17
G3 Z.8 I.383 J1.155 P1  F12000
G1 X149.283 Y104.887 Z.8
G1 Z.4
G1 E1 F1800
;TYPE:Inner wall
;WIDTH:0.449999
G1 F6000
G1 X149.367 Y105.705 E.02784
G1 X149.367 Y114.459 E.29632
G1 X149.283 Y115.111 E.02223
G1 X149.045 Y115.679 E.02084
G1 X148.67 Y116.169 E.0209
G1 X148.18 Y116.544 E.02088
G1 X147.611 Y116.781 E.02087
G1 X146.959 Y116.868 E.02227
G1 X113.043 Y116.868 E1.14801
G1 X112.389 Y116.78 E.02235
G1 X111.818 Y116.544 E.02091
G1 X111.33 Y116.169 E.02083
G1 X110.953 Y115.679 E.02091
G1 X110.719 Y115.111 E.0208
G1 X110.633 Y114.459 E.02229
G1 X110.633 Y105.541 E.30184
G1 X110.719 Y104.886 E.02236
G1 X110.953 Y104.317 E.02084
G1 X111.33 Y103.829 E.02087
G1 X111.818 Y103.452 E.02087
G1 X112.387 Y103.218 E.02084
G1 X113.042 Y103.132 E.02236
G1 X146.96 Y103.132 E1.14806
G1 X147.612 Y103.218 E.02229
G1 X148.18 Y103.452 E.0208
G1 X148.67 Y103.829 E.02091
G1 X149.045 Y104.317 E.02086
G1 X149.26 Y104.832 E.01885
G1 X149.68 Y104.781 F12000
;TYPE:Outer wall
G1 F4500
G1 X149.774 Y105.705 E.03145
G1 X149.774 Y114.486 E.29721
G1 X149.68 Y115.217 E.02497
G1 X149.401 Y115.884 E.02448
G1 X148.961 Y116.46 E.02451
G1 X148.386 Y116.899 E.02451
G1 X147.718 Y117.177 E.02447
G1 X146.986 Y117.275 E.025
G1 X113.016 Y117.275 E1.14984
G1 X112.282 Y117.177 E.02507
G1 X111.613 Y116.899 E.02453
G1 X111.039 Y116.46 E.02446
G1 X110.598 Y115.885 E.02454
G1 X110.322 Y115.217 E.02443
G1 X110.226 Y114.485 E.025
G1 X110.226 Y105.515 E.30364
G1 X110.322 Y104.78 E.02507
G1 X110.598 Y104.112 E.02448
G1 X111.039 Y103.538 E.02449
G1 X111.613 Y103.097 E.02449
G1 X112.281 Y102.821 E.02448
G1 X113.016 Y102.725 E.02507
G1 X146.986 Y102.725 E1.14986
G1 X147.718 Y102.821 E.025
G1 X148.386 Y103.097 E.02443
G1 X148.961 Y103.538 E.02454
G1 X149.401 Y104.112 E.02446
G1 X149.657 Y104.725 E.0225
G1 X149.622 Y104.836
G1 E-.7 F1800
;WIPE_START
G1 F4500
G1 X149.774 Y105.705 E-.14062
G1 X149.774 Y106.718 E-.14438
;WIPE_END
G1 E-.015 F1800
G17
G3 Z.8 I-1.194 J-.233 P1  F12000
G1 X147.858 Y116.546 Z.8
G1 Z.4
G1 E1 F1800
;TYPE:Internal solid infill
;WIDTH:0.453795
G1 F4800
G1 X148.453 Y115.95 E.02877
G1 X148.779 Y115.525 E.01832
G1 X148.985 Y115.031 E.01828
G1 X149.014 Y114.808 E.00767
G1 X147.309 Y116.513 E.08236
G1 X146.938 Y116.563 E.01279
G1 X146.679 Y116.563 E.00887
G1 X149.062 Y114.18 E.11513
G1 X149.062 Y113.599 E.01985
G1 X146.098 Y116.563 E.14321
G1 X145.517 Y116.563 E.01985
