;FLAVOR:Marlin
;TIME:2412
;Filament used: 1.43075m
;Layer height: 0.2
;MINX:104.453
;MINY:96.949
;MINZ:0.2
;MAXX:155.543
;MAXY:123.051
;MAXZ:39.4
;POSTPROCESSED
;Generated with Cura_SteamEngine 5.3.1
;
;

M82 ;absolute extrusion mode
START_PRINT EXTRUDER_TEMP=250.0 BED_TEMP=100 RELATIVE_E_MODE=False PROBE=false PROBE_AREA_START=%MINX%,%MINY% PROBE_AREA_END=%MAXX%,%MAXY%
G92 E0
G92 E0
G1 F1500 E-6.5
;LAYER_COUNT:197
;LAYER:0
M107
G0 F6000 X107.152 Y98.859 Z0.2
;TYPE:SKIRT
G1 F1500 E0
G1 F900 X108.995 Y97.621 E0.08861
G1 X111.213 Y96.949 E0.18111
G1 X148.33 Y96.95 E1.66253
G1 X149.869 Y97.306 E1.72558
G1 X151.01 Y97.7 E1.77376
G1 X152.409 Y98.652 E1.8413
G1 X153.407 Y99.497 E1.89349
G1 X154.405 Y100.946 E1.96371
G1 X155.071 Y102.174 E2.01947
G1 X155.543 Y104.131 E2.09982
G1 X155.542 Y115.847 E2.56743
G1 X155.058 Y117.883 E2.65095
G1 X154.582 Y118.798 E2.69212
G1 X153.732 Y120.077 E2.75341
G1 X152.552 Y121.274 E2.8205
G1 X151.061 Y122.279 E2.89226
G1 X149.507 Y122.83 E2.95807
G1 X148.149 Y123.05 E3.01298
G1 X111.577 Y123.051 E4.47264
G1 X110.304 Y122.771 E4.52467
G1 X108.833 Y122.274 E4.58664
G1 X107.521 Y121.36 E4.65046
G1 X106.363 Y120.352 E4.71173
G1 X105.125 Y118.509 E4.80034
G1 X104.453 Y116.291 E4.89284
G1 X104.453 Y104.073 E5.38049
G1 X104.733 Y102.8 E5.43251
G1 X105.23 Y101.329 E5.49448
G1 X106.144 Y100.017 E5.5583
G1 X107.152 Y98.859 E5.61958
G0 F6000 X107.472 Y99.222
G1 F900 X109.204 Y98.059 E5.70285
G1 X111.283 Y97.429 E5.78955
G1 X148.274 Y97.43 E7.26594
G1 X149.761 Y97.774 E7.32686
G1 X150.793 Y98.132 E7.37045
G1 X152.099 Y99.018 E7.43344
G1 X153.047 Y99.82 E7.483
G1 X153.983 Y101.175 E7.54873
G1 X154.618 Y102.346 E7.6019
G1 X155.063 Y104.19 E7.67761
G1 X155.062 Y115.791 E8.14063
G1 X154.605 Y117.713 E8.21948
G1 X154.156 Y118.576 E8.25831
G1 X153.36 Y119.771 E8.31561
G1 X152.243 Y120.904 E8.37912
G1 X150.842 Y121.848 E8.44654
G1 X149.391 Y122.362 E8.50798
G1 X148.109 Y122.57 E8.55982
G1 X111.63 Y122.571 E10.01577
G1 X110.407 Y122.302 E10.06575
G1 X109.053 Y121.842 E10.12283
G1 X107.795 Y120.966 E10.18401
G1 X106.726 Y120.032 E10.24067
G1 X105.563 Y118.3 E10.32393
G1 X104.933 Y116.221 E10.41064
G1 X104.933 Y104.126 E10.89337
G1 X105.202 Y102.903 E10.94335
G1 X105.662 Y101.549 E11.00043
G1 X106.538 Y100.291 E11.06161
G1 X107.472 Y99.222 E11.11827
G0 F6000 X107.793 Y99.584
G1 F900 X109.413 Y98.497 E11.19613
G1 X111.353 Y97.909 E11.27704
G1 X148.219 Y97.91 E12.74844
G1 X149.604 Y98.228 E12.80516
G1 X150.576 Y98.565 E12.84622
G1 X151.789 Y99.385 E12.90466
G1 X152.689 Y100.146 E12.9517
G1 X153.588 Y101.448 E13.01485
G1 X154.165 Y102.517 E13.06333
G1 X154.583 Y104.249 E13.13445
G1 X154.582 Y115.735 E13.59288
G1 X154.152 Y117.543 E13.66705
G1 X153.756 Y118.31 E13.7015
G1 X152.985 Y119.468 E13.75703
G1 X151.934 Y120.534 E13.81678
G1 X150.624 Y121.416 E13.87981
G1 X149.274 Y121.895 E13.93698
G1 X148.069 Y122.09 E13.9857
G1 X111.683 Y122.091 E15.43794
G1 X110.51 Y121.833 E15.48588
G1 X109.272 Y121.41 E15.5381
G1 X108.111 Y120.604 E15.59451
G1 X107.088 Y119.711 E15.6487
G1 X106.001 Y118.091 E15.72657
G1 X105.413 Y116.151 E15.80748
G1 X105.413 Y104.179 E16.2853
G1 X105.671 Y103.006 E16.33324
G1 X106.094 Y101.768 E16.38546
G1 X106.9 Y100.607 E16.44187
G1 X107.793 Y99.584 E16.49606
G0 F6000 X108.112 Y99.948
G1 F900 X109.622 Y98.935 E16.56864
G1 X111.423 Y98.389 E16.64375
G1 X148.164 Y98.39 E18.11016
G1 X149.447 Y98.682 E18.16268
G1 X150.359 Y98.998 E18.2012
G1 X151.52 Y99.783 E18.25714
G1 X152.33 Y100.472 E18.29958
G1 X153.193 Y101.721 E18.36017
G1 X153.712 Y102.689 E18.40401
G1 X154.103 Y104.308 E18.47049
G1 X154.102 Y115.679 E18.92433
G1 X153.698 Y117.377 E18.99399
G1 X153.357 Y118.044 E19.02389
G1 X152.613 Y119.161 E19.07745
G1 X151.625 Y120.164 E19.13365
G1 X150.405 Y120.985 E19.19234
G1 X149.158 Y121.427 E19.24514
G1 X148.029 Y121.61 E19.29079
G1 X111.736 Y121.611 E20.73932
G1 X110.613 Y121.364 E20.78522
G1 X109.49 Y120.977 E20.83262
G1 X108.385 Y120.21 E20.88631
G1 X107.452 Y119.392 E20.93583
G1 X106.439 Y117.882 E21.00841
G1 X105.893 Y116.081 E21.08352
G1 X105.893 Y104.232 E21.55644
G1 X106.14 Y103.109 E21.60233
G1 X106.527 Y101.986 E21.64974
G1 X107.294 Y100.881 E21.70343
G1 X108.112 Y99.948 E21.75295
G0 F6000 X108.433 Y100.311
G1 F900 X109.831 Y99.373 E21.82014
G1 X111.493 Y98.869 E21.88946
G1 X148.111 Y98.87 E23.35096
G1 X149.29 Y99.136 E23.3992
G1 X150.142 Y99.431 E23.43519
G1 X151.251 Y100.181 E23.48862
G1 X151.971 Y100.797 E23.52644
G1 X152.798 Y101.994 E23.58451
G1 X153.259 Y102.858 E23.6236
G1 X153.623 Y104.367 E23.68555
G1 X153.622 Y115.623 E24.1348
G1 X153.244 Y117.212 E24.19999
G1 X152.958 Y117.778 E24.2253
G1 X152.241 Y118.854 E24.27691
G1 X151.316 Y119.794 E24.32954
G1 X150.187 Y120.553 E24.38384
G1 X149.041 Y120.96 E24.43238
G1 X147.989 Y121.13 E24.47491
G1 X111.789 Y121.131 E25.91973
G1 X110.716 Y120.895 E25.96358
G1 X109.711 Y120.546 E26.00604
G1 X108.702 Y119.849 E26.05499
G1 X107.815 Y119.071 E26.10208
G1 X106.877 Y117.673 E26.16927
G1 X106.373 Y116.011 E26.23859
G1 X106.373 Y104.285 E26.7066
G1 X106.609 Y103.212 E26.75045
G1 X106.958 Y102.207 E26.79291
G1 X107.655 Y101.198 E26.84186
G1 X108.433 Y100.311 E26.88895
G0 F6000 X108.752 Y100.676
G1 F900 X110.042 Y99.81 E26.95096
G1 X111.563 Y99.349 E27.01439
G1 X148.059 Y99.35 E28.47103
G1 X149.133 Y99.59 E28.51495
G1 X149.925 Y99.864 E28.5484
G1 X150.982 Y100.579 E28.59933
G1 X151.612 Y101.122 E28.63253
G1 X152.374 Y102.22 E28.68587
G1 X152.806 Y103.03 E28.72251
G1 X153.143 Y104.426 E28.77983
G1 X153.142 Y115.567 E29.22449
G1 X152.79 Y117.045 E29.28513
G1 X152.558 Y117.512 E29.30594
G1 X151.866 Y118.551 E29.35576
G1 X151.007 Y119.424 E29.40465
G1 X149.968 Y120.122 E29.4546
G1 X148.925 Y120.492 E29.49877
G1 X147.949 Y120.65 E29.53824
G1 X111.842 Y120.651 E30.97934
G1 X110.819 Y120.426 E31.02115
G1 X109.931 Y120.114 E31.05872
G1 X109.019 Y119.488 E31.10287
G1 X108.18 Y118.752 E31.14741
G1 X107.314 Y117.462 E31.20942
G1 X106.853 Y115.941 E31.27286
G1 X106.853 Y104.338 E31.73596
G1 X107.078 Y103.315 E31.77776
G1 X107.39 Y102.427 E31.81533
G1 X108.016 Y101.515 E31.85948
G1 X108.752 Y100.676 E31.90402
G0 F6000 X109.069 Y101.042
G1 F900 X110.253 Y100.247 E31.96095
G1 X111.633 Y99.829 E32.0185
G1 X148.005 Y99.83 E33.47018
G1 X148.976 Y100.044 E33.50987
G1 X149.71 Y100.298 E33.54087
G1 X150.669 Y100.943 E33.58699
G1 X151.253 Y101.446 E33.61776
G1 X151.95 Y102.446 E33.66641
G1 X152.353 Y103.202 E33.7006
G1 X152.663 Y104.485 E33.75328
G1 X152.662 Y115.511 E34.19335
G1 X152.335 Y116.883 E34.24964
G1 X152.158 Y117.246 E34.26576
G1 X151.491 Y118.248 E34.31381
G1 X150.701 Y119.051 E34.35876
G1 X149.746 Y119.692 E34.40467
G1 X148.809 Y120.024 E34.44435
G1 X147.909 Y120.17 E34.48074
G1 X111.895 Y120.171 E35.91813
G1 X110.922 Y119.957 E35.9579
G1 X110.152 Y119.683 E35.99052
G1 X109.291 Y119.092 E36.0322
G1 X108.546 Y118.435 E36.07184
G1 X107.751 Y117.251 E36.12876
G1 X107.333 Y115.871 E36.18631
G1 X107.333 Y104.391 E36.6445
G1 X107.547 Y103.418 E36.68427
G1 X107.821 Y102.648 E36.71689
G1 X108.412 Y101.787 E36.75857
G1 X109.069 Y101.042 E36.79821
G0 F6000 X109.387 Y101.407
G1 F900 X110.464 Y100.684 E36.84999
G1 X111.703 Y100.309 E36.90165
G1 X147.952 Y100.31 E38.34843
G1 X148.873 Y100.513 E38.38607
G1 X149.495 Y100.732 E38.41239
G1 X150.401 Y101.341 E38.45596
G1 X150.893 Y101.769 E38.48199
G1 X151.526 Y102.672 E38.526
G1 X151.9 Y103.374 E38.55775
G1 X152.183 Y104.544 E38.60579
G1 X152.182 Y115.455 E39.04127
G1 X151.881 Y116.718 E39.09309
G1 X151.758 Y116.98 E39.10465
G1 X151.116 Y117.945 E39.15091
G1 X150.393 Y118.68 E39.19206
G1 X149.528 Y119.26 E39.23362
G1 X148.692 Y119.557 E39.26903
G1 X147.869 Y119.69 E39.30231
G1 X111.948 Y119.691 E40.73599
G1 X111.025 Y119.488 E40.77371
G1 X110.375 Y119.253 E40.8013
G1 X109.563 Y118.696 E40.8406
G1 X108.911 Y118.117 E40.8754
G1 X108.188 Y117.04 E40.92717
G1 X107.813 Y115.801 E40.97884
G1 X107.813 Y104.444 E41.43212
G1 X108.016 Y103.521 E41.46984
G1 X108.251 Y102.871 E41.49743
G1 X108.808 Y102.059 E41.53673
G1 X109.387 Y101.407 E41.57153
G0 F6000 X109.704 Y101.772
G1 F900 X110.672 Y101.122 E41.61807
G1 X111.773 Y100.789 E41.66398
G1 X147.899 Y100.79 E43.10584
G1 X148.77 Y100.982 E43.14144
G1 X149.279 Y101.165 E43.16303
G1 X150.133 Y101.739 E43.2041
G1 X150.535 Y102.093 E43.22548
G1 X151.102 Y102.898 E43.26478
G1 X151.447 Y103.546 E43.29408
G1 X151.703 Y104.603 E43.33748
G1 X151.702 Y115.399 E43.76838
G1 X151.425 Y116.559 E43.81598
G1 X151.358 Y116.714 E43.82271
G1 X150.741 Y117.642 E43.86719
G1 X150.085 Y118.309 E43.90453
G1 X149.309 Y118.829 E43.94181
G1 X148.576 Y119.089 E43.97286
G1 X147.829 Y119.21 E44.00306
G1 X112.001 Y119.211 E45.43303
G1 X111.128 Y119.019 E45.46871
G1 X110.597 Y118.823 E45.4913
G1 X109.834 Y118.3 E45.52822
G1 X109.276 Y117.8 E45.55812
G1 X108.626 Y116.832 E45.60466
G1 X108.293 Y115.731 E45.65057
G1 X108.293 Y104.497 E46.09894
G1 X108.485 Y103.624 E46.13462
G1 X108.681 Y103.093 E46.15721
G1 X109.204 Y102.33 E46.19413
G1 X109.704 Y101.772 E46.22403
G0 F6000 X110.021 Y102.137
G1 F900 X110.881 Y101.56 E46.26537
G1 X111.843 Y101.269 E46.30548
G1 X147.846 Y101.27 E47.74244
G1 X148.667 Y101.451 E47.77599
G1 X149.061 Y101.596 E47.79275
G1 X149.816 Y102.099 E47.82896
G1 X150.174 Y102.414 E47.84799
G1 X150.709 Y103.174 E47.88509
G1 X150.994 Y103.716 E47.90953
G1 X151.223 Y104.662 E47.94838
G1 X151.222 Y115.342 E48.37464
G1 X150.958 Y116.448 E48.42002
G1 X150.366 Y117.339 E48.46272
G1 X149.777 Y117.938 E48.49624
G1 X149.09 Y118.398 E48.52924
G1 X148.46 Y118.621 E48.55592
G1 X147.789 Y118.73 E48.58305
G1 X112.054 Y118.731 E50.00931
G1 X111.231 Y118.55 E50.04294
G1 X110.82 Y118.394 E50.06049
G1 X110.106 Y117.904 E50.09505
G1 X109.641 Y117.483 E50.12009
G1 X109.064 Y116.623 E50.16142
G1 X108.773 Y115.661 E50.20153
G1 X108.773 Y104.55 E50.645
G1 X108.954 Y103.727 E50.67863
G1 X109.11 Y103.316 E50.69618
G1 X109.6 Y102.602 E50.73074
G1 X110.021 Y102.137 E50.75578
G0 F6000 X110.336 Y102.504
G1 F900 X111.09 Y101.998 E50.79202
G1 X111.913 Y101.749 E50.82634
G1 X147.793 Y101.75 E52.25838
G1 X148.564 Y101.92 E52.2899
G1 X148.841 Y102.027 E52.30175
G1 X149.55 Y102.499 E52.33574
G1 X149.814 Y102.736 E52.3499
G1 X150.316 Y103.45 E52.38474
G1 X150.541 Y103.886 E52.40432
G1 X150.743 Y104.721 E52.43861
G1 X150.742 Y115.284 E52.8602
G1 X150.51 Y116.255 E52.90005
G1 X149.991 Y117.037 E52.93751
G1 X149.472 Y117.565 E52.96706
G1 X148.874 Y117.965 E52.99577
G1 X148.339 Y118.154 E53.01842
G1 X147.749 Y118.25 E53.04227
G1 X112.107 Y118.251 E54.46482
G1 X111.334 Y118.081 E54.49641
G1 X111.048 Y117.968 E54.50869
G1 X110.378 Y117.508 E54.54112
G1 X110.008 Y117.168 E54.56118
G1 X109.502 Y116.414 E54.59742
G1 X109.253 Y115.591 E54.63174
G1 X109.253 Y104.603 E55.07029
G1 X109.423 Y103.83 E55.10188
G1 X109.536 Y103.544 E55.11416
G1 X109.996 Y102.874 E55.14659
G1 X110.336 Y102.504 E55.16665
G0 F6000 X110.65 Y102.871
G1 F900 X111.299 Y102.436 E55.19783
G1 X111.983 Y102.229 E55.22636
G1 X147.74 Y102.23 E56.6535
G1 X148.461 Y102.389 E56.68296
G1 X148.621 Y102.457 E56.6899
G1 X149.229 Y102.856 E56.71893
G1 X149.454 Y103.058 E56.731
G1 X149.889 Y103.67 E56.76096
G1 X150.089 Y104.058 E56.77839
G1 X150.263 Y104.776 E56.80787
G1 X150.262 Y115.227 E57.22499
G1 X150.063 Y116.061 E57.25922
G1 X149.618 Y116.732 E57.29135
G1 X149.164 Y117.193 E57.31717
G1 X148.656 Y117.533 E57.34157
G1 X148.222 Y117.687 E57.35995
G1 X147.709 Y117.77 E57.38069
G1 X112.16 Y117.771 E58.79953
G1 X111.437 Y117.612 E58.82908
G1 X111.274 Y117.542 E58.83616
G1 X110.702 Y117.154 E58.86374
G1 X110.375 Y116.854 E58.88146
G1 X109.94 Y116.205 E58.91264
G1 X109.733 Y115.521 E58.94116
G1 X109.733 Y104.656 E59.37481
G1 X109.892 Y103.933 E59.40435
G1 X109.962 Y103.77 E59.41143
G1 X110.35 Y103.198 E59.43902
G1 X110.65 Y102.871 E59.45673
G0 F6000 X110.964 Y103.238
G1 F900 X111.508 Y102.874 E59.48286
G1 X112.053 Y102.709 E59.50558
G1 X147.687 Y102.71 E60.92781
G1 X148.358 Y102.858 E60.95524
G1 X148.966 Y103.257 E60.98426
G1 X149.094 Y103.38 E60.99135
G1 X149.498 Y103.948 E61.01917
G1 X149.635 Y104.224 E61.03147
G1 X149.783 Y104.835 E61.05656
G1 X149.782 Y115.169 E61.46901
G1 X149.615 Y115.868 E61.49769
G1 X149.245 Y116.427 E61.52445
G1 X148.856 Y116.821 E61.54655
G1 X148.438 Y117.101 E61.56663
G1 X148.104 Y117.22 E61.58078
G1 X147.67 Y117.29 E61.59833
G1 X112.213 Y117.291 E63.01349
G1 X111.54 Y117.143 E63.04099
G1 X111.026 Y116.8 E63.06566
G1 X110.742 Y116.54 E63.08102
G1 X110.378 Y115.996 E63.10715
G1 X110.213 Y115.451 E63.12988
G1 X110.213 Y104.709 E63.55861
G1 X110.361 Y104.036 E63.58612
G1 X110.704 Y103.522 E63.61078
G1 X110.964 Y103.238 E63.62615
G0 F6000 X111.281 Y103.604
G1 F900 X111.717 Y103.312 E63.64709
G1 X112.123 Y103.189 E63.66402
G1 X147.634 Y103.19 E65.08134
G1 X148.17 Y103.308 E65.10325
G1 X148.703 Y103.658 E65.1287
G1 X149.107 Y104.226 E65.15652
G1 X149.182 Y104.391 E65.16375
G1 X149.303 Y104.89 E65.18424
G1 X149.302 Y115.112 E65.59223
G1 X149.168 Y115.674 E65.61529
G1 X148.872 Y116.122 E65.63672
G1 X148.547 Y116.45 E65.65515
G1 X148.22 Y116.67 E65.67088
G1 X148.028 Y116.746 E65.67912
G1 X147.631 Y116.81 E65.69517
G1 X112.266 Y116.811 E67.10666
G1 X111.73 Y116.693 E67.12857
G1 X111.351 Y116.446 E67.14662
G1 X111.108 Y116.223 E67.15979
G1 X110.816 Y115.787 E67.18073
G1 X110.693 Y115.381 E67.19766
G1 X110.693 Y104.762 E67.62149
G1 X110.811 Y104.226 E67.64339
G1 X111.058 Y103.847 E67.66145
G1 X111.281 Y103.604 E67.67461
G0 F6000 X111.46 Y104.109
G1 F900 X111.595 Y103.972 E67.68229
G1 X111.926 Y103.75 E67.6982
G1 X112.193 Y103.669 E67.70933
G1 X147.58 Y103.67 E69.1217
G1 X147.983 Y103.759 E69.13818
G1 X148.364 Y104.009 E69.15636
G1 X148.716 Y104.504 E69.18061
G1 X148.823 Y104.945 E69.19872
G1 X148.822 Y115.056 E69.60227
G1 X148.721 Y115.481 E69.61971
G1 X148.499 Y115.816 E69.63575
G1 X148.238 Y116.079 E69.65053
G1 X147.952 Y116.272 E69.6643
G1 X147.592 Y116.33 E69.67886
G1 X112.32 Y116.331 E71.08664
G1 X111.917 Y116.242 E71.10311
G1 X111.613 Y116.044 E71.11759
G1 X111.476 Y115.909 E71.12527
G1 X111.254 Y115.578 E71.14118
G1 X111.173 Y115.311 E71.15231
G1 X111.173 Y104.816 E71.57119
G1 X111.262 Y104.413 E71.58766
G1 X111.46 Y104.109 E71.60214
G0 F6000 X111.862 Y104.371
G1 F900 X112.193 Y104.149 E71.61805
G1 X147.527 Y104.15 E73.02831
G1 X147.795 Y104.209 E73.03926
G1 X148.025 Y104.36 E73.05024
G1 X148.272 Y104.707 E73.06724
G1 X148.343 Y105 E73.07927
G1 X148.342 Y115 E73.47839
G1 X148.273 Y115.29 E73.49029
G1 X148.158 Y115.478 E73.49909
G1 X147.897 Y115.741 E73.51388
G1 X147.772 Y115.815 E73.51967
G1 X147.592 Y115.85 E73.52699
G1 X112.373 Y115.851 E74.93266
G1 X112.105 Y115.792 E74.94361
G1 X111.875 Y115.642 E74.95457
G1 X111.653 Y115.311 E74.97048
G1 X111.653 Y104.869 E75.38724
G1 X111.712 Y104.601 E75.39819
G1 X111.862 Y104.371 E75.40915
G0 F6000 X112.172 Y104.738
G1 F900 X112.301 Y104.629 E75.41589
G1 X147.527 Y104.63 E76.82184
G1 X147.658 Y104.669 E76.8273
G1 X147.816 Y104.857 E76.8371
G1 X147.863 Y105 E76.8431
G1 X147.862 Y115 E77.24223
G1 X147.816 Y115.142 E77.24818
G1 X147.592 Y115.37 E77.26094
G1 X112.373 Y115.371 E78.66661
G1 X112.242 Y115.332 E78.67206
G1 X112.133 Y115.203 E78.6788
G1 X112.133 Y104.869 E79.09125
G1 X112.172 Y104.738 E79.09671
G1 F1500 E72.59671
;MESH:RetractTower
G0 F6000 X113.814 Y106.31
G0 X113.785 Y113.719
G0 X146.422 Y113.93
;TYPE:WALL-INNER
G1 F1500 E79.09671
G1 F900 X146.422 Y106.071 E79.41038
G1 X113.574 Y106.07 E80.72141
G1 X113.573 Y113.931 E81.03516
G1 X146.422 Y113.93 E82.34624
G0 F6000 X146.902 Y114.41
G1 F900 X146.902 Y105.591 E82.69822
G1 X113.094 Y105.59 E84.04757
G1 X113.093 Y114.411 E84.39964
G1 X146.902 Y114.41 E85.74903
G0 F6000 X147.382 Y114.89
;TYPE:WALL-OUTER
G1 F900 X147.382 Y105.111 E86.13933
G1 X112.614 Y105.11 E87.527
G1 X112.613 Y114.891 E87.91738
G1 X147.382 Y114.89 E89.30508
G0 F6000 X146.752 Y114.26
G0 X146.282 Y113.49
G0 X145.982 Y113.49
;TYPE:SKIN
G1 F900 X114.014 Y113.49 E90.581
G1 X114.015 Y106.511 E90.85954
G1 X145.982 Y106.511 E92.13541
G1 X145.982 Y113.49 E92.41396
G0 F6000 X146.282 Y113.49
G0 X146.282 Y107.048
G0 X145.741 Y107.048
G1 F900 X145.444 Y106.751 E92.43073
G0 F6000 X144.765 Y106.751
