;FLAVOR:Marlin
;TIME:2828
;Filament used: 1.36703m
;Layer height: 0.2
;MINX:101.374
;MINY:113.869
;MINZ:0.2
;MAXX:158.623
;MAXY:146.13
;MAXZ:39.4
;POSTPROCESSED
;Generated with Cura_SteamEngine 5.2.1
;
;

M82 ;absolute extrusion mode
START_PRINT EXTRUDER_TEMP=200 BED_TEMP=50 RELATIVE_E_MODE=False PROBE=false PROBE_AREA_START=%MINX%,%MINY% PROBE_AREA_END=%MAXX%,%MAXY%
G92 E0
G92 E0
G1 F1500 E-4.5
;LAYER_COUNT:197
;LAYER:0
M117 distance (12.0/-2.0)
M106 S63.8
G0 F6000 X105.277 Y116.486 Z0.2
;TYPE:SKIRT
G1 F1500 E0
G1 F1200 X106.018 Y115.911 E0.0312
G1 X106.805 Y115.402 E0.06237
G1 X107.633 Y114.961 E0.09357
G1 X108.495 Y114.592 E0.12476
G1 X109.386 Y114.298 E0.15596
G1 X110.299 Y114.081 E0.18718
G1 X111.226 Y113.943 E0.21835
G1 X112.219 Y113.883 E0.25144
G1 X113.253 Y113.869 E0.28583
G1 X146.979 Y113.871 E1.40756
G1 X147.678 Y113.881 E1.43081
G1 X148.615 Y113.935 E1.46203
G1 X149.543 Y114.067 E1.4932
G1 X150.457 Y114.279 E1.52441
G1 X151.349 Y114.568 E1.5556
G1 X152.214 Y114.931 E1.5868
G1 X153.044 Y115.367 E1.61798
G1 X153.834 Y115.872 E1.64917
G1 X154.579 Y116.443 E1.68039
G1 X155.272 Y117.075 E1.71158
G1 X155.909 Y117.763 E1.74277
G1 X156.39 Y118.372 E1.76858
G1 X156.921 Y119.144 E1.79974
G1 X157.385 Y119.96 E1.83096
G1 X157.777 Y120.811 E1.86213
G1 X158.096 Y121.694 E1.89335
G1 X158.338 Y122.6 E1.92454
G1 X158.502 Y123.523 E1.95572
G1 X158.597 Y124.749 E1.99662
G1 X158.623 Y126.06 E2.04023
G1 X158.621 Y134.424 E2.31842
G1 X158.611 Y135.14 E2.34224
G1 X158.558 Y136.076 E2.37342
G1 X158.425 Y137.004 E2.4046
G1 X158.214 Y137.918 E2.4358
G1 X157.926 Y138.811 E2.46701
G1 X157.562 Y139.675 E2.49819
G1 X157.127 Y140.506 E2.52939
G1 X156.59 Y141.347 E2.56258
G1 X155.974 Y142.155 E2.59637
G1 X155.344 Y142.849 E2.62754
G1 X154.657 Y143.487 E2.65873
G1 X153.918 Y144.065 E2.68993
G1 X153.132 Y144.577 E2.72113
G1 X152.306 Y145.02 E2.75231
G1 X151.445 Y145.392 E2.7835
G1 X150.555 Y145.689 E2.81471
G1 X149.643 Y145.909 E2.84591
G1 X148.716 Y146.05 E2.8771
G1 X147.713 Y146.113 E2.91052
G1 X146.658 Y146.13 E2.94562
G1 X113.069 Y146.13 E4.06279
G1 X112.216 Y146.117 E4.09117
G1 X111.28 Y146.062 E4.12235
G1 X110.352 Y145.929 E4.15353
G1 X109.438 Y145.716 E4.18475
G1 X108.546 Y145.427 E4.21593
G1 X107.682 Y145.062 E4.24713
G1 X106.852 Y144.626 E4.27831
G1 X106.062 Y144.12 E4.30951
G1 X105.318 Y143.549 E4.34071
G1 X104.626 Y142.916 E4.3719
G1 X103.99 Y142.227 E4.40309
G1 X103.415 Y141.486 E4.43428
G1 X102.905 Y140.699 E4.46547
G1 X102.464 Y139.871 E4.49668
G1 X102.095 Y139.009 E4.52786
G1 X101.801 Y138.118 E4.55907
G1 X101.584 Y137.206 E4.59025
G1 X101.445 Y136.278 E4.62146
G1 X101.388 Y135.425 E4.64989
G1 X101.374 Y134.761 E4.67198
G1 X101.374 Y125.423 E4.98257
G1 X101.385 Y124.712 E5.00622
G1 X101.44 Y123.776 E5.0374
G1 X101.574 Y122.847 E5.06862
G1 X101.786 Y121.934 E5.0998
G1 X102.076 Y121.042 E5.13099
G1 X102.441 Y120.178 E5.16219
G1 X102.878 Y119.348 E5.19339
G1 X103.384 Y118.558 E5.22459
G1 X103.955 Y117.814 E5.25578
G1 X104.588 Y117.122 E5.28698
G1 X105.277 Y116.486 E5.31816
G0 F6000 X105.665 Y116.683
G1 F1200 X106.402 Y116.131 E5.34879
G1 X107.184 Y115.645 E5.37941
G1 X108.005 Y115.229 E5.41002
G1 X108.859 Y114.885 E5.44065
G1 X109.74 Y114.617 E5.47127
G1 X110.641 Y114.426 E5.50191
G1 X111.554 Y114.315 E5.5325
G1 X112.225 Y114.283 E5.55484
G1 X113.253 Y114.269 E5.58903
G1 X146.974 Y114.271 E6.7106
G1 X147.673 Y114.281 E6.73385
G1 X148.592 Y114.334 E6.76447
G1 X149.503 Y114.467 E6.79509
G1 X150.399 Y114.678 E6.8257
G1 X151.273 Y114.966 E6.85631
G1 X152.119 Y115.329 E6.88693
G1 X152.931 Y115.764 E6.91757
G1 X153.701 Y116.268 E6.94818
G1 X154.425 Y116.837 E6.9788
G1 X155.097 Y117.466 E7.00942
G1 X155.991 Y118.507 E7.05506
G1 X156.591 Y119.371 E7.09004
G1 X157.045 Y120.172 E7.12067
G1 X157.427 Y121.01 E7.1513
G1 X157.734 Y121.878 E7.18192
G1 X157.966 Y122.769 E7.21254
G1 X158.119 Y123.677 E7.24317
G1 X158.198 Y124.758 E7.27922
G1 X158.221 Y125.832 E7.31495
G1 X158.221 Y134.418 E7.60052
G1 X158.211 Y135.134 E7.62434
G1 X158.158 Y136.053 E7.65496
G1 X158.026 Y136.964 E7.68557
G1 X157.815 Y137.86 E7.71619
G1 X157.527 Y138.735 E7.74683
G1 X157.164 Y139.581 E7.77745
G1 X156.729 Y140.393 E7.80808
G1 X156.215 Y141.18 E7.83935
G1 X155.656 Y141.912 E7.86998
G1 X155.036 Y142.592 E7.90059
G1 X154.359 Y143.216 E7.93121
G1 X153.63 Y143.778 E7.96183
G1 X152.855 Y144.276 E7.99247
G1 X152.04 Y144.704 E8.02308
G1 X151.191 Y145.06 E8.0537
G1 X150.314 Y145.341 E8.08433
G1 X149.417 Y145.544 E8.11492
G1 X148.504 Y145.669 E8.14557
G1 X147.706 Y145.713 E8.17215
G1 X146.658 Y145.73 E8.20701
G1 X113.075 Y145.73 E9.32399
G1 X112.222 Y145.717 E9.35236
G1 X111.303 Y145.663 E9.38298
G1 X110.392 Y145.529 E9.41361
G1 X109.497 Y145.317 E9.4442
G1 X108.622 Y145.028 E9.47485
G1 X107.777 Y144.664 E9.50545
G1 X106.966 Y144.229 E9.53606
G1 X106.196 Y143.724 E9.56669
G1 X105.472 Y143.155 E9.59731
G1 X104.801 Y142.525 E9.62793
G1 X104.187 Y141.839 E9.65855
G1 X103.635 Y141.102 E9.68917
G1 X103.148 Y140.32 E9.71981
G1 X102.732 Y139.499 E9.75043
G1 X102.388 Y138.645 E9.78105
G1 X102.12 Y137.764 E9.81168
G1 X101.929 Y136.864 E9.84228
G1 X101.817 Y135.95 E9.8729
G1 X101.788 Y135.414 E9.89076
G1 X101.774 Y134.761 E9.91248
G1 X101.774 Y125.429 E10.22286
G1 X101.785 Y124.718 E10.24652
G1 X101.839 Y123.799 E10.27713
G1 X101.973 Y122.888 E10.30776
G1 X102.186 Y121.992 E10.33839
G1 X102.475 Y121.118 E10.36901
G1 X102.839 Y120.273 E10.39961
G1 X103.275 Y119.462 E10.43024
G1 X103.779 Y118.692 E10.46084
G1 X104.349 Y117.968 E10.49149
G1 X104.979 Y117.297 E10.5221
G1 X105.665 Y116.683 E10.55273
G0 F6000 X106.053 Y116.885
G1 F1200 X106.785 Y116.356 E10.58276
G1 X107.561 Y115.894 E10.6128
G1 X108.375 Y115.503 E10.64284
G1 X109.22 Y115.185 E10.67287
G1 X110.09 Y114.943 E10.7029
G1 X110.979 Y114.779 E10.73297
G1 X112.231 Y114.683 E10.77473
G1 X113.253 Y114.669 E10.80873
G1 X146.968 Y114.671 E11.93009
G1 X147.667 Y114.681 E11.95334
G1 X148.568 Y114.734 E11.98336
G1 X149.462 Y114.866 E12.01342
G1 X150.34 Y115.077 E12.04345
G1 X151.196 Y115.365 E12.07349
G1 X152.023 Y115.727 E12.10352
G1 X152.815 Y116.161 E12.13356
G1 X153.566 Y116.664 E12.16362
G1 X154.269 Y117.231 E12.19366
G1 X154.919 Y117.858 E12.2237
G1 X155.709 Y118.792 E12.26438
G1 X156.261 Y119.598 E12.29688
G1 X156.704 Y120.385 E12.32691
G1 X157.075 Y121.208 E12.35694
G1 X157.372 Y122.061 E12.38698
G1 X157.592 Y122.937 E12.41702
G1 X157.734 Y123.829 E12.44706
G1 X157.798 Y124.767 E12.47833
G1 X157.821 Y125.841 E12.51406
G1 X157.821 Y134.412 E12.79914
G1 X157.811 Y135.128 E12.82295
G1 X157.758 Y136.03 E12.85301
G1 X157.626 Y136.923 E12.88303
G1 X157.416 Y137.802 E12.91309
G1 X157.128 Y138.658 E12.94313
G1 X156.766 Y139.485 E12.97315
G1 X156.332 Y140.277 E13.00319
G1 X155.887 Y140.951 E13.03005
G1 X155.338 Y141.668 E13.06009
G1 X154.728 Y142.334 E13.09013
G1 X154.061 Y142.943 E13.12017
G1 X153.343 Y143.491 E13.15021
G1 X152.579 Y143.973 E13.18025
G1 X151.776 Y144.386 E13.21029
G1 X150.939 Y144.725 E13.24032
G1 X150.076 Y144.99 E13.27035
G1 X149.192 Y145.177 E13.3004
G1 X148.296 Y145.286 E13.33042
G1 X147.699 Y145.313 E13.3503
G1 X146.658 Y145.33 E13.38493
G1 X113.082 Y145.33 E14.50167
G1 X112.229 Y145.317 E14.53004
G1 X111.327 Y145.263 E14.5601
G1 X110.434 Y145.13 E14.59013
G1 X109.556 Y144.918 E14.62017
G1 X108.7 Y144.63 E14.65021
G1 X107.873 Y144.266 E14.68026
G1 X107.082 Y143.832 E14.71027
G1 X106.332 Y143.328 E14.74032
G1 X105.629 Y142.761 E14.77036
G1 X104.98 Y142.133 E14.8004
G1 X104.388 Y141.451 E14.83044
G1 X103.859 Y140.719 E14.86048
G1 X103.397 Y139.943 E14.89051
G1 X103.006 Y139.129 E14.92055
G1 X102.688 Y138.284 E14.95058
G1 X102.446 Y137.414 E14.98061
G1 X102.282 Y136.526 E15.01065
G1 X102.188 Y135.403 E15.04813
G1 X102.174 Y134.761 E15.06949
G1 X102.174 Y125.435 E15.37967
G1 X102.185 Y124.724 E15.40332
G1 X102.239 Y123.823 E15.43334
G1 X102.373 Y122.93 E15.46338
G1 X102.585 Y122.052 E15.49342
G1 X102.873 Y121.196 E15.52346
G1 X103.237 Y120.369 E15.55351
G1 X103.672 Y119.578 E15.58353
G1 X104.175 Y118.828 E15.61357
G1 X104.743 Y118.126 E15.6436
G1 X105.37 Y117.476 E15.67364
G1 X106.053 Y116.885 E15.70368
G1 F1500 E11.20368
;MESH:RetractTower
G0 F6000 X112.787 Y124.204
G0 X112.973 Y134.531
;TYPE:WALL-INNER
G1 F1500 E15.70368
G1 F1200 X147.022 Y134.53 E16.83616
G1 X147.022 Y125.471 E17.13746
G1 X112.974 Y125.47 E18.2699
G1 X112.973 Y134.531 E18.57127
G0 F6000 X112.573 Y134.931
;TYPE:WALL-OUTER
G1 F1200 X147.422 Y134.93 E19.73035
G1 X147.422 Y125.071 E20.05827
G1 X112.574 Y125.07 E21.21731
G1 X112.573 Y134.931 E21.54529
G0 F6000 X112.843 Y134.661
G0 X113.073 Y134.17
G0 X113.334 Y134.17
;TYPE:SKIN
G1 F1200 X146.662 Y134.17 E22.65379
G1 X146.662 Y130 E22.79248
G1 X146.662 Y125.831 E22.93114
G1 X113.335 Y125.831 E24.0396
G1 X113.334 Y134.17 E24.31696
G0 F6000 X113.604 Y133.969
G1 F1200 X113.533 Y133.898 E24.3203
G0 F6000 X113.533 Y133.332
G1 F1200 X114.17 Y133.969 E24.35026
G0 F6000 X114.735 Y133.969
G1 F1200 X113.533 Y132.767 E24.4068
G0 F6000 X113.533 Y132.201
G1 F1200 X115.301 Y133.969 E24.48996
G0 F6000 X115.867 Y133.969
G1 F1200 X113.533 Y131.635 E24.59975
G0 F6000 X113.533 Y131.07
G1 F1200 X116.432 Y133.969 E24.73611
G0 F6000 X116.998 Y133.969
G1 F1200 X113.533 Y130.504 E24.89909
G0 F6000 X113.533 Y129.938
G1 F1200 X117.564 Y133.969 E25.08869
G0 F6000 X118.129 Y133.969
G1 F1200 X113.533 Y129.372 E25.3049
G0 F6000 X113.533 Y128.807
G1 F1200 X118.695 Y133.969 E25.5477
G0 F6000 X119.261 Y133.969
G1 F1200 X113.533 Y128.241 E25.81713
G0 F6000 X113.533 Y127.675
G1 F1200 X119.827 Y133.969 E26.11318
G0 F6000 X120.392 Y133.969
G1 F1200 X113.533 Y127.11 E26.43581
G0 F6000 X113.533 Y126.544
G1 F1200 X120.958 Y133.969 E26.78506
G0 F6000 X121.524 Y133.969
G1 F1200 X113.586 Y126.031 E27.15844
G0 F6000 X114.151 Y126.031
G1 F1200 X122.089 Y133.969 E27.53182
G0 F6000 X122.655 Y133.969
G1 F1200 X114.717 Y126.031 E27.9052
G0 F6000 X115.283 Y126.031
G1 F1200 X123.221 Y133.969 E28.27858
G0 F6000 X123.786 Y133.969
G1 F1200 X115.848 Y126.031 E28.65195
G0 F6000 X116.414 Y126.031
G1 F1200 X124.352 Y133.969 E29.02533
G0 F6000 X124.918 Y133.969
G1 F1200 X116.98 Y126.031 E29.39871
G0 F6000 X117.545 Y126.031
G1 F1200 X125.483 Y133.969 E29.77209
G0 F6000 X126.049 Y133.969
G1 F1200 X118.111 Y126.031 E30.14547
G0 F6000 X118.677 Y126.031
G1 F1200 X126.615 Y133.969 E30.51885
G0 F6000 X127.18 Y133.969
G1 F1200 X119.242 Y126.031 E30.89223
G0 F6000 X119.808 Y126.031
G1 F1200 X127.746 Y133.969 E31.26561
G0 F6000 X128.312 Y133.969
G1 F1200 X120.374 Y126.031 E31.63899
G0 F6000 X120.94 Y126.031
G1 F1200 X128.877 Y133.969 E32.01234
G0 F6000 X129.443 Y133.969
G1 F1200 X121.505 Y126.031 E32.38572
G0 F6000 X122.071 Y126.031
G1 F1200 X130.009 Y133.969 E32.7591
G0 F6000 X130.575 Y133.969
G1 F1200 X122.637 Y126.031 E33.13248
G0 F6000 X123.202 Y126.031
G1 F1200 X131.14 Y133.969 E33.50586
G0 F6000 X131.706 Y133.969
G1 F1200 X123.768 Y126.031 E33.87924
G0 F6000 X124.334 Y126.031
G1 F1200 X132.272 Y133.969 E34.25262
G0 F6000 X132.837 Y133.969
G1 F1200 X124.899 Y126.031 E34.626
G0 F6000 X125.465 Y126.031
G1 F1200 X133.403 Y133.969 E34.99938
G0 F6000 X133.969 Y133.969
G1 F1200 X126.031 Y126.031 E35.37276
G0 F6000 X126.596 Y126.031
G1 F1200 X134.534 Y133.969 E35.74614
G0 F6000 X135.1 Y133.969
G1 F1200 X127.162 Y126.031 E36.11951
G0 F6000 X127.728 Y126.031
G1 F1200 X135.666 Y133.969 E36.49289
G0 F6000 X136.231 Y133.969
G1 F1200 X128.293 Y126.031 E36.86627
G0 F6000 X128.859 Y126.031
G1 F1200 X136.797 Y133.969 E37.23965
G0 F6000 X137.363 Y133.969
G1 F1200 X129.425 Y126.031 E37.61303
G0 F6000 X129.99 Y126.031
G1 F1200 X137.928 Y133.969 E37.98641
G0 F6000 X138.494 Y133.969
G1 F1200 X130.556 Y126.031 E38.35979
G0 F6000 X131.122 Y126.031
G1 F1200 X139.06 Y133.969 E38.73317
G0 F6000 X139.626 Y133.969
G1 F1200 X131.688 Y126.031 E39.10655
G0 F6000 X132.253 Y126.031
G1 F1200 X140.191 Y133.969 E39.47993
G0 F6000 X140.757 Y133.969
G1 F1200 X132.819 Y126.031 E39.85331
G0 F6000 X133.385 Y126.031
G1 F1200 X141.323 Y133.969 E40.22669
G0 F6000 X141.888 Y133.969
G1 F1200 X133.95 Y126.031 E40.60006
G0 F6000 X134.516 Y126.031
G1 F1200 X142.454 Y133.969 E40.97344
G0 F6000 X143.02 Y133.969
G1 F1200 X135.082 Y126.031 E41.34682
G0 F6000 X135.647 Y126.031
G1 F1200 X143.585 Y133.969 E41.7202
G0 F6000 X144.151 Y133.969
G1 F1200 X136.213 Y126.031 E42.09358
G0 F6000 X136.779 Y126.031
G1 F1200 X144.717 Y133.969 E42.46696
G0 F6000 X145.282 Y133.969
G1 F1200 X137.344 Y126.031 E42.84034
G0 F6000 X137.91 Y126.031
G1 F1200 X145.848 Y133.969 E43.21372
G0 F6000 X146.414 Y133.969
G1 F1200 X138.476 Y126.031 E43.5871
G0 F6000 X139.041 Y126.031
G1 F1200 X146.461 Y133.45 E43.93609
G0 F6000 X146.461 Y132.885
G1 F1200 X139.607 Y126.031 E44.25848
G0 F6000 X140.173 Y126.031
G1 F1200 X146.461 Y132.319 E44.55425
G0 F6000 X146.461 Y131.753
G1 F1200 X140.738 Y126.031 E44.82342
G0 F6000 X141.304 Y126.031
G1 F1200 X146.461 Y131.188 E45.06599
G0 F6000 X146.461 Y130.622
G1 F1200 X141.87 Y126.031 E45.28193
G0 F6000 X142.436 Y126.031
G1 F1200 X146.461 Y130.056 E45.47126
G0 F6000 X146.461 Y129.491
G1 F1200 X143.001 Y126.031 E45.634
G0 F6000 X143.567 Y126.031
G1 F1200 X146.461 Y128.925 E45.77013
G0 F6000 X146.461 Y128.359
G1 F1200 X144.133 Y126.031 E45.87963
G0 F6000 X144.698 Y126.031
G1 F1200 X146.461 Y127.793 E45.96253
G0 F6000 X146.461 Y127.228
G1 F1200 X145.264 Y126.031 E46.01884
G0 F6000 X145.83 Y126.031
G1 F1200 X146.461 Y126.662 E46.04852
G0 F6000 X146.461 Y126.096
M104 S200
G1 F1200 X146.395 Y126.031 E46.0516
G1 F1500 E41.5516
;MESH:NONMESH
G0 F300 X146.395 Y126.031 Z0.4
G0 F6000 X146.396 Y125.571
G0 X113.146 Y125.642
G0 X112.955 Y134.552
;TIME_ELAPSED:81.268071
;LAYER:1
M117 distance (12.0/-2.0)
M106 S127.5
;TYPE:WALL-INNER
;MESH:RetractTower
G1 F1500 E46.0516
G1 F2100 X147.045 Y134.552 E47.18544
G1 X147.045 Y125.448 E47.48824
G1 X112.955 Y125.448 E48.62207
G1 X112.955 Y134.552 E48.92487
G0 F10500 X112.555 Y134.949
;TYPE:WALL-OUTER
G1 F2100 X147.445 Y134.952 E50.08532
G1 X147.445 Y125.072 E50.41393
G1 X147.433 Y125.048 E50.41482
G1 X112.555 Y125.051 E51.57487
G1 X112.555 Y134.949 E51.90408
G0 F10500 X112.825 Y134.682
G0 X113.055 Y134.192
G0 X113.315 Y134.192
;TYPE:SKIN
G1 F2100 X146.685 Y134.192 E53.01397
G1 X146.685 Y130 E53.1534
G1 X146.685 Y125.808 E53.29282
G1 X113.315 Y125.808 E54.40271
G1 X113.315 Y134.192 E54.68157
G0 F10500 X113.055 Y134.192
G0 X113.055 Y126.335
G0 X113.515 Y126.335
G1 F2100 X113.843 Y126.007 E54.69699
G0 F10500 X114.409 Y126.007
G1 F2100 X113.515 Y126.9 E54.73902
G0 F10500 X113.515 Y127.466
G1 F2100 X114.974 Y126.007 E54.80765
G0 F10500 X115.54 Y126.007
G1 F2100 X113.515 Y128.032 E54.9029
G0 F10500 X113.515 Y128.597
G1 F2100 X116.106 Y126.007 E55.02475
G0 F10500 X116.671 Y126.007
G1 F2100 X113.515 Y129.163 E55.1732
G0 F10500 X113.515 Y129.729
G1 F2100 X117.237 Y126.007 E55.34827
G0 F10500 X117.803 Y126.007
G1 F2100 X113.515 Y130.295 E55.54996
G0 F10500 X113.515 Y130.86
G1 F2100 X118.368 Y126.007 E55.77823
G0 F10500 X118.934 Y126.007
G1 F2100 X113.515 Y131.426 E56.03313
G0 F10500 X113.515 Y131.992
G1 F2100 X119.5 Y126.007 E56.31464
G0 F10500 X120.066 Y126.007
G1 F2100 X113.515 Y132.557 E56.62276
G0 F10500 X113.515 Y133.123
G1 F2100 X120.631 Y126.007 E56.95747
G0 F10500 X121.197 Y126.007
G1 F2100 X113.515 Y133.689 E57.31881
G0 F10500 X113.778 Y133.991
G1 F2100 X121.763 Y126.007 E57.69438
G0 F10500 X122.328 Y126.007
G1 F2100 X114.344 Y133.991 E58.06992
G0 F10500 X114.909 Y133.991
G1 F2100 X122.894 Y126.007 E58.44549
G0 F10500 X123.46 Y126.007
G1 F2100 X115.475 Y133.991 E58.82105
G0 F10500 X116.041 Y133.991
G1 F2100 X124.025 Y126.007 E59.1966
G0 F10500 X124.591 Y126.007
G1 F2100 X116.606 Y133.991 E59.57216
G0 F10500 X117.172 Y133.991
G1 F2100 X125.157 Y126.007 E59.94773
G0 F10500 X125.722 Y126.007
G1 F2100 X117.738 Y133.991 E60.32327
G0 F10500 X118.303 Y133.991
G1 F2100 X126.288 Y126.007 E60.69884
G0 F10500 X126.854 Y126.007
G1 F2100 X118.869 Y133.991 E61.0744
G0 F10500 X119.435 Y133.991
G1 F2100 X127.419 Y126.007 E61.44995
G0 F10500 X127.985 Y126.007
G1 F2100 X120 Y133.991 E61.82551
G0 F10500 X120.566 Y133.991
G1 F2100 X128.551 Y126.007 E62.20108
G0 F10500 X129.116 Y126.007
