;FLAVOR:Marlin
;TIME:2380
;Filament used: 1.36523m
;Layer height: 0.2
;MINX:109.123
;MINY:101.619
;MINZ:0.2
;MAXX:150.873
;MAXY:118.381
;MAXZ:39.4
;POSTPROCESSED
;Generated with Cura_SteamEngine 5.3.1
;
;

M82 ;absolute extrusion mode


; Pre-Processed for Cancel-Object support by preprocess_cancellation v0.2.0
; 1 known objects
EXCLUDE_OBJECT_DEFINE NAME=RetractTower CENTER=134.708,109.882 POLYGON=[[112.555,105.048],[112.555,114.952],[147.445,114.952],[147.445,105.048]]
START_PRINT EXTRUDER_TEMP=205 BED_TEMP=55 RELATIVE_E_MODE=False PROBE=alse PROBE_AREA_START=%MINX%,%MINY% PROBE_AREA_END=%MAXX%,%MAXY%
G92 E0
G92 E0
G1 F1800 E-0.5
;LAYER_COUNT:197
;LAYER:0
M107
G0 F6000 X110.769 Y103.316 Z0.2
;TYPE:SKIRT
G1 F1800 E0
G1 F900 X111.091 Y103.041 E0.0176
G1 X111.459 Y102.831 E0.03522
G1 X111.86 Y102.694 E0.05284
G1 X112.35 Y102.632 E0.07337
G1 X113.253 Y102.619 E0.11092
G1 X146.854 Y102.62 E1.50789
G1 X147.553 Y102.63 E1.53695
G1 X147.974 Y102.676 E1.55456
G1 X148.38 Y102.8 E1.57221
G1 X148.754 Y102.998 E1.5898
G1 X149.085 Y103.263 E1.60743
G1 X149.366 Y103.58 E1.62504
G1 X149.62 Y103.993 E1.6452
G1 X149.77 Y104.39 E1.66284
G1 X149.849 Y104.937 E1.68582
G1 X149.873 Y106.059 E1.73248
G1 X149.872 Y114.301 E2.07514
G1 X149.862 Y115.017 E2.10491
G1 X149.816 Y115.439 E2.12256
G1 X149.692 Y115.844 E2.14017
G1 X149.422 Y116.337 E2.16354
G1 X149.093 Y116.726 E2.18472
G1 X148.763 Y116.992 E2.20234
G1 X148.389 Y117.191 E2.21996
G1 X147.985 Y117.317 E2.23755
G1 X147.561 Y117.365 E2.25529
G1 X146.658 Y117.38 E2.29284
G1 X113.203 Y117.381 E3.68373
G1 X112.35 Y117.368 E3.7192
G1 X111.928 Y117.321 E3.73686
G1 X111.523 Y117.197 E3.75447
G1 X111.149 Y116.999 E3.77206
G1 X110.818 Y116.734 E3.78969
G1 X110.543 Y116.411 E3.80732
G1 X110.333 Y116.043 E3.82494
G1 X110.196 Y115.642 E3.84256
G1 X110.135 Y115.181 E3.86189
G1 X110.124 Y114.76 E3.8794
G1 X110.123 Y105.558 E4.26197
G1 X110.134 Y104.847 E4.29154
G1 X110.181 Y104.426 E4.30915
G1 X110.305 Y104.021 E4.32676
G1 X110.504 Y103.646 E4.34441
G1 X110.769 Y103.316 E4.36201
G0 F6000 X110.408 Y102.966
G1 F900 X110.802 Y102.631 E4.38351
G1 X111.253 Y102.373 E4.40511
G1 X111.748 Y102.204 E4.42685
G1 X112.343 Y102.132 E4.45177
G1 X113.253 Y102.119 E4.48961
G1 X146.861 Y102.12 E5.88687
G1 X147.56 Y102.13 E5.91593
G1 X148.073 Y102.184 E5.93738
G1 X148.573 Y102.336 E5.9591
G1 X149.027 Y102.576 E5.98045
G1 X149.433 Y102.902 E6.0021
G1 X149.769 Y103.281 E6.02316
G1 X150.072 Y103.773 E6.04718
G1 X150.257 Y104.265 E6.06904
G1 X150.349 Y104.926 E6.09678
G1 X150.373 Y106.059 E6.1439
G1 X150.372 Y114.308 E6.48685
G1 X150.362 Y115.024 E6.51662
G1 X150.308 Y115.538 E6.53811
G1 X150.154 Y116.041 E6.55998
G1 X149.837 Y116.621 E6.58746
G1 X149.445 Y117.084 E6.61268
G1 X149.041 Y117.41 E6.63426
G1 X148.582 Y117.654 E6.65588
G1 X148.085 Y117.809 E6.67752
G1 X147.569 Y117.865 E6.6991
G1 X146.666 Y117.88 E6.73665
G1 X113.195 Y117.881 E8.12821
G1 X112.342 Y117.868 E8.16368
G1 X111.829 Y117.813 E8.18513
G1 X111.33 Y117.661 E8.20681
G1 X110.876 Y117.421 E8.22816
G1 X110.466 Y117.092 E8.25002
G1 X110.133 Y116.701 E8.27137
G1 X109.875 Y116.249 E8.29301
G1 X109.706 Y115.755 E8.31472
G1 X109.639 Y115.247 E8.33602
G1 X109.624 Y114.76 E8.35628
G1 X109.623 Y105.55 E8.73918
G1 X109.637 Y104.792 E8.7707
G1 X109.689 Y104.325 E8.79024
G1 X109.842 Y103.827 E8.8119
G1 X110.084 Y103.37 E8.8334
G1 X110.408 Y102.966 E8.85493
G0 F6000 X110.048 Y102.616
G1 F900 X110.512 Y102.221 E8.88026
G1 X111.047 Y101.915 E8.90589
G1 X111.635 Y101.714 E8.93172
G1 X112.336 Y101.632 E8.96106
G1 X113.253 Y101.619 E8.99919
G1 X146.868 Y101.62 E10.39674
G1 X147.567 Y101.63 E10.42581
G1 X148.171 Y101.692 E10.45105
G1 X148.767 Y101.873 E10.47695
G1 X149.303 Y102.156 E10.50215
G1 X149.779 Y102.539 E10.52755
G1 X150.172 Y102.982 E10.55217
G1 X150.523 Y103.551 E10.57996
G1 X150.745 Y104.141 E10.60617
G1 X150.849 Y104.915 E10.63864
G1 X150.873 Y106.059 E10.68621
G1 X150.872 Y114.315 E11.02946
G1 X150.862 Y115.031 E11.05923
G1 X150.8 Y115.638 E11.08459
G1 X150.616 Y116.238 E11.11069
G1 X150.252 Y116.905 E11.14228
G1 X149.797 Y117.442 E11.17154
G1 X149.319 Y117.828 E11.19708
G1 X148.775 Y118.117 E11.22269
G1 X148.186 Y118.301 E11.24835
G1 X147.577 Y118.365 E11.27381
G1 X146.666 Y118.38 E11.31169
G1 X113.187 Y118.381 E12.70358
G1 X112.334 Y118.368 E12.73905
G1 X111.73 Y118.305 E12.7643
G1 X111.137 Y118.125 E12.79006
G1 X110.6 Y117.841 E12.81532
G1 X110.116 Y117.452 E12.84113
G1 X109.723 Y116.991 E12.86632
G1 X109.417 Y116.455 E12.89198
G1 X109.216 Y115.867 E12.91781
G1 X109.139 Y115.262 E12.94317
G1 X109.124 Y114.76 E12.96405
G1 X109.123 Y105.541 E13.34733
G1 X109.137 Y104.783 E13.37885
G1 X109.197 Y104.224 E13.40222
G1 X109.378 Y103.635 E13.42784
G1 X109.664 Y103.094 E13.45328
G1 X110.048 Y102.616 E13.47878
G1 F1800 E12.97878
;MESH:RetractTower
EXCLUDE_OBJECT_START NAME=RetractTower
G0 F6000 X112.424 Y104.205
G0 X112.787 Y105.283
G0 X146.19 Y106.303
G0 X146.372 Y113.88
;TYPE:WALL-INNER
G1 F1800 E13.47878
G1 F900 X146.372 Y106.121 E13.80136
G1 X113.624 Y106.12 E15.16286
G1 X113.623 Y113.881 E15.48553
G1 X146.372 Y113.88 E16.84707
G0 F6000 X146.872 Y114.38
G1 F900 X146.872 Y105.621 E17.21123
G1 X113.124 Y105.62 E18.61431
G1 X113.123 Y114.381 E18.97855
G1 X146.872 Y114.38 E20.38167
G0 F6000 X147.372 Y114.88
;TYPE:WALL-OUTER
G1 F900 X147.372 Y105.121 E20.7874
G1 X112.624 Y105.12 E22.23205
G1 X112.623 Y114.881 E22.63787
G1 X147.372 Y114.88 E24.08256
G0 F6000 X146.752 Y114.26
G0 X146.262 Y113.42
G0 X145.912 Y113.42
;TYPE:SKIN
G1 F900 X114.084 Y113.42 E25.40582
G1 X114.085 Y106.581 E25.69015
G1 X145.912 Y106.581 E27.01336
G1 X145.912 Y113.42 E27.2977
G0 F6000 X146.262 Y113.42
G0 X146.262 Y107.477
G0 X145.661 Y107.477
G1 F900 X145.014 Y106.831 E27.33571
G0 F6000 X144.307 Y106.831
G1 F900 X145.661 Y108.184 E27.41529
G0 F6000 X145.661 Y108.891
G1 F900 X143.6 Y106.831 E27.53644
G0 F6000 X142.893 Y106.831
G1 F900 X145.661 Y109.598 E27.69916
G0 F6000 X145.661 Y110.305
G1 F900 X142.186 Y106.831 E27.90344
G0 F6000 X141.479 Y106.831
G1 F900 X145.661 Y111.012 E28.1493
G0 F6000 X145.661 Y111.72
G1 F900 X140.772 Y106.831 E28.43675
G0 F6000 X140.065 Y106.831
G1 F900 X145.661 Y112.427 E28.76578
G0 F6000 X145.661 Y113.134
G1 F900 X139.358 Y106.831 E29.13637
G0 F6000 X138.65 Y106.831
G1 F900 X144.989 Y113.169 E29.50905
G0 F6000 X144.282 Y113.169
G1 F900 X137.943 Y106.831 E29.88173
G0 F6000 X137.236 Y106.831
G1 F900 X143.575 Y113.169 E30.25441
G0 F6000 X142.868 Y113.169
G1 F900 X136.529 Y106.831 E30.62709
G0 F6000 X135.822 Y106.831
G1 F900 X142.16 Y113.169 E30.99974
G0 F6000 X141.453 Y113.169
G1 F900 X135.115 Y106.831 E31.37239
G0 F6000 X134.408 Y106.831
G1 F900 X140.746 Y113.169 E31.74504
G0 F6000 X140.039 Y113.169
G1 F900 X133.701 Y106.831 E32.11769
G0 F6000 X132.994 Y106.831
G1 F900 X139.332 Y113.169 E32.49034
G0 F6000 X138.625 Y113.169
G1 F900 X132.286 Y106.831 E32.86302
G0 F6000 X131.579 Y106.831
G1 F900 X137.918 Y113.169 E33.2357
G0 F6000 X137.211 Y113.169
G1 F900 X130.872 Y106.831 E33.60838
G0 F6000 X130.165 Y106.831
G1 F900 X136.504 Y113.169 E33.98106
G0 F6000 X135.797 Y113.169
G1 F900 X129.458 Y106.831 E34.35374
G0 F6000 X128.751 Y106.831
G1 F900 X135.089 Y113.169 E34.72639
G0 F6000 X134.382 Y113.169
G1 F900 X128.044 Y106.831 E35.09904
G0 F6000 X127.337 Y106.831
G1 F900 X133.675 Y113.169 E35.47169
G0 F6000 X132.968 Y113.169
G1 F900 X126.63 Y106.831 E35.84434
G0 F6000 X125.922 Y106.831
G1 F900 X132.261 Y113.169 E36.21702
G0 F6000 X131.554 Y113.169
G1 F900 X125.215 Y106.831 E36.5897
G0 F6000 X124.508 Y106.831
G1 F900 X130.847 Y113.169 E36.96238
G0 F6000 X130.14 Y113.169
G1 F900 X123.801 Y106.831 E37.33506
G0 F6000 X123.094 Y106.831
G1 F900 X129.433 Y113.169 E37.70773
G0 F6000 X128.725 Y113.169
G1 F900 X122.387 Y106.831 E38.08038
G0 F6000 X121.68 Y106.831
G1 F900 X128.018 Y113.169 E38.45303
G0 F6000 X127.311 Y113.169
G1 F900 X120.973 Y106.831 E38.82568
G0 F6000 X120.266 Y106.831
G1 F900 X126.604 Y113.169 E39.19833
G0 F6000 X125.897 Y113.169
G1 F900 X119.559 Y106.831 E39.57099
G0 F6000 X118.851 Y106.831
G1 F900 X125.19 Y113.169 E39.94366
G0 F6000 X124.483 Y113.169
G1 F900 X118.144 Y106.831 E40.31634
G0 F6000 X117.437 Y106.831
G1 F900 X123.776 Y113.169 E40.68902
G0 F6000 X123.069 Y113.169
G1 F900 X116.73 Y106.831 E41.0617
G0 F6000 X116.023 Y106.831
G1 F900 X122.362 Y113.169 E41.43438
G0 F6000 X121.654 Y113.169
G1 F900 X115.316 Y106.831 E41.80703
G0 F6000 X114.609 Y106.831
G1 F900 X120.947 Y113.169 E42.17968
G0 F6000 X120.24 Y113.169
G1 F900 X114.333 Y107.262 E42.52699
G0 F6000 X114.333 Y107.969
G1 F900 X119.533 Y113.169 E42.83273
G0 F6000 X118.826 Y113.169
G1 F900 X114.333 Y108.676 E43.0969
G0 F6000 X114.333 Y109.383
G1 F900 X118.119 Y113.169 E43.31951
G0 F6000 X117.412 Y113.169
G1 F900 X114.333 Y110.09 E43.50054
G0 F6000 X114.333 Y110.797
G1 F900 X116.705 Y113.169 E43.64
G0 F6000 X115.998 Y113.169
G1 F900 X114.333 Y111.505 E43.73787
G0 F6000 X114.333 Y112.212
G1 F900 X115.29 Y113.169 E43.79414
G0 F6000 X114.583 Y113.169
G1 F900 X114.333 Y112.919 E43.80884
M104 S205
G0 F6000 X113.673 Y112.918
G1 F1800 E43.30884
;MESH:NONMESH
EXCLUDE_OBJECT_END NAME=RetractTower
G0 F300 X113.673 Y112.918 Z0.4
G0 F6000 X113.805 Y113.699
G0 X146.645 Y114.152
;TIME_ELAPSED:80.777555
;LAYER:1
M106 S255
;TYPE:WALL-INNER
;MESH:RetractTower
EXCLUDE_OBJECT_START NAME=RetractTower
G1 F1800 E43.80884
G1 F2700 X146.645 Y105.848 E44.08503
G1 X113.355 Y105.848 E45.19226
G1 X113.355 Y114.152 E45.46845
G1 X146.645 Y114.152 E46.57568
G0 F10500 X147.045 Y114.552
G1 F2700 X147.045 Y105.448 E46.87848
G1 X112.955 Y105.448 E48.01232
G1 X112.955 Y114.552 E48.31512
G1 X147.045 Y114.552 E49.44896
G0 F10500 X147.445 Y114.952
;TYPE:WALL-OUTER
G1 F2700 X147.445 Y105.048 E49.77837
G1 X112.555 Y105.052 E50.93881
G1 X112.555 Y114.948 E51.26795
G1 X147.445 Y114.952 E52.4284
G1 F1800 E51.9284
G0 F10500 X147.175 Y114.682
G0 X114.273 Y113.74
;TYPE:SKIN
G1 F1800 E52.4284
G1 F1544.6 X113.767 Y113.74 E52.44965
G1 X113.767 Y106.26 E52.76374
G1 X114.273 Y106.26 E52.78499
G1 X114.273 Y113.74 E53.09908
G0 F10500 X120.725 Y112.24
G1 F1950 X116.245 Y112.24 E53.24808
G1 X116.245 Y107.76 E53.39709
G1 X120.725 Y107.76 E53.5461
G1 X120.725 Y112.24 E53.6951
G0 F10500 X144.142 Y106.209
G1 F1950 X146.285 Y106.208 E53.76638
G1 X146.281 Y108.293 E53.83572
G1 X145.836 Y107.536 E53.86493
G1 X145.251 Y106.894 E53.89382
G1 X144.549 Y106.389 E53.92258
G1 X144.142 Y106.209 E53.93738
G0 F10500 X140.825 Y113.791
G1 F1950 X122.645 Y113.792 E54.54205
G1 X122.645 Y106.208 E54.7943
G1 X140.829 Y106.208 E55.3991
G1 X140.417 Y106.389 E55.41407
G1 X139.72 Y106.893 E55.44267
G1 X139.109 Y107.571 E55.47303
G1 X138.691 Y108.292 E55.50075
G1 X138.421 Y109.114 E55.52953
G1 X138.326 Y109.979 E55.55847
G1 X138.421 Y110.886 E55.5888
G1 X138.691 Y111.708 E55.61758
G1 X139.109 Y112.429 E55.6453
G1 X139.689 Y113.079 E55.67427
G1 X140.417 Y113.611 E55.70426
G1 X140.825 Y113.791 E55.71909
G0 F10500 X142.723 Y112.227
G1 F1950 X142.247 Y112.227 E55.73493
G1 X141.8 Y112.131 E55.75013
G1 X141.37 Y111.94 E55.76578
G1 X140.985 Y111.662 E55.78158
G1 X140.674 Y111.317 E55.79703
G1 X140.439 Y110.91 E55.81266
G1 X140.294 Y110.464 E55.82825
G1 X140.247 Y110.001 E55.84373
G1 X140.294 Y109.536 E55.85928
G1 X140.439 Y109.09 E55.87488
G1 X140.674 Y108.683 E55.89051
G1 X140.984 Y108.339 E55.90591
G1 X141.363 Y108.066 E55.92144
G1 X141.802 Y107.868 E55.93746
G1 X142.246 Y107.773 E55.95256
G1 X142.722 Y107.774 E55.9684
G1 X143.17 Y107.87 E55.98363
G1 X143.603 Y108.063 E55.9994
G1 X143.983 Y108.336 E56.01496
G1 X144.295 Y108.683 E56.03049
G1 X144.529 Y109.091 E56.04613
G1 X144.674 Y109.537 E56.06173
G1 X144.723 Y110.001 E56.07725
G1 X144.674 Y110.464 E56.09273
G1 X144.529 Y110.91 E56.10833
G1 X144.295 Y111.317 E56.12394
G1 X143.985 Y111.661 E56.13935
G1 X143.603 Y111.938 E56.15504
G1 X143.172 Y112.13 E56.17073
G1 X142.723 Y112.227 E56.18601
G0 F10500 X144.142 Y113.791
G1 F1950 X144.549 Y113.611 E56.20081
G1 X145.251 Y113.106 E56.22958
G1 X145.836 Y112.464 E56.25846
G1 X146.281 Y111.707 E56.28767
G1 X146.285 Y113.792 E56.35702
G1 X144.142 Y113.791 E56.42829
G0 F10500 X116.616 Y107.96
;TYPE:SKIN
G1 F1950 X116.444 Y108.132 E56.43638
G0 F10500 X116.444 Y108.698
G1 F1950 X117.182 Y107.96 E56.4711
G0 F10500 X117.748 Y107.96
G1 F1950 X116.444 Y109.264 E56.53243
G0 F10500 X116.444 Y109.829
G1 F1950 X118.313 Y107.96 E56.62035
G0 F10500 X118.879 Y107.96
G1 F1950 X116.444 Y110.395 E56.73488
G0 F10500 X116.444 Y110.961
G1 F1950 X119.445 Y107.96 E56.87604
G0 F10500 X120.01 Y107.96
G1 F1950 X116.444 Y111.527 E57.0438
G0 F10500 X116.496 Y112.04
G1 F1950 X120.524 Y108.012 E57.23326
G0 F10500 X120.524 Y108.578
G1 F1950 X117.062 Y112.04 E57.3961
G0 F10500 X117.627 Y112.04
G1 F1950 X120.524 Y109.144 E57.53234
G0 F10500 X120.524 Y109.709
G1 F1950 X118.193 Y112.04 E57.64199
G0 F10500 X118.759 Y112.04
G1 F1950 X120.524 Y110.275 E57.72501
G0 F10500 X120.524 Y110.841
G1 F1950 X119.324 Y112.04 E57.78143
G0 F10500 X119.89 Y112.04
G1 F1950 X120.524 Y111.406 E57.81125
G0 F10500 X120.524 Y111.972
G1 F1950 X120.456 Y112.04 E57.81445
G0 F10500 X122.844 Y106.824
G1 F1950 X123.26 Y106.408 E57.83402
G0 F10500 X123.825 Y106.408
G1 F1950 X122.844 Y107.389 E57.88016
G0 F10500 X122.844 Y107.955
G1 F1950 X124.391 Y106.408 E57.95293
G0 F10500 X124.957 Y106.408
G1 F1950 X122.844 Y108.521 E58.05231
G0 F10500 X122.844 Y109.086
G1 F1950 X125.522 Y106.408 E58.17828
G0 F10500 X126.088 Y106.408
G1 F1950 X122.844 Y109.652 E58.33087
G0 F10500 X122.844 Y110.218
G1 F1950 X126.654 Y106.408 E58.51008
G0 F10500 X127.219 Y106.408
G1 F1950 X122.844 Y110.783 E58.71586
G0 F10500 X122.844 Y111.349
G1 F1950 X127.785 Y106.408 E58.94827
G0 F10500 X128.351 Y106.408
G1 F1950 X122.844 Y111.915 E59.20731
G0 F10500 X122.844 Y112.48
G1 F1950 X128.916 Y106.408 E59.49291
G0 F10500 X129.482 Y106.408
G1 F1950 X122.844 Y113.046 E59.80515
G0 F10500 X122.864 Y113.592
G1 F1950 X130.048 Y106.408 E60.14306
G0 F10500 X130.613 Y106.408
G1 F1950 X123.429 Y113.592 E60.48097
G0 F10500 X123.995 Y113.592
G1 F1950 X131.179 Y106.408 E60.81889
G0 F10500 X131.745 Y106.408
G1 F1950 X124.561 Y113.592 E61.1568
G0 F10500 X125.126 Y113.592
G1 F1950 X132.31 Y106.408 E61.49471
G0 F10500 X132.876 Y106.408
G1 F1950 X125.692 Y113.592 E61.83263
G0 F10500 X126.258 Y113.592
G1 F1950 X133.442 Y106.408 E62.17054
G0 F10500 X134.008 Y106.408
G1 F1950 X126.823 Y113.592 E62.50848
G0 F10500 X127.389 Y113.592
G1 F1950 X134.573 Y106.408 E62.84639
G0 F10500 X135.139 Y106.408
G1 F1950 X127.955 Y113.592 E63.1843
G0 F10500 X128.52 Y113.592
G1 F1950 X135.705 Y106.408 E63.52224
G0 F10500 X136.27 Y106.408
G1 F1950 X129.086 Y113.592 E63.86015
G0 F10500 X129.652 Y113.592
G1 F1950 X136.836 Y106.408 E64.19807
G0 F10500 X137.402 Y106.408
G1 F1950 X130.217 Y113.592 E64.536
G0 F10500 X130.783 Y113.592
G1 F1950 X137.967 Y106.408 E64.87392
G0 F10500 X138.533 Y106.408
G1 F1950 X131.349 Y113.592 E65.21183
G0 F10500 X131.915 Y113.591
G1 F1950 X139.099 Y106.408 E65.54972
G0 F10500 X139.664 Y106.408
G1 F1950 X132.481 Y113.591 E65.88759
G0 F10500 X133.047 Y113.591
G1 F1950 X138.612 Y108.026 E66.14935
G0 F10500 X138.266 Y108.937
G1 F1950 X133.612 Y113.591 E66.36826
G0 F10500 X134.178 Y113.591
G1 F1950 X138.163 Y109.607 E66.55568
G0 F10500 X138.141 Y110.194
G1 F1950 X134.744 Y113.591 E66.71546
G0 F10500 X135.309 Y113.591
G1 F1950 X138.195 Y110.706 E66.85118
G0 F10500 X138.3 Y111.166
G1 F1950 X135.875 Y113.591 E66.96525
G0 F10500 X136.441 Y113.591
G1 F1950 X138.438 Y111.594 E67.05918
G0 F10500 X138.616 Y111.981
G1 F1950 X137.006 Y113.591 E67.13491
G0 F10500 X137.572 Y113.591
G1 F1950 X138.824 Y112.34 E67.19378
G0 F10500 X139.054 Y112.675
G1 F1950 X138.138 Y113.591 E67.23686
G0 F10500 X138.703 Y113.591
G1 F1950 X139.322 Y112.973 E67.26596
G0 F10500 X139.596 Y113.265
G1 F1950 X139.269 Y113.591 E67.28131
G0 F10500 X139.835 Y113.591
G1 F1950 X139.923 Y113.503 E67.28545
G0 F10500 X140.507 Y109.525
G1 F1950 X142.004 Y108.028 E67.35587
G0 F10500 X142.625 Y107.973
G1 F1950 X140.461 Y110.136 E67.45763
G0 F10500 X140.552 Y110.612
G1 F1950 X143.104 Y108.06 E67.57767
G0 F10500 X143.496 Y108.234
