;FLAVOR:Marlin
;TIME:1326
;Filament used: 1.34653m
;Layer height: 0.2
;MINX:116.8
;MINY:96.8
;MINZ:0.2
;MAXX:143.2
;MAXY:123.2
;MAXZ:20
;POSTPROCESSED
;Generated with Cura_SteamEngine 5.3.1
;
;

M82 ;absolute extrusion mode
START_PRINT EXTRUDER_TEMP=250.0 BED_TEMP=100 RELATIVE_E_MODE=False PROBE=false PROBE_AREA_START=%MINX%,%MINY% PROBE_AREA_END=%MAXX%,%MAXY%
G92 E0
G92 E0
G1 F1500 E-6.5
;LAYER_COUNT:100
;LAYER:0
;TYPE:CUSTOM LAYER
M220 B
M220 S10
M117 Speed S10
M107
G0 F6000 X118.4 Y98.45 Z0.2
;TYPE:SKIRT
G1 F1500 E0
G1 F900 X118.722 Y98.176 E0.01687
G1 X119.09 Y97.966 E0.03379
G1 X119.49 Y97.83 E0.05065
G1 X119.946 Y97.77 E0.069
G1 X120.33 Y97.76 E0.08434
G1 X139.325 Y97.76 E0.84247
G1 X140.023 Y97.77 E0.87033
G1 X140.443 Y97.816 E0.88719
G1 X140.848 Y97.94 E0.9041
G1 X141.221 Y98.138 E0.92095
G1 X141.551 Y98.403 E0.93784
G1 X141.825 Y98.725 E0.95472
G1 X142.034 Y99.092 E0.97158
G1 X142.17 Y99.493 E0.98848
G1 X142.23 Y99.947 E1.00675
G1 X142.24 Y100.33 E1.02205
G1 X142.24 Y119.292 E1.77886
G1 X142.231 Y120.019 E1.80788
G1 X142.186 Y120.439 E1.82474
G1 X142.062 Y120.844 E1.84164
G1 X141.865 Y121.218 E1.85851
G1 X141.601 Y121.548 E1.87538
G1 X141.28 Y121.823 E1.89225
G1 X140.913 Y122.033 E1.90913
G1 X140.513 Y122.169 E1.92599
G1 X140.054 Y122.23 E1.94447
G1 X139.67 Y122.24 E1.9598
G1 X120.678 Y122.24 E2.71781
G1 X119.98 Y122.231 E2.74567
G1 X119.56 Y122.185 E2.76254
G1 X119.155 Y122.062 E2.77943
G1 X118.781 Y121.865 E2.7963
G1 X118.451 Y121.601 E2.81317
G1 X118.176 Y121.279 E2.83007
G1 X117.967 Y120.912 E2.84693
G1 X117.83 Y120.512 E2.8638
G1 X117.77 Y120.052 E2.88232
G1 X117.76 Y119.658 E2.89805
G1 X117.76 Y100.644 E3.65694
G1 X117.769 Y99.979 E3.68348
G1 X117.815 Y99.558 E3.70039
G1 X117.939 Y99.154 E3.71725
G1 X118.136 Y98.78 E3.73412
G1 X118.4 Y98.45 E3.75099
G0 F6000 X118.054 Y98.114
G1 F900 X117.732 Y98.517 E3.77158
G1 X117.494 Y98.969 E3.79197
G1 X117.343 Y99.46 E3.81247
G1 X117.289 Y99.973 E3.83306
G1 X117.28 Y100.638 E3.8596
G1 X117.28 Y119.67 E4.61921
G1 X117.29 Y120.064 E4.63494
G1 X117.36 Y120.621 E4.65735
G1 X117.528 Y121.111 E4.67802
G1 X117.781 Y121.556 E4.69845
G1 X118.116 Y121.948 E4.71903
G1 X118.518 Y122.269 E4.73956
G1 X118.968 Y122.506 E4.75986
G1 X119.465 Y122.658 E4.78061
G1 X119.974 Y122.711 E4.80103
G1 X120.672 Y122.72 E4.82889
G1 X139.682 Y122.72 E5.58762
G1 X140.066 Y122.71 E5.60295
G1 X140.62 Y122.639 E5.62525
G1 X141.113 Y122.472 E5.64602
G1 X141.558 Y122.217 E5.66649
G1 X141.948 Y121.883 E5.68699
G1 X142.269 Y121.482 E5.70749
G1 X142.508 Y121.029 E5.72793
G1 X142.658 Y120.537 E5.74846
G1 X142.711 Y120.025 E5.769
G1 X142.72 Y119.298 E5.79802
G1 X142.72 Y100.317 E6.55559
G1 X142.71 Y99.934 E6.57089
G1 X142.64 Y99.384 E6.59301
G1 X142.475 Y98.896 E6.61357
G1 X142.22 Y98.447 E6.63418
G1 X141.888 Y98.058 E6.6546
G1 X141.487 Y97.736 E6.67512
G1 X141.032 Y97.494 E6.69569
G1 X140.541 Y97.344 E6.71618
G1 X140.03 Y97.29 E6.73669
G1 X139.332 Y97.28 E6.76455
G1 X120.318 Y97.28 E7.52344
G1 X119.934 Y97.29 E7.53877
G1 X119.384 Y97.359 E7.5609
G1 X118.89 Y97.527 E7.58172
G1 X118.444 Y97.782 E7.60223
G1 X118.054 Y98.114 E7.62267
G0 F6000 X117.705 Y97.781
G1 F900 X118.17 Y97.386 E7.64702
G1 X118.69 Y97.088 E7.67094
G1 X119.277 Y96.889 E7.69568
G1 X119.922 Y96.81 E7.72162
G1 X120.306 Y96.8 E7.73695
G1 X139.339 Y96.8 E8.49659
G1 X140.037 Y96.81 E8.52446
G1 X140.638 Y96.872 E8.54857
G1 X141.217 Y97.049 E8.57274
G1 X141.753 Y97.334 E8.59696
G1 X142.224 Y97.712 E8.62107
G1 X142.613 Y98.168 E8.64499
G1 X142.917 Y98.702 E8.66952
G1 X143.11 Y99.274 E8.69361
G1 X143.19 Y99.921 E8.71963
G1 X143.2 Y100.304 E8.73492
G1 X143.2 Y119.304 E9.49325
G1 X143.191 Y120.031 E9.52227
G1 X143.13 Y120.634 E9.54646
G1 X142.953 Y121.215 E9.5707
G1 X142.673 Y121.746 E9.59466
G1 X142.295 Y122.218 E9.6188
G1 X141.838 Y122.61 E9.64283
G1 X141.308 Y122.913 E9.66719
G1 X140.73 Y123.109 E9.69155
G1 X140.078 Y123.19 E9.71778
G1 X139.694 Y123.2 E9.73311
G1 X120.666 Y123.2 E10.49256
G1 X119.968 Y123.191 E10.52042
G1 X119.368 Y123.13 E10.54449
G1 X118.782 Y122.951 E10.56894
G1 X118.255 Y122.673 E10.59272
G1 X117.781 Y122.295 E10.61692
G1 X117.388 Y121.835 E10.64107
G1 X117.088 Y121.307 E10.66531
G1 X116.89 Y120.731 E10.68962
G1 X116.81 Y120.076 E10.71595
G1 X116.8 Y119.682 E10.73168
G1 X116.8 Y100.632 E11.49201
G1 X116.809 Y99.967 E11.51855
G1 X116.871 Y99.361 E11.54287
G1 X117.049 Y98.784 E11.56697
G1 X117.328 Y98.254 E11.59087
G1 X117.705 Y97.781 E11.61501
G1 F1500 E5.11501
;MESH:Cube
G0 F6000 X119.335 Y100.414
G0 X120.414 Y100.414
G0 X138.588 Y101.412
G0 X138.8 Y118.8
;TYPE:WALL-INNER
G1 F1500 E11.61501
G1 F900 X138.8 Y101.2 E12.31747
G1 X121.2 Y101.2 E13.01992
G1 X121.2 Y118.8 E13.72238
G1 X138.8 Y118.8 E14.42483
G0 F6000 X139.28 Y119.28
G1 F900 X139.28 Y100.72 E15.1656
G1 X120.72 Y100.72 E15.90637
G1 X120.72 Y119.28 E16.64714
G1 X139.28 Y119.28 E17.38791
G0 F6000 X139.76 Y119.76
;TYPE:WALL-OUTER
G1 F900 X139.76 Y100.24 E18.16699
G1 X120.24 Y100.24 E18.94608
G1 X120.24 Y119.76 E19.72517
G1 X139.76 Y119.76 E20.50425
G0 F6000 X139.13 Y119.13
G0 X138.66 Y118.36
G0 X138.36 Y118.36
;TYPE:SKIN
G1 F900 X121.64 Y118.36 E21.17158
G1 X121.64 Y101.64 E21.83891
G1 X138.36 Y101.64 E22.50625
G1 X138.36 Y118.36 E23.17358
G0 F6000 X138.66 Y118.36
G0 X138.588 Y101.412
G0 X137.857 Y101.34
G0 X137.857 Y101.879
G1 F900 X138.119 Y102.142 E23.18839
G0 F6000 X138.119 Y102.821
G1 F900 X137.178 Y101.879 E23.24154
G0 F6000 X136.499 Y101.879
G1 F900 X138.119 Y103.499 E23.33298
G0 F6000 X138.119 Y104.178
G1 F900 X135.821 Y101.879 E23.46271
G0 F6000 X135.142 Y101.879
G1 F900 X138.119 Y104.857 E23.63078
G0 F6000 X138.119 Y105.536
G1 F900 X134.463 Y101.879 E23.83716
G0 F6000 X133.784 Y101.879
G1 F900 X138.119 Y106.215 E24.08188
G0 F6000 X138.119 Y106.894
G1 F900 X133.105 Y101.879 E24.36492
G0 F6000 X132.426 Y101.879
G1 F900 X138.119 Y107.572 E24.68626
G0 F6000 X138.119 Y108.251
G1 F900 X131.748 Y101.879 E25.04589
G0 F6000 X131.069 Y101.879
G1 F900 X138.119 Y108.93 E25.44385
G0 F6000 X138.119 Y109.609
G1 F900 X130.39 Y101.879 E25.88014
G0 F6000 X129.711 Y101.879
G1 F900 X138.119 Y110.288 E26.35475
G0 F6000 X138.119 Y110.966
G1 F900 X129.032 Y101.879 E26.86766
G0 F6000 X128.354 Y101.879
G1 F900 X138.119 Y111.645 E27.41887
G0 F6000 X138.119 Y112.324
G1 F900 X127.675 Y101.879 E28.0084
G0 F6000 X126.996 Y101.879
G1 F900 X138.119 Y113.003 E28.63626
G0 F6000 X138.119 Y113.682
G1 F900 X126.317 Y101.879 E29.30244
G0 F6000 X125.638 Y101.879
G1 F900 X138.119 Y114.361 E30.00695
G0 F6000 X138.119 Y115.039
G1 F900 X124.959 Y101.879 E30.74976
G0 F6000 X124.281 Y101.879
G1 F900 X138.119 Y115.718 E31.53086
G0 F6000 X138.119 Y116.397
G1 F900 X123.602 Y101.879 E32.35029
G0 F6000 X122.923 Y101.879
G1 F900 X138.119 Y117.076 E33.20805
G0 F6000 X138.119 Y117.755
G1 F900 X122.244 Y101.879 E34.10413
G0 F6000 X121.879 Y102.193
G1 F900 X137.805 Y118.12 E35.00309
G0 F6000 X137.127 Y118.12
G1 F900 X121.879 Y102.872 E35.86376
G0 F6000 X121.879 Y103.55
G1 F900 X136.448 Y118.12 E36.68612
G0 F6000 X135.769 Y118.12
G1 F900 X121.879 Y104.229 E37.47016
G0 F6000 X121.879 Y104.908
G1 F900 X135.09 Y118.12 E38.21588
G0 F6000 X134.411 Y118.12
G1 F900 X121.879 Y105.587 E38.92326
G0 F6000 X121.879 Y106.266
G1 F900 X133.732 Y118.12 E39.59233
G0 F6000 X133.054 Y118.12
G1 F900 X121.879 Y106.944 E40.22312
G0 F6000 X121.879 Y107.623
G1 F900 X132.375 Y118.12 E40.81559
G0 F6000 X131.696 Y118.12
G1 F900 X121.879 Y108.302 E41.36973
G0 F6000 X121.879 Y108.981
G1 F900 X131.017 Y118.12 E41.88555
G0 F6000 X130.338 Y118.12
G1 F900 X121.879 Y109.66 E42.36304
G0 F6000 X121.879 Y110.339
G1 F900 X129.66 Y118.12 E42.80223
G0 F6000 X128.981 Y118.12
G1 F900 X121.879 Y111.017 E43.20313
G0 F6000 X121.879 Y111.696
G1 F900 X128.302 Y118.12 E43.5657
G0 F6000 X127.623 Y118.12
G1 F900 X121.879 Y112.375 E43.88994
G0 F6000 X121.879 Y113.054
G1 F900 X126.944 Y118.12 E44.17586
G0 F6000 X126.265 Y118.12
G1 F900 X121.879 Y113.733 E44.42345
G0 F6000 X121.879 Y114.411
G1 F900 X125.587 Y118.12 E44.63278
G0 F6000 X124.908 Y118.12
G1 F900 X121.879 Y115.09 E44.80377
G0 F6000 X121.879 Y115.769
G1 F900 X124.229 Y118.12 E44.93645
G0 F6000 X123.55 Y118.12
G1 F900 X121.879 Y116.448 E45.03079
G0 F6000 X121.879 Y117.127
G1 F900 X122.871 Y118.12 E45.08681
G0 F6000 X122.193 Y118.12
G1 F900 X121.879 Y117.806 E45.10454
M104 S250
G0 F6000 X121.28 Y117.806
;MESH:NONMESH
G0 F300 X121.28 Y117.806 Z0.4
G0 F6000 X121.412 Y118.588
G0 X139 Y119
;TIME_ELAPSED:86.085837
;LAYER:1
M106 S51
;TYPE:WALL-INNER
;MESH:Cube
G1 F1950 X139 Y101 E45.70322
G1 X121 Y101 E46.3019
G1 X121 Y119 E46.90059
G1 X139 Y119 E47.49927
G0 F10500 X139.4 Y119.4
G1 F1950 X139.4 Y100.6 E48.12456
G1 X120.6 Y100.6 E48.74985
G1 X120.6 Y119.4 E49.37514
G1 X139.4 Y119.4 E50.00043
G0 F10500 X139.8 Y119.8
;TYPE:WALL-OUTER
G1 F1950 X139.8 Y100.2 E50.65233
G1 X120.2 Y100.2 E51.30423
G1 X120.2 Y119.8 E51.95613
G1 X139.8 Y119.8 E52.60802
G0 F10500 X139.53 Y119.53
G0 X138.9 Y118.64
G0 X138.64 Y118.64
;TYPE:SKIN
G1 F1950 X121.36 Y118.64 E53.18276
G1 X121.36 Y101.36 E53.75749
G1 X138.64 Y101.36 E54.33223
G1 X138.64 Y118.64 E54.90696
G0 F10500 X138.381 Y118.439
G1 F1950 X138.439 Y118.381 E54.90969
G0 F10500 X138.439 Y117.816
G1 F1950 X137.815 Y118.439 E54.93902
G0 F10500 X137.25 Y118.439
G1 F1950 X138.439 Y117.25 E54.99495
G0 F10500 X138.439 Y116.684
G1 F1950 X136.684 Y118.439 E55.0775
G0 F10500 X136.118 Y118.439
G1 F1950 X138.439 Y116.118 E55.18667
G0 F10500 X138.439 Y115.553
G1 F1950 X135.553 Y118.439 E55.32242
G0 F10500 X134.987 Y118.439
G1 F1950 X138.439 Y114.987 E55.48479
G0 F10500 X138.439 Y114.421
G1 F1950 X134.421 Y118.439 E55.67378
G0 F10500 X133.856 Y118.439
G1 F1950 X138.439 Y113.856 E55.88935
G0 F10500 X138.439 Y113.29
G1 F1950 X133.29 Y118.439 E56.13155
G0 F10500 X132.724 Y118.439
G1 F1950 X138.439 Y112.724 E56.40036
G0 F10500 X138.439 Y112.159
G1 F1950 X132.158 Y118.439 E56.69578
G0 F10500 X131.593 Y118.439
G1 F1950 X138.439 Y111.593 E57.01779
G0 F10500 X138.439 Y111.027
G1 F1950 X131.027 Y118.439 E57.36643
G0 F10500 X130.461 Y118.439
G1 F1950 X138.439 Y110.462 E57.74167
G0 F10500 X138.439 Y109.896
G1 F1950 X129.896 Y118.439 E58.14351
G0 F10500 X129.33 Y118.439
G1 F1950 X138.439 Y109.33 E58.57197
G0 F10500 X138.439 Y108.765
G1 F1950 X128.764 Y118.439 E59.02702
G0 F10500 X128.199 Y118.439
G1 F1950 X138.439 Y108.199 E59.50868
G0 F10500 X138.439 Y107.633
G1 F1950 X127.633 Y118.439 E60.01696
G0 F10500 X127.067 Y118.439
G1 F1950 X138.439 Y107.067 E60.55187
G0 F10500 X138.439 Y106.502
G1 F1950 X126.502 Y118.439 E61.11335
G0 F10500 X125.936 Y118.439
G1 F1950 X138.439 Y105.936 E61.70145
G0 F10500 X138.439 Y105.37
G1 F1950 X125.37 Y118.439 E62.31618
G0 F10500 X124.805 Y118.439
G1 F1950 X138.439 Y104.805 E62.95748
G0 F10500 X138.439 Y104.239
G1 F1950 X124.239 Y118.439 E63.6254
G0 F10500 X123.673 Y118.439
G1 F1950 X138.439 Y103.673 E64.31995
G0 F10500 X138.439 Y103.108
G1 F1950 X123.107 Y118.439 E65.0411
G0 F10500 X122.542 Y118.439
G1 F1950 X138.439 Y102.542 E65.78884
G0 F10500 X138.439 Y101.976
G1 F1950 X121.976 Y118.439 E66.56321
G0 F10500 X121.559 Y118.291
G1 F1950 X138.29 Y101.559 E67.35021
G0 F10500 X137.725 Y101.559
G1 F1950 X121.559 Y117.725 E68.11061
G0 F10500 X121.559 Y117.159
G1 F1950 X137.159 Y101.559 E68.84438
G0 F10500 X136.593 Y101.559
G1 F1950 X121.559 Y116.594 E69.55156
G0 F10500 X121.559 Y116.028
G1 F1950 X136.028 Y101.559 E70.23214
G0 F10500 X135.462 Y101.559
G1 F1950 X121.559 Y115.462 E70.88609
G0 F10500 X121.559 Y114.897
G1 F1950 X134.896 Y101.559 E71.51345
G0 F10500 X134.331 Y101.559
G1 F1950 X121.559 Y114.331 E72.1142
G0 F10500 X121.559 Y113.765
G1 F1950 X133.765 Y101.559 E72.68834
G0 F10500 X133.199 Y101.559
G1 F1950 X121.559 Y113.2 E73.23587
G0 F10500 X121.559 Y112.634
G1 F1950 X132.634 Y101.559 E73.7568
G0 F10500 X132.068 Y101.559
G1 F1950 X121.559 Y112.068 E74.25112
G0 F10500 X121.559 Y111.502
G1 F1950 X131.502 Y101.559 E74.7188
G0 F10500 X130.937 Y101.559
G1 F1950 X121.559 Y110.937 E75.15992
G0 F10500 X121.559 Y110.371
G1 F1950 X130.371 Y101.559 E75.57441
G0 F10500 X129.805 Y101.559
G1 F1950 X121.559 Y109.805 E75.96227
G0 F10500 X121.559 Y109.24
G1 F1950 X129.24 Y101.559 E76.32356
G0 F10500 X128.674 Y101.559
G1 F1950 X121.559 Y108.674 E76.65823
G0 F10500 X121.559 Y108.108
G1 F1950 X128.108 Y101.559 E76.96628
G0 F10500 X127.542 Y101.559
G1 F1950 X121.559 Y107.543 E77.24772
G0 F10500 X121.559 Y106.977
G1 F1950 X126.977 Y101.559 E77.50257
G0 F10500 X126.411 Y101.559
G1 F1950 X121.559 Y106.411 E77.73079
G0 F10500 X121.559 Y105.846
G1 F1950 X125.845 Y101.559 E77.93241
G0 F10500 X125.28 Y101.559
G1 F1950 X121.559 Y105.28 E78.10744
G0 F10500 X121.559 Y104.714
G1 F1950 X124.714 Y101.559 E78.25584
G0 F10500 X124.148 Y101.559
G1 F1950 X121.559 Y104.149 E78.37764
G0 F10500 X121.559 Y103.583
G1 F1950 X123.583 Y101.559 E78.47285
G0 F10500 X123.017 Y101.559
G1 F1950 X121.559 Y103.017 E78.54142
G0 F10500 X121.559 Y102.451
G1 F1950 X122.451 Y101.559 E78.58338
G0 F10500 X121.886 Y101.559
G1 F1950 X121.559 Y101.886 E78.59876
G1 F1500 E72.09876
;MESH:NONMESH
G0 F300 X121.559 Y101.886 Z0.6
G0 F10500 X121.1 Y101.886
G0 X121.172 Y118.828
G0 X139 Y119
;TIME_ELAPSED:124.591896
;LAYER:2
;TYPE:WALL-INNER
;MESH:Cube
G1 F1500 E78.59876
G1 F3000 X139 Y101 E79.19745
G1 X121 Y101 E79.79613
G1 X121 Y119 E80.39481
G1 X139 Y119 E80.99349
G0 F15000 X139.4 Y119.4
G1 F3000 X139.4 Y100.6 E81.61878
G1 X120.6 Y100.6 E82.24407
G1 X120.6 Y119.4 E82.86936
G1 X139.4 Y119.4 E83.49465
G0 F15000 X139.8 Y119.8
;TYPE:WALL-OUTER
G1 F3000 X139.8 Y100.2 E84.14655
G1 X120.2 Y100.2 E84.79845
G1 X120.2 Y119.8 E85.45035
G1 X139.8 Y119.8 E86.10225
G0 F15000 X139.53 Y119.53
G0 X138.9 Y118.64
G0 X138.64 Y118.64
;TYPE:SKIN
G1 F3000 X121.36 Y118.64 E86.67698
G1 X121.36 Y101.36 E87.25172
G1 X138.64 Y101.36 E87.82645
G1 X138.64 Y118.64 E88.40119
G0 F15000 X138.9 Y118.64
G0 X138.9 Y101.669
G0 X138.439 Y101.669
G1 F3000 X138.329 Y101.559 E88.40636
G0 F15000 X137.763 Y101.559
G1 F3000 X138.439 Y102.235 E88.43816
G0 F15000 X138.439 Y102.801
G1 F3000 X137.197 Y101.559 E88.49658
G0 F15000 X136.632 Y101.559
G1 F3000 X138.439 Y103.366 E88.58158
G0 F15000 X138.439 Y103.932
G1 F3000 X136.066 Y101.559 E88.6932
G0 F15000 X135.5 Y101.559
G1 F3000 X138.439 Y104.498 E88.83144
G0 F15000 X138.439 Y105.064
G1 F3000 X134.935 Y101.559 E88.99628
G0 F15000 X134.369 Y101.559
G1 F3000 X138.439 Y105.629 E89.18772
G0 F15000 X138.439 Y106.195
G1 F3000 X133.803 Y101.559 E89.40578
G0 F15000 X133.238 Y101.559
G1 F3000 X138.439 Y106.761 E89.65044
G0 F15000 X138.439 Y107.326
G1 F3000 X132.672 Y101.559 E89.92171
G0 F15000 X132.106 Y101.559
G1 F3000 X138.439 Y107.892 E90.21959
G0 F15000 X138.439 Y108.458
G1 F3000 X131.54 Y101.559 E90.5441
G0 F15000 X130.975 Y101.559
G1 F3000 X138.439 Y109.023 E90.89518
G0 F15000 X138.439 Y109.589
G1 F3000 X130.409 Y101.559 E91.27289
G0 F15000 X129.843 Y101.559
G1 F3000 X138.439 Y110.155 E91.67722
G0 F15000 X138.439 Y110.72
G1 F3000 X129.278 Y101.559 E92.10812
G0 F15000 X128.712 Y101.559
G1 F3000 X138.439 Y111.286 E92.56565
G0 F15000 X138.439 Y111.852
G1 F3000 X128.146 Y101.559 E93.0498
G0 F15000 X127.581 Y101.559
G1 F3000 X138.439 Y112.417 E93.56053
G0 F15000 X138.439 Y112.983
G1 F3000 X127.015 Y101.559 E94.09788
G0 F15000 X126.449 Y101.559
G1 F3000 X138.439 Y113.549 E94.66185
G0 F15000 X138.439 Y114.115
G1 F3000 X125.884 Y101.559 E95.25243
G0 F15000 X125.318 Y101.559
G1 F3000 X138.439 Y114.68 E95.8696
G0 F15000 X138.439 Y115.246
G1 F3000 X124.752 Y101.559 E96.51339
G0 F15000 X124.187 Y101.559
G1 F3000 X138.439 Y115.812 E97.18379
G0 F15000 X138.439 Y116.377
G1 F3000 X123.621 Y101.559 E97.88078
G0 F15000 X123.055 Y101.559
G1 F3000 X138.439 Y116.943 E98.60439
G0 F15000 X138.439 Y117.509
G1 F3000 X122.489 Y101.559 E99.35463
G0 F15000 X121.924 Y101.559
G1 F3000 X138.439 Y118.074 E100.13145
G0 F15000 X138.238 Y118.439
G1 F3000 X121.559 Y101.76 E100.91598
G0 F15000 X121.559 Y102.326
G1 F3000 X137.672 Y118.439 E101.67388
G0 F15000 X137.107 Y118.439
G1 F3000 X121.559 Y102.891 E102.40521
G0 F15000 X121.559 Y103.457
G1 F3000 X136.541 Y118.439 E103.10992
G0 F15000 X135.975 Y118.439
G1 F3000 X121.559 Y104.023 E103.78801
