;FLAVOR:Marlin
;TIME:2271
;Filament used: 1.36457m
;Layer height: 0.2
;MINX:109.173
;MINY:101.669
;MINZ:0.2
;MAXX:150.823
;MAXY:118.331
;MAXZ:39.4
;POSTPROCESSED
;Generated with Cura_SteamEngine 5.3.1
;
;

M82 ;absolute extrusion mode
START_PRINT EXTRUDER_TEMP=240 BED_TEMP=80 RELATIVE_E_MODE=False PROBE=false PROBE_AREA_START=%MINX%,%MINY% PROBE_AREA_END=%MAXX%,%MAXY%
G92 E0
G92 E0
G1 F1500 E-6.5
;LAYER_COUNT:197
;LAYER:0
M107
G0 F6000 X110.779 Y103.32 Z0.2
;TYPE:SKIRT
G1 F1500 E0
G1 F900 X111.101 Y103.046 E0.01687
G1 X111.469 Y102.838 E0.03375
G1 X111.869 Y102.702 E0.05061
G1 X112.35 Y102.642 E0.06996
G1 X113.253 Y102.629 E0.106
G1 X146.854 Y102.63 E1.44709
G1 X147.553 Y102.64 E1.47499
G1 X147.973 Y102.686 E1.49185
G1 X148.378 Y102.81 E1.50876
G1 X148.751 Y103.008 E1.52561
G1 X149.081 Y103.273 E1.5425
G1 X149.359 Y103.587 E1.55924
G1 X149.611 Y103.999 E1.57852
G1 X149.761 Y104.394 E1.59538
G1 X149.839 Y104.937 E1.61728
G1 X149.863 Y106.059 E1.66207
G1 X149.862 Y114.301 E1.99103
G1 X149.852 Y115.017 E2.01961
G1 X149.806 Y115.438 E2.03651
G1 X149.682 Y115.842 E2.05338
G1 X149.413 Y116.333 E2.07572
G1 X149.085 Y116.719 E2.09594
G1 X148.756 Y116.984 E2.1128
G1 X148.383 Y117.183 E2.12967
G1 X147.979 Y117.308 E2.14655
G1 X147.561 Y117.355 E2.16334
G1 X146.658 Y117.37 E2.19938
G1 X113.203 Y117.371 E3.53465
G1 X112.35 Y117.358 E3.5687
G1 X111.93 Y117.311 E3.58556
G1 X111.525 Y117.187 E3.60247
G1 X111.152 Y116.989 E3.61932
G1 X110.822 Y116.724 E3.63621
G1 X110.548 Y116.402 E3.65309
G1 X110.34 Y116.034 E3.66996
G1 X110.204 Y115.633 E3.68686
G1 X110.145 Y115.181 E3.70505
G1 X110.134 Y114.76 E3.72186
G1 X110.133 Y105.558 E4.08914
G1 X110.144 Y104.847 E4.11752
G1 X110.191 Y104.427 E4.13438
G1 X110.315 Y104.023 E4.15125
G1 X110.514 Y103.65 E4.16812
G1 X110.779 Y103.32 E4.18502
G0 F6000 X110.434 Y102.983
G1 F900 X110.824 Y102.651 E4.20546
G1 X111.271 Y102.399 E4.22594
G1 X111.761 Y102.232 E4.2466
G1 X112.343 Y102.162 E4.27
G1 X113.253 Y102.149 E4.30632
G1 X146.861 Y102.15 E5.64769
G1 X147.56 Y102.16 E5.67559
G1 X148.071 Y102.214 E5.6961
G1 X148.562 Y102.364 E5.71659
G1 X149.017 Y102.606 E5.73716
G1 X149.411 Y102.922 E5.75732
G1 X149.745 Y103.3 E5.77745
G1 X150.045 Y103.79 E5.80038
G1 X150.229 Y104.273 E5.82101
G1 X150.319 Y104.927 E5.84736
G1 X150.343 Y106.059 E5.89255
G1 X150.342 Y114.308 E6.22178
G1 X150.332 Y115.024 E6.25036
G1 X150.278 Y115.536 E6.27091
G1 X150.127 Y116.03 E6.29153
G1 X149.81 Y116.607 E6.31781
G1 X149.422 Y117.064 E6.34173
G1 X149.024 Y117.385 E6.36214
G1 X148.564 Y117.63 E6.38294
G1 X148.079 Y117.78 E6.4032
G1 X147.569 Y117.835 E6.42368
G1 X146.666 Y117.85 E6.45972
G1 X113.196 Y117.851 E7.79558
G1 X112.343 Y117.838 E7.82963
G1 X111.832 Y117.783 E7.85014
G1 X111.341 Y117.633 E7.87064
G1 X110.886 Y117.391 E7.8912
G1 X110.485 Y117.069 E7.91173
G1 X110.153 Y116.679 E7.93217
G1 X109.899 Y116.229 E7.9528
G1 X109.734 Y115.743 E7.97328
G1 X109.665 Y115.194 E7.99537
G1 X109.654 Y114.76 E8.01269
G1 X109.653 Y105.551 E8.38024
G1 X109.664 Y104.84 E8.40863
G1 X109.719 Y104.329 E8.42914
G1 X109.869 Y103.841 E8.44951
G1 X110.113 Y103.382 E8.47026
G1 X110.434 Y102.983 E8.4907
G0 F6000 X110.086 Y102.649
G1 F900 X110.551 Y102.254 E8.51505
G1 X111.073 Y101.96 E8.53896
G1 X111.657 Y101.761 E8.56359
G1 X112.286 Y101.685 E8.58888
G1 X113.253 Y101.669 E8.62748
G1 X146.868 Y101.67 E9.96912
G1 X147.567 Y101.68 E9.99702
G1 X148.168 Y101.742 E10.02114
G1 X148.747 Y101.919 E10.0453
G1 X149.28 Y102.202 E10.06939
G1 X149.747 Y102.577 E10.09329
G1 X150.131 Y103.011 E10.11642
G1 X150.479 Y103.58 E10.14304
G1 X150.697 Y104.153 E10.16751
G1 X150.795 Y104.862 E10.19608
G1 X150.823 Y106.059 E10.24387
G1 X150.822 Y114.315 E10.57338
G1 X150.812 Y115.031 E10.60196
G1 X150.75 Y115.633 E10.62612
G1 X150.571 Y116.219 E10.65057
G1 X150.207 Y116.881 E10.68072
G1 X149.76 Y117.409 E10.70834
G1 X149.288 Y117.789 E10.73252
G1 X148.75 Y118.075 E10.75684
G1 X148.18 Y118.252 E10.78066
G1 X147.577 Y118.315 E10.80486
G1 X146.666 Y118.33 E10.84122
G1 X113.189 Y118.331 E12.17736
G1 X112.336 Y118.318 E12.21141
G1 X111.735 Y118.255 E12.23553
G1 X111.156 Y118.078 E12.2597
G1 X110.62 Y117.793 E12.28392
G1 X110.151 Y117.417 E12.30792
G1 X109.756 Y116.953 E12.33224
G1 X109.458 Y116.424 E12.35647
G1 X109.264 Y115.853 E12.38054
G1 X109.185 Y115.206 E12.40655
G1 X109.174 Y114.76 E12.42436
G1 X109.173 Y105.544 E12.79219
G1 X109.184 Y104.833 E12.82057
G1 X109.247 Y104.23 E12.84477
G1 X109.423 Y103.657 E12.86869
G1 X109.711 Y103.116 E12.89316
G1 X110.086 Y102.649 E12.91706
G1 F1500 E6.41706
;MESH:RetractTower
G0 F6000 X146.422 Y113.93
;TYPE:WALL-INNER
G1 F1500 E12.91706
G1 F900 X146.422 Y106.071 E13.23073
G1 X113.574 Y106.07 E14.54176
G1 X113.573 Y113.931 E14.85551
G1 X146.422 Y113.93 E16.16659
G0 F6000 X146.902 Y114.41
G1 F900 X146.902 Y105.591 E16.51857
G1 X113.094 Y105.59 E17.86792
G1 X113.093 Y114.411 E18.21999
G1 X146.902 Y114.41 E19.56938
G0 F6000 X147.382 Y114.89
;TYPE:WALL-OUTER
G1 F900 X147.382 Y105.111 E19.95968
G1 X112.614 Y105.11 E21.34735
G1 X112.613 Y114.891 E21.73773
G1 X147.382 Y114.89 E23.12543
G1 F1500 E16.62543
G0 F6000 X145.982 Y113.49
;TYPE:SKIN
G1 F1500 E23.12543
G1 F900 X114.014 Y113.49 E24.40135
G1 X114.015 Y106.511 E24.67989
G1 X145.982 Y106.511 E25.95576
G1 X145.982 Y113.49 E26.23431
G1 F1500 E19.73431
G0 F6000 X145.741 Y107.048
G1 F1500 E26.23431
G1 F900 X145.444 Y106.751 E26.25108
G0 F6000 X144.765 Y106.751
G1 F900 X145.741 Y107.727 E26.30617
G0 F6000 X145.741 Y108.405
G1 F900 X144.086 Y106.751 E26.39955
G0 F6000 X143.407 Y106.751
G1 F900 X145.741 Y109.084 E26.53127
G0 F6000 X145.741 Y109.763
G1 F900 X142.728 Y106.751 E26.7013
G0 F6000 X142.049 Y106.751
G1 F900 X145.741 Y110.442 E26.90967
G0 F6000 X145.741 Y111.121
G1 F900 X141.371 Y106.751 E27.15633
G0 F6000 X140.692 Y106.751
G1 F900 X145.741 Y111.799 E27.44129
G0 F6000 X145.741 Y112.478
G1 F900 X140.013 Y106.751 E27.76457
G0 F6000 X139.334 Y106.751
G1 F900 X145.741 Y113.157 E28.12618
G0 F6000 X145.154 Y113.249
G1 F900 X138.655 Y106.751 E28.49299
G0 F6000 X137.977 Y106.751
G1 F900 X144.475 Y113.249 E28.85976
G0 F6000 X143.796 Y113.249
G1 F900 X137.298 Y106.751 E29.22654
G0 F6000 X136.619 Y106.751
G1 F900 X143.117 Y113.249 E29.59331
G0 F6000 X142.438 Y113.249
G1 F900 X135.94 Y106.751 E29.96009
G0 F6000 X135.261 Y106.751
G1 F900 X141.76 Y113.249 E30.32689
G0 F6000 X141.081 Y113.249
G1 F900 X134.582 Y106.751 E30.6937
G0 F6000 X133.904 Y106.751
G1 F900 X140.402 Y113.249 E31.06047
G0 F6000 X139.723 Y113.249
G1 F900 X133.225 Y106.751 E31.42725
G0 F6000 X132.546 Y106.751
G1 F900 X139.044 Y113.249 E31.79402
G0 F6000 X138.365 Y113.249
G1 F900 X131.867 Y106.751 E32.1608
G0 F6000 X131.188 Y106.751
G1 F900 X137.687 Y113.249 E32.5276
G0 F6000 X137.008 Y113.249
G1 F900 X130.509 Y106.751 E32.8944
G0 F6000 X129.831 Y106.751
G1 F900 X136.329 Y113.249 E33.26118
G0 F6000 X135.65 Y113.249
G1 F900 X129.152 Y106.751 E33.62795
G0 F6000 X128.473 Y106.751
G1 F900 X134.971 Y113.249 E33.99473
G0 F6000 X134.293 Y113.249
G1 F900 X127.794 Y106.751 E34.36153
G0 F6000 X127.115 Y106.751
G1 F900 X133.614 Y113.249 E34.72834
G0 F6000 X132.935 Y113.249
G1 F900 X126.437 Y106.751 E35.09511
G0 F6000 X125.758 Y106.751
G1 F900 X132.256 Y113.249 E35.46189
G0 F6000 X131.577 Y113.249
G1 F900 X125.079 Y106.751 E35.82866
G0 F6000 X124.4 Y106.751
G1 F900 X130.898 Y113.249 E36.19544
G0 F6000 X130.22 Y113.249
G1 F900 X123.721 Y106.751 E36.56224
G0 F6000 X123.042 Y106.751
G1 F900 X129.541 Y113.249 E36.92904
G0 F6000 X128.862 Y113.249
G1 F900 X122.364 Y106.751 E37.29582
G0 F6000 X121.685 Y106.751
G1 F900 X128.183 Y113.249 E37.66259
G0 F6000 X127.504 Y113.249
G1 F900 X121.006 Y106.751 E38.02937
G0 F6000 X120.327 Y106.751
G1 F900 X126.825 Y113.249 E38.39614
G0 F6000 X126.147 Y113.249
G1 F900 X119.648 Y106.751 E38.76295
G0 F6000 X118.97 Y106.751
G1 F900 X125.468 Y113.249 E39.12972
G0 F6000 X124.789 Y113.249
G1 F900 X118.291 Y106.751 E39.4965
G0 F6000 X117.612 Y106.751
G1 F900 X124.11 Y113.249 E39.86327
G0 F6000 X123.431 Y113.249
G1 F900 X116.933 Y106.751 E40.23005
G0 F6000 X116.254 Y106.751
G1 F900 X122.753 Y113.249 E40.59685
G0 F6000 X122.074 Y113.249
G1 F900 X115.575 Y106.751 E40.96365
G0 F6000 X114.897 Y106.751
G1 F900 X121.395 Y113.249 E41.33043
G0 F6000 X120.716 Y113.249
G1 F900 X114.253 Y106.786 E41.69523
G0 F6000 X114.253 Y107.465
G1 F900 X120.037 Y113.249 E42.0217
G0 F6000 X119.358 Y113.249
G1 F900 X114.253 Y108.144 E42.30985
G0 F6000 X114.253 Y108.823
G1 F900 X118.68 Y113.249 E42.5597
G0 F6000 X118.001 Y113.249
G1 F900 X114.253 Y109.501 E42.77126
G0 F6000 X114.252 Y110.179
G1 F900 X117.322 Y113.249 E42.94454
G0 F6000 X116.643 Y113.249
G1 F900 X114.252 Y110.858 E43.0795
G0 F6000 X114.252 Y111.537
G1 F900 X115.964 Y113.249 E43.17613
G0 F6000 X115.285 Y113.249
G1 F900 X114.252 Y112.216 E43.23444
G0 F6000 X114.252 Y112.895
M104 S240
G1 F900 X114.607 Y113.249 E43.25445
G1 F1500 E36.75445
;MESH:NONMESH
G0 F300 X114.607 Y113.249 Z0.4
G0 F6000 X146.645 Y114.152
;TIME_ELAPSED:84.517173
;LAYER:1
M106 S51
;TYPE:WALL-INNER
;MESH:RetractTower
G1 F1500 E43.25445
G1 F1950 X146.645 Y105.848 E43.53064
G1 X113.355 Y105.848 E44.63787
G1 X113.355 Y114.152 E44.91406
G1 X146.645 Y114.152 E46.02129
G0 F10500 X147.045 Y114.552
G1 F1950 X147.045 Y105.448 E46.32409
G1 X112.955 Y105.448 E47.45793
G1 X112.955 Y114.552 E47.76073
G1 X147.045 Y114.552 E48.89457
G0 F10500 X147.445 Y114.952
;TYPE:WALL-OUTER
G1 F1950 X147.445 Y105.048 E49.22398
G1 X112.555 Y105.052 E50.38442
G1 X112.555 Y114.948 E50.71357
G1 X147.445 Y114.952 E51.87401
G1 F1500 E45.37401
G0 F10500 X146.285 Y113.792
;TYPE:SKIN
G1 F1500 E51.87401
G1 F1950 X113.715 Y113.792 E52.95729
G1 X113.715 Y106.208 E53.20954
G1 X146.285 Y106.208 E54.29282
G1 X146.285 Y113.792 E54.54507
G0 F10500 X145.492 Y113.591
G1 F1950 X146.084 Y112.999 E54.57291
G0 F10500 X146.084 Y112.434
G1 F1950 X144.926 Y113.591 E54.62736
G0 F10500 X144.36 Y113.591
G1 F1950 X146.084 Y111.868 E54.70843
G0 F10500 X146.084 Y111.302
G1 F1950 X143.795 Y113.591 E54.81609
G0 F10500 X143.229 Y113.591
G1 F1950 X146.084 Y110.737 E54.95036
G0 F10500 X146.084 Y110.171
G1 F1950 X142.663 Y113.591 E55.11125
G0 F10500 X142.098 Y113.591
G1 F1950 X146.084 Y109.605 E55.29874
G0 F10500 X146.084 Y109.04
G1 F1950 X141.532 Y113.591 E55.51283
G0 F10500 X140.966 Y113.591
G1 F1950 X146.084 Y108.474 E55.75354
G0 F10500 X146.084 Y107.908
G1 F1950 X140.401 Y113.591 E56.02085
G0 F10500 X139.835 Y113.591
G1 F1950 X146.084 Y107.343 E56.31476
G0 F10500 X146.084 Y106.777
G1 F1950 X139.269 Y113.591 E56.63529
G0 F10500 X138.703 Y113.591
G1 F1950 X145.888 Y106.407 E56.97323
G0 F10500 X145.322 Y106.407
G1 F1950 X138.138 Y113.591 E57.31114
G0 F10500 X137.572 Y113.591
G1 F1950 X144.756 Y106.407 E57.64906
G0 F10500 X144.191 Y106.407
G1 F1950 X137.006 Y113.591 E57.98699
G0 F10500 X136.441 Y113.591
G1 F1950 X143.625 Y106.407 E58.32491
G0 F10500 X143.059 Y106.407
G1 F1950 X135.875 Y113.591 E58.66282
G0 F10500 X135.309 Y113.591
G1 F1950 X142.494 Y106.407 E59.00076
G0 F10500 X141.928 Y106.407
G1 F1950 X134.744 Y113.591 E59.33867
G0 F10500 X134.178 Y113.591
G1 F1950 X141.362 Y106.407 E59.67658
G0 F10500 X140.796 Y106.407
G1 F1950 X133.612 Y113.591 E60.0145
G0 F10500 X133.047 Y113.591
G1 F1950 X140.231 Y106.407 E60.35241
G0 F10500 X139.665 Y106.407
G1 F1950 X132.481 Y113.591 E60.69032
G0 F10500 X131.915 Y113.591
G1 F1950 X139.099 Y106.407 E61.02824
G0 F10500 X138.534 Y106.407
G1 F1950 X131.35 Y113.591 E61.36615
G0 F10500 X130.784 Y113.591
G1 F1950 X137.968 Y106.407 E61.70406
G0 F10500 X137.402 Y106.407
G1 F1950 X130.218 Y113.591 E62.04198
G0 F10500 X129.652 Y113.591
G1 F1950 X136.837 Y106.407 E62.37991
G0 F10500 X136.271 Y106.407
G1 F1950 X129.087 Y113.591 E62.71783
G0 F10500 X128.521 Y113.591
G1 F1950 X135.705 Y106.407 E63.05574
G0 F10500 X135.14 Y106.407
G1 F1950 X127.955 Y113.591 E63.39368
G0 F10500 X127.39 Y113.591
G1 F1950 X134.574 Y106.407 E63.73159
G0 F10500 X134.008 Y106.407
G1 F1950 X126.824 Y113.591 E64.0695
G0 F10500 X126.258 Y113.591
G1 F1950 X133.443 Y106.407 E64.40744
G0 F10500 X132.877 Y106.407
G1 F1950 X125.693 Y113.591 E64.74535
G0 F10500 X125.127 Y113.591
G1 F1950 X132.311 Y106.407 E65.08327
G0 F10500 X131.746 Y106.407
G1 F1950 X124.561 Y113.591 E65.4212
G0 F10500 X123.996 Y113.591
G1 F1950 X131.18 Y106.407 E65.75912
G0 F10500 X130.614 Y106.407
G1 F1950 X123.43 Y113.591 E66.09703
G0 F10500 X122.864 Y113.591
G1 F1950 X130.048 Y106.407 E66.43494
G0 F10500 X129.483 Y106.407
G1 F1950 X122.299 Y113.591 E66.77286
G0 F10500 X121.733 Y113.591
G1 F1950 X128.917 Y106.407 E67.11077
G0 F10500 X128.351 Y106.407
G1 F1950 X121.167 Y113.591 E67.44868
G0 F10500 X120.602 Y113.591
G1 F1950 X127.786 Y106.407 E67.7866
G0 F10500 X127.22 Y106.407
G1 F1950 X120.036 Y113.591 E68.12451
G0 F10500 X119.47 Y113.591
G1 F1950 X126.654 Y106.407 E68.46242
G0 F10500 X126.089 Y106.407
G1 F1950 X118.904 Y113.591 E68.80036
G0 F10500 X118.339 Y113.591
G1 F1950 X125.523 Y106.407 E69.13827
G0 F10500 X124.957 Y106.407
G1 F1950 X117.773 Y113.591 E69.47619
G0 F10500 X117.207 Y113.591
G1 F1950 X124.392 Y106.407 E69.81413
G0 F10500 X123.826 Y106.407
G1 F1950 X116.642 Y113.591 E70.15204
G0 F10500 X116.076 Y113.591
G1 F1950 X123.26 Y106.407 E70.48995
G0 F10500 X122.695 Y106.407
G1 F1950 X115.51 Y113.591 E70.82789
G0 F10500 X114.945 Y113.591
G1 F1950 X122.129 Y106.407 E71.1658
G0 F10500 X121.563 Y106.407
G1 F1950 X114.379 Y113.591 E71.50372
G0 F10500 X113.914 Y113.491
G1 F1950 X120.997 Y106.407 E71.8369
G0 F10500 X120.432 Y106.407
G1 F1950 X113.914 Y112.925 E72.14349
G0 F10500 X113.914 Y112.359
G1 F1950 X119.866 Y106.407 E72.42345
G0 F10500 X119.3 Y106.407
G1 F1950 X113.914 Y111.794 E72.67682
G0 F10500 X113.914 Y111.228
G1 F1950 X118.735 Y106.407 E72.90358
G0 F10500 X118.169 Y106.407
G1 F1950 X113.914 Y110.662 E73.10372
G0 F10500 X113.914 Y110.097
G1 F1950 X117.603 Y106.407 E73.27727
G0 F10500 X117.038 Y106.407
G1 F1950 X113.914 Y109.531 E73.42421
G0 F10500 X113.914 Y108.965
G1 F1950 X116.472 Y106.407 E73.54453
G0 F10500 X115.906 Y106.407
G1 F1950 X113.914 Y108.4 E73.63825
G0 F10500 X113.914 Y107.834
G1 F1950 X115.341 Y106.407 E73.70537
G0 F10500 X114.775 Y106.407
G1 F1950 X113.914 Y107.268 E73.74587
G0 F10500 X113.914 Y106.703
G1 F1950 X114.209 Y106.407 E73.75977
G1 F1500 E67.25977
;MESH:NONMESH
G0 F300 X114.209 Y106.407 Z0.6
G0 F10500 X146.645 Y114.152
;TIME_ELAPSED:121.779174
;LAYER:2
;TYPE:WALL-INNER
;MESH:RetractTower
G1 F1500 E73.75977
G1 F3000 X146.645 Y105.848 E74.03596
G1 X113.355 Y105.848 E75.14319
G1 X113.355 Y114.152 E75.41939
G1 X146.645 Y114.152 E76.52662
G0 F15000 X147.045 Y114.552
G1 F3000 X147.045 Y105.448 E76.82942
G1 X112.955 Y105.448 E77.96325
G1 X112.955 Y114.552 E78.26605
G1 X147.045 Y114.552 E79.39989
G0 F15000 X147.445 Y114.952
;TYPE:WALL-OUTER
G1 F3000 X147.445 Y105.048 E79.7293
G1 X112.555 Y105.052 E80.88975
G1 X112.555 Y114.948 E81.21889
G1 X147.445 Y114.952 E82.37933
G1 F1500 E75.87933
G0 F15000 X114.273 Y113.74
;TYPE:SKIN
G1 F1500 E82.37933
G1 F2376.2 X113.767 Y113.74 E82.40058
G1 X113.767 Y106.26 E82.71467
G1 X114.273 Y106.26 E82.73592
G1 X114.273 Y113.74 E83.05001
G1 F1500 E76.55001
G0 F15000 X120.725 Y112.24
G1 F1500 E83.05001
G1 F3000 X116.245 Y112.24 E83.19902
G1 X116.245 Y107.76 E83.34802
G1 X120.725 Y107.76 E83.49703
G1 X120.725 Y112.24 E83.64604
G1 F1500 E77.14604
G0 F15000 X145.836 Y107.536
G1 F1500 E83.64604
G1 F3000 X145.251 Y106.894 E83.67492
G1 X144.549 Y106.389 E83.70369
G1 X144.142 Y106.209 E83.71849
G1 X146.285 Y106.208 E83.78976
G1 X146.281 Y108.293 E83.85911
G1 X145.836 Y107.536 E83.88832
G1 F1500 E77.38832
G0 F15000 X140.417 Y113.611
G1 F1500 E83.88832
G1 F3000 X140.825 Y113.791 E83.90315
G1 X122.645 Y113.792 E84.50782
G1 X122.645 Y106.208 E84.76006
G1 X140.829 Y106.208 E85.36487
G1 X140.417 Y106.389 E85.37983
G1 X139.72 Y106.893 E85.40844
G1 X139.109 Y107.571 E85.4388
G1 X138.691 Y108.292 E85.46652
G1 X138.421 Y109.114 E85.49529
G1 X138.326 Y109.979 E85.52424
G1 X138.421 Y110.886 E85.55457
G1 X138.691 Y111.708 E85.58335
G1 X139.109 Y112.429 E85.61107
G1 X139.689 Y113.079 E85.64004
G1 X140.417 Y113.611 E85.67003
G1 F1500 E79.17003
