; HEADER_BLOCK_START
; generated by OrcaSlicer 1.6.3 on 2023-07-26 at 10:37:19
; total layer number: 350
; HEADER_BLOCK_END

; THUMBNAIL_BLOCK_START
; THUMBNAIL_BLOCK_END

; external perimeters extrusion width = 0.45mm
; perimeters extrusion width = 0.45mm
; infill extrusion width = 0.45mm
; solid infill extrusion width = 0.45mm
; top infill extrusion width = 0.40mm
; first layer extrusion width = 0.42mm

; EXECUTABLE_BLOCK_START
EXCLUDE_OBJECT_DEFINE NAME=temperature_tower.stl_id_0_copy_0 CENTER=130,110 POLYGON=[[107.756,105],[147.785,105],[147.895,105.002],[147.995,105.006],[148.081,105.011],[148.145,105.016],[148.154,105.016],[148.21,105.021],[148.251,105.025],[148.276,105.028],[148.298,105.03],[148.314,105.032],[148.336,105.035],[148.364,105.038],[148.396,105.042],[148.432,105.047],[148.473,105.053],[148.503,105.057],[148.535,105.062],[148.627,105.078],[148.792,105.11],[148.857,105.124],[149.04,105.17],[149.133,105.195],[149.309,105.25],[149.361,105.267],[149.444,105.296],[149.511,105.321],[149.55,105.336],[149.663,105.381],[149.684,105.389],[149.752,105.418],[149.762,105.423],[149.785,105.433],[149.943,105.507],[149.987,105.529],[150.167,105.624],[150.246,105.668],[150.375,105.745],[150.517,105.836],[150.746,105.998],[151.063,106.257],[151.334,106.516],[151.508,106.704],[151.566,106.772],[151.76,107.017],[151.877,107.18],[151.916,107.238],[152.009,107.383],[152.036,107.427],[152.11,107.555],[152.125,107.582],[152.151,107.63],[152.185,107.694],[152.19,107.704],[152.212,107.746],[152.23,107.783],[152.24,107.803],[152.244,107.811],[152.243,112.19],[152.235,112.208],[152.22,112.237],[152.197,112.282],[152.166,112.342],[152.165,112.344],[152.124,112.42],[152.074,112.508],[152.021,112.597],[151.943,112.72],[151.895,112.794],[151.777,112.962],[151.744,113.006],[151.575,113.218],[151.353,113.465],[151.334,113.484],[151.055,113.75],[150.877,113.9],[150.738,114.008],[150.382,114.25],[150.369,114.258],[150.162,114.379],[150.135,114.394],[149.939,114.495],[149.891,114.518],[149.785,114.567],[149.762,114.577],[149.752,114.582],[149.684,114.611],[149.663,114.619],[149.55,114.664],[149.519,114.676],[149.458,114.699],[149.444,114.704],[149.361,114.733],[149.32,114.746],[149.273,114.762],[149.112,114.811],[149.04,114.83],[148.857,114.876],[148.792,114.89],[148.627,114.922],[148.535,114.938],[148.503,114.943],[148.473,114.947],[148.432,114.953],[148.396,114.958],[148.364,114.962],[148.336,114.965],[148.314,114.968],[148.298,114.97],[148.276,114.972],[148.251,114.975],[148.21,114.979],[148.154,114.984],[148.145,114.984],[148.081,114.989],[147.995,114.994],[147.895,114.998],[147.785,115],[107.756,115],[107.756,105]]
M73 P0 R106
;TYPE:Custom
START_PRINT EXTRUDER_TEMP=230 BED_TEMP=55 RELATIVE_E_MODE=1 PRESSURE_ADVANCE=0.06
G90
G21
M83 ; use relative distances for extrusion
; filament start gcode
SET_PRESSURE_ADVANCE ADVANCE=0.06; Override pressure advance value
M106 S0
;LAYER_CHANGE
;Z:0.2
;HEIGHT:0.2
M104 S230 ; set nozzle temperature
G1 E-1 F1800
G1 X111.564 Y101.056 F12000
G1 Z.4
G1 Z.2
G1 E1 F1800
;TYPE:Skirt
;WIDTH:0.42
G1 F900
G1 X112.748 Y99.768 E.05487
G1 X113.973 Y98.922 E.04666
G1 X115.597 Y98.271 E.05487
G1 X117.356 Y98.023 E.05571
G1 X147.911 Y98.023 E.95802
G1 X149.595 Y98.168 E.05297
G1 X150.655 Y98.421 E.03417
G1 X151.682 Y98.83 E.03466
G1 X152.944 Y99.619 E.04666
G1 X154.185 Y100.852 E.05487
G1 X154.79 Y101.747 E.03388
G1 X155.394 Y103.108 E.04666
G1 X155.658 Y104.22 E.03584
G1 X155.756 Y105.361 E.03591
G1 X155.756 Y114.639 E.29093
G1 X155.638 Y115.919 E.04029
G1 X155.125 Y117.592 E.05487
G1 X154.385 Y118.883 E.04666
G1 X153.201 Y120.171 E.05487
G1 X151.976 Y121.017 E.04666
G1 X150.908 Y121.49 E.03664
G1 X149.973 Y121.754 E.03045
G1 X148.805 Y121.93 E.03702
G1 X147.898 Y121.977 E.02848
G1 X117.267 Y121.972 E.96041
G1 X116.192 Y121.861 E.03388
G1 X115.146 Y121.592 E.03388
G1 X113.567 Y120.838 E.05487
G1 X112.701 Y120.191 E.03388
G1 X111.94 Y119.424 E.03388
G1 X111.094 Y118.199 E.04666
G1 X110.443 Y116.575 E.05487
G1 X110.211 Y115.195 E.04389
G1 X110.193 Y105.3 E.31024
G1 X110.25 Y104.425 E.02749
G1 X110.46 Y103.365 E.03388
G1 X110.824 Y102.347 E.03388
G1 X111.534 Y101.108 E.04478
G1 X111.843 Y101.34 F12000
G1 F900
G1 X112.276 Y100.763 E.02263
G1 X113.006 Y100.043 E.03213
G1 X114.139 Y99.261 E.04316
G1 X115.711 Y98.631 E.05311
G1 X117.372 Y98.4 E.05259
G1 X147.911 Y98.4 E.95753
G1 X149.544 Y98.541 E.05139
G1 X150.56 Y98.786 E.03278
G1 X151.531 Y99.176 E.0328
G1 X152.699 Y99.906 E.04316
G1 X153.901 Y101.099 E.05311
G1 X154.472 Y101.95 E.03213
G1 X155.03 Y103.208 E.04316
G1 X155.283 Y104.256 E.03382
G1 X155.379 Y105.361 E.03476
G1 X155.379 Y114.639 E.29093
G1 X155.27 Y115.836 E.03766
G1 X154.774 Y117.455 E.05311
G1 X154.089 Y118.649 E.04316
G1 X152.943 Y119.896 E.05311
G1 X151.81 Y120.678 E.04316
G1 X150.805 Y121.127 E.0345
G1 X149.87 Y121.391 E.03045
G1 X147.882 Y121.6 E.06268
G1 X117.295 Y121.596 E.95904
G1 X116.276 Y121.493 E.03213
G1 X115.283 Y121.241 E.03213
G1 X113.754 Y120.51 E.05311
G1 X112.935 Y119.896 E.03213
G1 X112.215 Y119.166 E.03213
G1 X111.433 Y118.033 E.04316
G1 X110.803 Y116.461 E.05311
G1 X110.588 Y115.179 E.04077
G1 X110.57 Y105.3 E.30975
G1 X110.626 Y104.453 E.02661
G1 X110.931 Y103.111 E.04316
G1 X111.662 Y101.582 E.05311
G1 X111.807 Y101.388 E.00761
; printing object temperature_tower.stl id:0 copy 0
EXCLUDE_OBJECT_START NAME=temperature_tower.stl_id_0_copy_0
G1 E-.7 F1800
;WIPE_START
G1 F900
G1 X112.276 Y100.763 E-.11142
G1 X113.006 Y100.043 E-.14602
G1 X113.165 Y99.933 E-.02756
;WIPE_END
G1 E-.015 F1800
G17
G3 Z.6 I-1.182 J.288 P1  F12000
G1 X113.881 Y102.87 Z.6
G1 Z.2
G1 E1 F1800
;TYPE:Brim
G1 F900
G1 X114.28 Y102.365 E.0202
G1 X114.75 Y101.925 E.0202
G1 X115.28 Y101.559 E.0202
G1 X115.859 Y101.275 E.0202
G1 X116.473 Y101.081 E.0202
G1 X117.112 Y100.979 E.02029
G1 X117.476 Y100.963 E.01143
G1 X147.906 Y100.965 E.9541
G1 X148.643 Y101.009 E.02316
G1 X149.19 Y101.082 E.0173
G1 X149.906 Y101.267 E.02319
G1 X150.496 Y101.523 E.02017
G1 X151.042 Y101.865 E.0202
G1 X151.532 Y102.283 E.0202
G1 X151.954 Y102.77 E.0202
G1 X152.299 Y103.314 E.0202
G1 X152.56 Y103.902 E.0202
G1 X152.731 Y104.521 E.02013
G1 X152.813 Y105.37 E.02673
G1 X152.813 Y114.632 E.29042
G1 X152.765 Y115.282 E.02042
G1 X152.622 Y115.91 E.0202
G1 X152.388 Y116.51 E.0202
G1 X152.068 Y117.069 E.0202
G1 X151.669 Y117.574 E.0202
G1 X151.199 Y118.015 E.0202
G1 X150.669 Y118.381 E.0202
G1 X150.093 Y118.663 E.0201
G1 X149.188 Y118.918 E.02947
G1 X148.451 Y119.009 E.02328
G1 X147.78 Y119.037 E.02107
G1 X117.479 Y119.037 E.95007
G1 X116.83 Y118.988 E.02042
G1 X116.201 Y118.846 E.0202
G1 X115.601 Y118.612 E.0202
G1 X115.042 Y118.291 E.0202
G1 X114.537 Y117.892 E.0202
G1 X114.097 Y117.422 E.0202
G1 X113.731 Y116.892 E.0202
G1 X113.447 Y116.313 E.0202
G1 X113.253 Y115.699 E.0202
G1 X113.151 Y115.06 E.02029
G1 X113.135 Y114.696 E.01143
G1 X113.135 Y105.307 E.29439
G1 X113.184 Y104.658 E.02042
G1 X113.326 Y104.029 E.0202
G1 X113.56 Y103.429 E.0202
G1 X113.851 Y102.922 E.01831
G1 X114.178 Y103.11 F12000
G1 F900
G1 X114.19 Y103.09 E.00074
G1 X114.553 Y102.628 E.01843
G1 X114.994 Y102.214 E.01896
G1 X115.464 Y101.89 E.01791
G1 X115.992 Y101.63 E.01843
G1 X116.568 Y101.447 E.01896
G1 X117.143 Y101.356 E.01825
G1 X117.486 Y101.341 E.01077
G1 X147.891 Y101.342 E.95333
G1 X148.602 Y101.384 E.02233
G1 X149.11 Y101.452 E.01608
G1 X149.774 Y101.623 E.02149
G1 X150.312 Y101.855 E.01837
G1 X150.811 Y102.165 E.01843
G1 X151.271 Y102.558 E.01896
G1 X151.655 Y103.003 E.01843
G1 X151.969 Y103.5 E.01843
G1 X152.201 Y104.022 E.01791
G1 X152.36 Y104.6 E.01879
G1 X152.436 Y105.394 E.02501
G1 X152.436 Y114.614 E.2891
G1 X152.389 Y115.234 E.01949
G1 X152.263 Y115.791 E.01791
G1 X152.05 Y116.339 E.01843
G1 X151.75 Y116.864 E.01896
G1 X151.384 Y117.324 E.01843
G1 X150.967 Y117.714 E.01791
G1 X150.484 Y118.049 E.01843
G1 X149.967 Y118.304 E.01809
G1 X149.105 Y118.548 E.02808
G1 X148.425 Y118.632 E.02148
G1 X147.77 Y118.659 E.02056
G1 X117.489 Y118.659 E.94945
G1 X116.894 Y118.615 E.0187
G1 X116.32 Y118.486 E.01843
G1 X115.772 Y118.274 E.01843
G1 X115.262 Y117.982 E.01843
G1 X114.8 Y117.619 E.01843
G1 X114.397 Y117.191 E.01843
G1 X114.062 Y116.708 E.01843
G1 X113.802 Y116.18 E.01843
G1 X113.619 Y115.604 E.01896
G1 X113.528 Y115.029 E.01825
G1 X113.513 Y114.691 E.01062
G1 X113.513 Y105.325 E.29365
G1 X113.56 Y104.705 E.01949
G1 X113.691 Y104.132 E.01843
G1 X113.906 Y103.585 E.01843
G1 X114.148 Y103.162 E.01529
G1 X114.476 Y103.351 F12000
G1 F900
G1 X114.508 Y103.295 E.00204
G1 X114.838 Y102.878 E.01668
G1 X115.226 Y102.514 E.01665
G1 X115.649 Y102.221 E.01616
G1 X116.125 Y101.985 E.01666
G1 X116.664 Y101.814 E.01771
G1 X117.175 Y101.732 E.01623
G1 X117.497 Y101.718 E.01011
G1 X147.877 Y101.719 E.95254
G1 X148.562 Y101.759 E.02151
G1 X149.032 Y101.822 E.01486
G1 X149.643 Y101.978 E.0198
G1 X150.129 Y102.186 E.01657
G1 X150.581 Y102.466 E.01665
G1 X150.998 Y102.821 E.01717
G1 X151.356 Y103.235 E.01718
G1 X151.631 Y103.671 E.01616
G1 X151.841 Y104.141 E.01615
G1 X151.988 Y104.678 E.01745
G1 X152.059 Y105.417 E.02329
G1 X152.059 Y114.596 E.28777
G1 X152.013 Y115.186 E.01856
G1 X151.898 Y115.688 E.01616
G1 X151.712 Y116.168 E.01614
G1 X151.431 Y116.658 E.0177
G1 X151.111 Y117.061 E.01614
G1 X150.736 Y117.415 E.01617
G1 X150.299 Y117.719 E.01668
G1 X149.84 Y117.946 E.01606
G1 X149.022 Y118.178 E.02668
G1 X148.389 Y118.256 E.01998
G1 X147.76 Y118.282 E.01976
G1 X117.499 Y118.282 E.94882
G1 X116.958 Y118.241 E.017
G1 X116.439 Y118.126 E.01668
G1 X115.942 Y117.935 E.01667
G1 X115.48 Y117.673 E.01667
G1 X115.062 Y117.345 E.01667
G1 X114.696 Y116.959 E.01667
G1 X114.392 Y116.523 E.01667
G1 X114.157 Y116.047 E.01665
G1 X113.986 Y115.508 E.01771
G1 X113.904 Y114.997 E.01623
G1 X113.89 Y114.68 E.00996
G1 X113.89 Y105.344 E.29273
G1 X113.933 Y104.77 E.01802
G1 X114.055 Y104.236 E.01719
G1 X114.251 Y103.741 E.01668
G1 X114.446 Y103.403 E.01225
G1 X114.773 Y103.592 F12000
G1 F900
G1 X114.826 Y103.5 E.00334
G1 X115.111 Y103.14 E.0144
G1 X115.457 Y102.814 E.01491
G1 X115.834 Y102.551 E.01442
G1 X116.259 Y102.339 E.01487
G1 X116.759 Y102.181 E.01645
G1 X117.207 Y102.109 E.01422
G1 X117.508 Y102.095 E.00945
G1 X147.863 Y102.096 E.95174
G1 X148.522 Y102.135 E.0207
G1 X148.953 Y102.192 E.01365
G1 X149.513 Y102.334 E.01812
G1 X149.947 Y102.519 E.01477
G1 X150.351 Y102.767 E.01487
G1 X150.737 Y103.096 E.0159
G1 X151.057 Y103.468 E.01539
G1 X151.294 Y103.843 E.0139
G1 X151.482 Y104.261 E.01437
G1 X151.617 Y104.756 E.0161
G1 X151.682 Y105.441 E.02157
G1 X151.682 Y114.577 E.28644
G1 X151.64 Y115.12 E.0171
G1 X151.539 Y115.569 E.01444
G1 X151.374 Y115.998 E.01438
G1 X151.113 Y116.453 E.01644
G1 X150.827 Y116.811 E.01438
G1 X150.491 Y117.126 E.01445
G1 X150.114 Y117.389 E.0144
G1 X149.714 Y117.588 E.01402
G1 X148.938 Y117.809 E.02527
G1 X148.354 Y117.88 E.01846
G1 X147.749 Y117.905 E.01896
G1 X117.508 Y117.904 E.94819
M73 P0 R105
G1 X117.021 Y117.868 E.01532
G1 X116.556 Y117.766 E.01493
G1 X116.112 Y117.596 E.0149
G1 X115.698 Y117.363 E.0149
G1 X115.323 Y117.071 E.0149
G1 X114.995 Y116.726 E.0149
G1 X114.723 Y116.337 E.0149
G1 X114.511 Y115.913 E.01485
G1 X114.353 Y115.413 E.01645
G1 X114.281 Y114.965 E.01422
G1 X114.267 Y114.669 E.00931
G1 X114.267 Y105.362 E.29179
G1 X114.306 Y104.836 E.01656
G1 X114.42 Y104.34 E.01594
G1 X114.595 Y103.898 E.0149
G1 X114.743 Y103.644 E.00921
G1 X115.069 Y103.835 F12000
G1 F900
G1 X115.144 Y103.707 E.00465
G1 X115.396 Y103.39 E.01269
G1 X115.703 Y103.103 E.01318
G1 X116.035 Y102.872 E.01268
G1 X116.409 Y102.687 E.01309
G1 X116.855 Y102.547 E.01463
G1 X117.24 Y102.486 E.01222
G1 X117.52 Y102.472 E.0088
G1 X147.848 Y102.474 E.95093
G1 X148.481 Y102.51 E.01989
G1 X148.875 Y102.562 E.01245
G1 X149.384 Y102.69 E.01645
G1 X149.765 Y102.851 E.01298
G1 X150.121 Y103.068 E.01306
G1 X150.463 Y103.358 E.01406
G1 X150.757 Y103.7 E.01413
G1 X150.964 Y104.029 E.01219
G1 X151.122 Y104.38 E.01208
G1 X151.246 Y104.834 E.01474
G1 X151.305 Y105.464 E.01985
G1 X151.305 Y114.558 E.28512
G1 X151.267 Y115.056 E.01566
G1 X151.179 Y115.452 E.01272
G1 X151.035 Y115.827 E.0126
G1 X150.795 Y116.247 E.01517
G1 X150.543 Y116.56 E.0126
G1 X150.259 Y116.827 E.01223
G1 X149.927 Y117.059 E.01268
G1 X149.586 Y117.231 E.01198
G1 X148.855 Y117.439 E.02385
G1 X148.318 Y117.504 E.01693
G1 X147.739 Y117.528 E.01817
G1 X117.518 Y117.527 E.94756
G1 X117.084 Y117.495 E.01366
G1 X116.673 Y117.405 E.0132
G1 X116.281 Y117.257 E.01314
G1 X115.915 Y117.052 E.01314
G1 X115.584 Y116.796 E.01314
G1 X115.294 Y116.493 E.01314
G1 X115.052 Y116.15 E.01314
G1 X114.859 Y115.763 E.01359
G1 X114.719 Y115.317 E.01463
G1 X114.658 Y114.932 E.01223
G1 X114.644 Y114.657 E.00865
G1 X114.644 Y105.38 E.29085
G1 X114.679 Y104.901 E.01509
G1 X114.784 Y104.444 E.01467
G1 X114.94 Y104.056 E.01311
G1 X115.039 Y103.887 E.00616
G1 X115.364 Y104.078 F12000
G1 F900
G1 X115.461 Y103.914 E.00597
G1 X115.68 Y103.641 E.01097
G1 X115.947 Y103.392 E.01144
G1 X116.234 Y103.194 E.01094
G1 X116.559 Y103.035 E.01132
G1 X116.949 Y102.914 E.01283
G1 X117.273 Y102.862 E.01026
G1 X117.532 Y102.849 E.00814
G1 X147.834 Y102.851 E.95011
G1 X148.442 Y102.886 E.01908
G1 X148.798 Y102.932 E.01126
G1 X149.256 Y103.047 E.0148
G1 X149.585 Y103.184 E.0112
G1 X149.892 Y103.371 E.01126
G1 X150.203 Y103.634 E.01276
G1 X150.458 Y103.931 E.01229
G1 X150.627 Y104.201 E.00997
G1 X150.762 Y104.5 E.0103
G1 X150.874 Y104.911 E.01337
G1 X150.928 Y105.487 E.01814
G1 X150.928 Y114.539 E.28381
G1 X150.894 Y114.992 E.01424
G1 X150.818 Y115.335 E.01101
G1 X150.697 Y115.657 E.01079
G1 X150.477 Y116.04 E.01386
G1 X150.271 Y116.297 E.01031
G1 X150.026 Y116.528 E.01055
G1 X149.74 Y116.73 E.01098
G1 X149.458 Y116.873 E.00992
G1 X148.771 Y117.069 E.02241
G1 X148.283 Y117.128 E.0154
G1 X147.729 Y117.151 E.01739
G1 X117.536 Y117.15 E.94667
G1 X117.146 Y117.121 E.01228
G1 X116.788 Y117.045 E.01148
G1 X116.448 Y116.917 E.01138
G1 X116.131 Y116.741 E.01138
G1 X115.843 Y116.52 E.01138
G1 X115.581 Y116.246 E.0119
G1 X115.373 Y115.949 E.01136
G1 X115.207 Y115.613 E.01176
G1 X115.086 Y115.223 E.01281
G1 X115.034 Y114.899 E.01027
G1 X115.021 Y114.644 E.00799
G1 X115.021 Y105.399 E.2899
G1 X115.053 Y104.965 E.01362
G1 X115.148 Y104.549 E.01339
G1 X115.283 Y104.215 E.0113
G1 X115.334 Y104.13 E.00311
G1 X115.673 Y104.32 F12000
G1 F900
G1 X115.772 Y104.143 E.00636
G1 X115.975 Y103.892 E.01011
G1 X116.328 Y103.597 E.01442
G1 X116.705 Y103.397 E.01338
G1 X117.085 Y103.281 E.01247
G1 X117.517 Y103.226 E.01365
G1 X147.769 Y103.226 E.94853
G1 X148.449 Y103.269 E.02137
G1 X149.154 Y103.42 E.02261
G1 X149.39 Y103.521 E.00803
G1 X149.596 Y103.637 E.00743
G1 X150.11 Y104.107 E.02184
G1 X150.241 Y104.302 E.00735
G1 X150.37 Y104.559 E.00901
G1 X150.541 Y105.318 E.02442
G1 X150.551 Y114.59 E.29071
G1 X150.448 Y115.211 E.01973
G1 X150.4 Y115.369 E.00516
G1 X150.277 Y115.634 E.00916
G1 X150.07 Y115.941 E.01163
G1 X149.768 Y116.24 E.01332
G1 X149.519 Y116.412 E.00948
G1 X149.425 Y116.458 E.00328
G1 X148.685 Y116.703 E.02445
G1 X148.275 Y116.751 E.01295
G1 X147.841 Y116.772 E.01361
G1 X117.524 Y116.774 E.95059
M73 P1 R105
G1 X116.692 Y116.604 E.02661
G1 X116.494 Y116.51 E.00688
G1 X116.285 Y116.382 E.00768
G1 X115.817 Y115.919 E.02064
G1 X115.706 Y115.739 E.00663
G1 X115.568 Y115.455 E.0099
G1 X115.417 Y114.835 E.02002
G1 X115.398 Y105.358 E.29713
G1 X115.565 Y104.551 E.02584
G1 X115.604 Y104.444 E.00357
G1 X115.644 Y104.372 E.00259
G1 X115.976 Y104.547 F12000
G1 F900
G1 X116.06 Y104.387 E.00568
G1 X116.275 Y104.12 E.01076
G1 X116.569 Y103.887 E.01173
G1 X116.882 Y103.73 E.01099
G1 X117.128 Y103.656 E.00807
G1 X117.51 Y103.603 E.01208
G1 X147.772 Y103.603 E.94887
G1 X148.368 Y103.638 E.01871
G1 X149.002 Y103.765 E.02026
G1 X149.2 Y103.847 E.00673
G1 X149.422 Y103.972 E.00799
G1 X149.794 Y104.313 E.01582
G1 X149.933 Y104.518 E.00778
G1 X150.035 Y104.732 E.00744
G1 X150.174 Y105.405 E.02152
G1 X150.174 Y114.599 E.28829
G1 X150.076 Y115.151 E.01756
G1 X150.041 Y115.255 E.00344
G1 X149.934 Y115.477 E.00774
G1 X149.756 Y115.734 E.0098
G1 X149.504 Y115.971 E.01084
G1 X149.308 Y116.1 E.00738
