;FLAVOR:Marlin
;TIME:1268
;Filament used: 1.27043m
;Layer height: 0.32
;MINX:116.75
;MINY:96.75
;MINZ:0.32
;MAXX:143.25
;MAXY:123.25
;MAXZ:19.84
;POSTPROCESSED
;Generated with Cura_SteamEngine 5.4.0
;
;

M82 ;absolute extrusion mode


; Pre-Processed for Cancel-Object support by preprocess_cancellation v0.2.0
; 1 known objects
EXCLUDE_OBJECT_DEFINE NAME=CalibrationCube CENTER=131.619,108.300 POLYGON=[[117.75,97.75],[117.75,122.25],[142.25,122.25],[142.25,97.75]]
START_PRINT EXTRUDER_TEMP=205 BED_TEMP=55 RELATIVE_E_MODE=False PROBE=alse PROBE_AREA_START=%MINX%,%MINY% PROBE_AREA_END=%MAXX%,%MAXY%
G92 E0
G92 E0
G1 F1800 E-0.5
;LAYER_COUNT:62
;LAYER:0
M107
G0 F6000 X117.673 Y97.746 Z0.32
;TYPE:SKIRT
G1 F1800 E0
G1 F900 X118.132 Y97.35 E0.04033
G1 X118.668 Y97.043 E0.08141
G1 X119.254 Y96.842 E0.12262
G1 X119.92 Y96.76 E0.16726
G1 X120.304 Y96.75 E0.19281
G1 X139.339 Y96.75 E1.45903
G1 X140.037 Y96.76 E1.50546
G1 X140.644 Y96.822 E1.54605
G1 X141.236 Y97.002 E1.58721
G1 X141.773 Y97.286 E1.62762
G1 X142.255 Y97.674 E1.66878
G1 X142.651 Y98.135 E1.70921
G1 X142.958 Y98.671 E1.7503
G1 X143.159 Y99.257 E1.79151
G1 X143.24 Y99.921 E1.836
G1 X143.25 Y100.304 E1.86149
G1 X143.25 Y119.304 E3.12538
G1 X143.241 Y120.031 E3.17374
G1 X143.18 Y120.639 E3.21439
G1 X142.998 Y121.236 E3.2559
G1 X142.719 Y121.767 E3.2958
G1 X142.337 Y122.246 E3.33656
G1 X141.87 Y122.647 E3.37751
G1 X141.337 Y122.954 E3.41842
G1 X140.747 Y123.158 E3.45995
G1 X140.08 Y123.24 E3.50465
G1 X139.696 Y123.25 E3.5302
G1 X120.664 Y123.25 E4.79622
G1 X119.918 Y123.238 E4.84585
G1 X119.359 Y123.179 E4.88324
G1 X118.771 Y123.001 E4.92411
G1 X118.234 Y122.718 E4.96448
G1 X117.747 Y122.328 E5.00599
G1 X117.349 Y121.865 E5.0466
G1 X117.046 Y121.338 E5.08704
G1 X116.842 Y120.749 E5.1285
G1 X116.76 Y120.078 E5.17347
G1 X116.75 Y119.684 E5.19969
G1 X116.75 Y100.63 E6.46716
G1 X116.759 Y99.965 E6.5114
G1 X116.821 Y99.358 E6.55199
G1 X117.002 Y98.767 E6.59311
G1 X117.283 Y98.233 E6.63325
G1 X117.673 Y97.746 E6.67475
G0 F6000 X118.032 Y98.096
G1 F900 X118.422 Y97.76 E6.70899
G1 X118.875 Y97.501 E6.74371
G1 X119.367 Y97.332 E6.77831
G1 X119.933 Y97.26 E6.81626
G1 X120.317 Y97.25 E6.84182
G1 X139.332 Y97.25 E8.1067
G1 X140.03 Y97.26 E8.15314
G1 X140.544 Y97.314 E8.18752
G1 X141.043 Y97.466 E8.22221
G1 X141.497 Y97.706 E8.25638
G1 X141.906 Y98.035 E8.29129
G1 X142.241 Y98.425 E8.32549
G1 X142.5 Y98.878 E8.3602
G1 X142.669 Y99.37 E8.39481
G1 X142.74 Y99.934 E8.43262
G1 X142.75 Y100.317 E8.45811
G1 X142.75 Y119.298 E9.72073
G1 X142.741 Y120.025 E9.76909
G1 X142.688 Y120.539 E9.80346
G1 X142.535 Y121.041 E9.83837
G1 X142.297 Y121.494 E9.87241
G1 X141.974 Y121.899 E9.90687
G1 X141.578 Y122.239 E9.94159
G1 X141.133 Y122.495 E9.97574
G1 X140.632 Y122.668 E10.011
G1 X140.067 Y122.74 E10.04889
G1 X139.683 Y122.75 E10.07444
G1 X120.672 Y122.75 E11.33906
G1 X119.926 Y122.738 E11.38869
G1 X119.456 Y122.687 E11.42014
G1 X118.962 Y122.537 E11.45448
G1 X118.508 Y122.298 E11.48861
G1 X118.097 Y121.969 E11.52363
G1 X117.76 Y121.577 E11.55802
G1 X117.503 Y121.129 E11.59237
G1 X117.332 Y120.634 E11.62721
G1 X117.26 Y120.065 E11.66536
G1 X117.25 Y119.671 E11.69158
G1 X117.25 Y100.637 E12.95773
G1 X117.259 Y99.972 E13.00197
G1 X117.313 Y99.458 E13.03635
G1 X117.466 Y98.957 E13.07119
G1 X117.703 Y98.507 E13.10502
G1 X118.032 Y98.096 E13.14004
G0 F6000 X118.391 Y98.446
G1 F900 X118.712 Y98.17 E13.1682
G1 X119.08 Y97.96 E13.19639
G1 X119.481 Y97.822 E13.2246
G1 X119.946 Y97.76 E13.2558
G1 X120.33 Y97.75 E13.28136
G1 X139.325 Y97.75 E14.54491
G1 X140.023 Y97.76 E14.59135
G1 X140.445 Y97.806 E14.61958
G1 X140.85 Y97.93 E14.64776
G1 X141.224 Y98.128 E14.67591
G1 X141.555 Y98.393 E14.70411
G1 X141.831 Y98.715 E14.73233
G1 X142.041 Y99.083 E14.76051
G1 X142.179 Y99.484 E14.78872
G1 X142.24 Y99.947 E14.81979
G1 X142.25 Y100.33 E14.84527
G1 X142.25 Y119.292 E16.10663
G1 X142.241 Y120.019 E16.15499
G1 X142.196 Y120.44 E16.18316
G1 X142.072 Y120.846 E16.2114
G1 X141.875 Y121.221 E16.23957
G1 X141.611 Y121.552 E16.26774
G1 X141.29 Y121.828 E16.2959
G1 X140.922 Y122.039 E16.32412
G1 X140.521 Y122.178 E16.35235
G1 X140.054 Y122.24 E16.38369
G1 X139.67 Y122.25 E16.40924
G1 X120.678 Y122.25 E17.67259
G1 X119.98 Y122.241 E17.71903
G1 X119.559 Y122.195 E17.7472
G1 X119.153 Y122.072 E17.77542
G1 X118.778 Y121.875 E17.80359
G1 X118.447 Y121.61 E17.8318
G1 X118.171 Y121.289 E17.85996
G1 X117.96 Y120.921 E17.88818
G1 X117.822 Y120.52 E17.91639
G1 X117.76 Y120.052 E17.94779
G1 X117.75 Y119.658 E17.97401
G1 X117.75 Y100.644 E19.23883
G1 X117.759 Y99.979 E19.28307
G1 X117.805 Y99.557 E19.3113
G1 X117.929 Y99.152 E19.33948
G1 X118.126 Y98.777 E19.36766
G1 X118.391 Y98.446 E19.39586
G1 F1800 E18.89586
;MESH:CalibrationCube
EXCLUDE_OBJECT_START NAME=CalibrationCube
G0 F6000 X120.414 Y100.414
G0 X121.25 Y118.75
;TYPE:WALL-INNER
G1 F1800 E19.39586
G1 F900 X138.75 Y118.75 E20.55997
G1 X138.75 Y101.25 E21.72407
G1 X121.25 Y101.25 E22.88818
G1 X121.25 Y118.75 E24.05228
G0 F6000 X120.75 Y119.25
G1 F900 X139.25 Y119.25 E25.28291
G1 X139.25 Y100.75 E26.51353
G1 X120.75 Y100.75 E27.74416
G1 X120.75 Y119.25 E28.97478
G0 F6000 X120.25 Y119.75
;TYPE:WALL-OUTER
G1 F900 X139.75 Y119.75 E30.27193
G1 X139.75 Y100.25 E31.56907
G1 X120.25 Y100.25 E32.86622
G1 X120.25 Y119.75 E34.16336
G0 F6000 X120.87 Y119.13
G0 X121.36 Y118.29
G0 X121.71 Y118.29
;TYPE:SKIN
G1 F900 X121.71 Y101.71 E35.26627
G1 X138.29 Y101.71 E36.36917
G1 X138.29 Y118.29 E37.47208
G1 X121.71 Y118.29 E38.57499
G0 F6000 X122.282 Y118.039
G1 F900 X121.958 Y117.716 E38.60542
G0 F6000 X121.958 Y117.009
G1 F900 X122.989 Y118.039 E38.70236
G0 F6000 X123.696 Y118.039
G1 F900 X121.958 Y116.302 E38.86582
G0 F6000 X121.958 Y115.594
G1 F900 X124.403 Y118.039 E39.09583
G0 F6000 X125.11 Y118.039
G1 F900 X121.958 Y114.887 E39.39235
G0 F6000 X121.958 Y114.18
G1 F900 X125.817 Y118.039 E39.75538
G0 F6000 X126.524 Y118.039
G1 F900 X121.958 Y113.473 E40.18492
G0 F6000 X121.958 Y112.766
G1 F900 X127.231 Y118.039 E40.68097
G0 F6000 X127.938 Y118.039
G1 F900 X121.958 Y112.059 E41.24353
G0 F6000 X121.958 Y111.352
G1 F900 X128.646 Y118.039 E41.87265
G0 F6000 X129.353 Y118.039
G1 F900 X121.958 Y110.645 E42.56828
G0 F6000 X121.958 Y109.938
G1 F900 X130.06 Y118.039 E43.33042
G0 F6000 X130.767 Y118.039
G1 F900 X121.958 Y109.231 E44.15907
G0 F6000 X121.958 Y108.523
G1 F900 X131.474 Y118.039 E45.05428
G0 F6000 X132.181 Y118.039
G1 F900 X121.958 Y107.816 E46.01599
G0 F6000 X121.958 Y107.109
G1 F900 X132.888 Y118.039 E47.04422
G0 F6000 X133.595 Y118.039
G1 F900 X121.958 Y106.402 E48.13896
G0 F6000 X121.958 Y105.695
G1 F900 X134.302 Y118.039 E49.30021
G0 F6000 X135.01 Y118.039
G1 F900 X121.958 Y104.988 E50.52801
G0 F6000 X121.958 Y104.281
G1 F900 X135.717 Y118.039 E51.82233
G0 F6000 X136.424 Y118.039
G1 F900 X121.958 Y103.574 E53.18315
G0 F6000 X121.958 Y102.867
G1 F900 X137.131 Y118.039 E54.61049
G0 F6000 X137.838 Y118.039
G1 F900 X121.958 Y102.159 E56.10438
G0 F6000 X122.465 Y101.959
G1 F900 X138.039 Y117.533 E57.56949
G0 F6000 X138.039 Y116.826
G1 F900 X123.173 Y101.959 E58.96804
G0 F6000 X123.88 Y101.959
G1 F900 X138.039 Y116.118 E60.30003
G0 F6000 X138.039 Y115.411
G1 F900 X124.587 Y101.959 E61.56551
G0 F6000 X125.294 Y101.959
G1 F900 X138.039 Y114.704 E62.76448
G0 F6000 X138.039 Y113.997
G1 F900 X126.001 Y101.959 E63.89694
G0 F6000 X126.708 Y101.959
G1 F900 X138.039 Y113.29 E64.96289
G0 F6000 X138.039 Y112.583
G1 F900 X127.415 Y101.959 E65.96234
G0 F6000 X128.122 Y101.959
G1 F900 X138.039 Y111.876 E66.89527
G0 F6000 X138.039 Y111.169
G1 F900 X128.829 Y101.959 E67.76169
G0 F6000 X129.537 Y101.959
G1 F900 X138.039 Y110.462 E68.56155
G0 F6000 X138.039 Y109.754
G1 F900 X130.244 Y101.959 E69.29485
G0 F6000 X130.951 Y101.959
G1 F900 X138.039 Y109.047 E69.96165
G0 F6000 X138.039 Y108.34
G1 F900 X131.658 Y101.959 E70.56194
G0 F6000 X132.365 Y101.959
G1 F900 X138.039 Y107.633 E71.09571
G0 F6000 X138.039 Y106.926
G1 F900 X133.072 Y101.959 E71.56298
G0 F6000 X133.779 Y101.959
G1 F900 X138.039 Y106.219 E71.96373
G0 F6000 X138.039 Y105.512
G1 F900 X134.486 Y101.959 E72.29797
G0 F6000 X135.193 Y101.959
G1 F900 X138.039 Y104.805 E72.56571
G0 F6000 X138.039 Y104.098
G1 F900 X135.9 Y101.959 E72.76693
G0 F6000 X136.608 Y101.959
G1 F900 X138.039 Y103.391 E72.9016
G0 F6000 X138.039 Y102.683
G1 F900 X137.315 Y101.959 E72.96971
G0 F6000 X137.315 Y101.3
M104 S205
G1 F1800 E72.46971
;MESH:NONMESH
EXCLUDE_OBJECT_END NAME=CalibrationCube
G0 F300 X137.315 Y101.3 Z0.64
G0 F6000 X120.414 Y100.414
G0 X118.391 Y98.446
;TIME_ELAPSED:82.327791
;LAYER:1
M106 S255
;TYPE:SKIRT
G1 F1800 E72.96971
G1 F900 X118.712 Y98.17 E72.99224
G1 X119.08 Y97.96 E73.01479
G1 X119.481 Y97.822 E73.03735
G1 X119.946 Y97.76 E73.06232
G1 X120.33 Y97.75 E73.08276
G1 X139.325 Y97.75 E74.0936
G1 X140.023 Y97.76 E74.13075
G1 X140.445 Y97.806 E74.15334
G1 X140.85 Y97.93 E74.17588
G1 X141.224 Y98.128 E74.1984
G1 X141.555 Y98.393 E74.22097
G1 X141.831 Y98.715 E74.24353
G1 X142.041 Y99.083 E74.26608
G1 X142.179 Y99.484 E74.28865
G1 X142.24 Y99.947 E74.3135
G1 X142.25 Y100.33 E74.33389
G1 X142.25 Y119.292 E75.34298
G1 X142.241 Y120.019 E75.38167
G1 X142.196 Y120.44 E75.4042
G1 X142.072 Y120.846 E75.42679
G1 X141.875 Y121.221 E75.44933
G1 X141.611 Y121.552 E75.47186
G1 X141.29 Y121.828 E75.49439
G1 X140.922 Y122.039 E75.51697
G1 X140.521 Y122.178 E75.53955
G1 X140.054 Y122.24 E75.56462
G1 X139.67 Y122.25 E75.58506
G1 X120.678 Y122.25 E76.59575
G1 X119.98 Y122.241 E76.63289
G1 X119.559 Y122.195 E76.65543
G1 X119.153 Y122.072 E76.67801
G1 X118.778 Y121.875 E76.70055
G1 X118.447 Y121.61 E76.72311
G1 X118.171 Y121.289 E76.74564
G1 X117.96 Y120.921 E76.76822
G1 X117.822 Y120.52 E76.79079
G1 X117.76 Y120.052 E76.81591
G1 X117.75 Y119.658 E76.83688
G1 X117.75 Y100.644 E77.84874
G1 X117.759 Y99.979 E77.88413
G1 X117.805 Y99.557 E77.90672
G1 X117.929 Y99.152 E77.92926
G1 X118.126 Y98.777 E77.9518
G1 X118.391 Y98.446 E77.97436
G1 F1800 E77.47436
;MESH:CalibrationCube
EXCLUDE_OBJECT_START NAME=CalibrationCube
G0 F10500 X120.414 Y100.414
G0 X121 Y119
;TYPE:WALL-INNER
G1 F1800 E77.97436
G1 F2700 X139 Y119 E78.93226
G1 X139 Y101 E79.89015
G1 X121 Y101 E80.84804
G1 X121 Y119 E81.80593
G0 F10500 X120.6 Y119.4
G1 F2700 X139.4 Y119.4 E82.8064
G1 X139.4 Y100.6 E83.80686
G1 X120.6 Y100.6 E84.80733
G1 X120.6 Y119.4 E85.80779
G0 F10500 X120.2 Y119.8
;TYPE:WALL-OUTER
G1 F2700 X139.8 Y119.8 E86.85083
G1 X139.8 Y100.2 E87.89387
G1 X120.2 Y100.2 E88.9369
G1 X120.2 Y119.8 E89.97994
G0 F10500 X120.47 Y119.53
G0 X121.36 Y118.64
;TYPE:SKIN
G1 F1950 X121.36 Y101.36 E90.89952
G1 X138.64 Y101.36 E91.81909
G1 X138.64 Y118.64 E92.73867
G1 X121.36 Y118.64 E93.65825
G0 F10500 X121.559 Y101.886
G1 F1950 X121.886 Y101.559 E93.68286
G0 F10500 X122.451 Y101.559
G1 F1950 X121.559 Y102.451 E93.74999
G0 F10500 X121.559 Y103.017
G1 F1950 X123.017 Y101.559 E93.85972
G0 F10500 X123.583 Y101.559
G1 F1950 X121.559 Y103.583 E94.01204
G0 F10500 X121.559 Y104.149
G1 F1950 X124.148 Y101.559 E94.20692
G0 F10500 X124.714 Y101.559
G1 F1950 X121.559 Y104.714 E94.44437
G0 F10500 X121.559 Y105.28
G1 F1950 X125.28 Y101.559 E94.72441
G0 F10500 X125.845 Y101.559
G1 F1950 X121.559 Y105.846 E95.047
G0 F10500 X121.559 Y106.411
G1 F1950 X126.411 Y101.559 E95.41216
G0 F10500 X126.977 Y101.559
G1 F1950 X121.559 Y106.977 E95.81991
G0 F10500 X121.559 Y107.543
G1 F1950 X127.542 Y101.559 E96.27023
G0 F10500 X128.108 Y101.559
G1 F1950 X121.559 Y108.108 E96.7631
G0 F10500 X121.559 Y108.674
G1 F1950 X128.674 Y101.559 E97.29857
G0 F10500 X129.24 Y101.559
G1 F1950 X121.559 Y109.24 E97.87663
G0 F10500 X121.559 Y109.805
G1 F1950 X129.805 Y101.559 E98.49722
G0 F10500 X130.371 Y101.559
G1 F1950 X121.559 Y110.371 E99.1604
G0 F10500 X121.559 Y110.937
G1 F1950 X130.937 Y101.559 E99.86618
G0 F10500 X131.502 Y101.559
G1 F1950 X121.559 Y111.502 E100.61448
G0 F10500 X121.559 Y112.068
G1 F1950 X132.068 Y101.559 E101.40538
G0 F10500 X132.634 Y101.559
G1 F1950 X121.559 Y112.634 E102.23888
G0 F10500 X121.559 Y113.2
G1 F1950 X133.199 Y101.559 E103.11493
G0 F10500 X133.765 Y101.559
G1 F1950 X121.559 Y113.765 E104.03354
G0 F10500 X121.559 Y114.331
G1 F1950 X134.331 Y101.559 E104.99475
G0 F10500 X134.896 Y101.559
G1 F1950 X121.559 Y114.897 E105.99852
G0 F10500 X121.559 Y115.462
G1 F1950 X135.462 Y101.559 E107.04485
G0 F10500 X136.028 Y101.559
G1 F1950 X121.559 Y116.028 E108.13377
G0 F10500 X121.559 Y116.594
G1 F1950 X136.593 Y101.559 E109.26525
G0 F10500 X137.159 Y101.559
G1 F1950 X121.559 Y117.159 E110.43929
G0 F10500 X121.559 Y117.725
G1 F1950 X137.725 Y101.559 E111.65593
G0 F10500 X138.29 Y101.559
G1 F1950 X121.559 Y118.291 E112.91513
G0 F10500 X121.976 Y118.439
G1 F1950 X138.439 Y101.976 E114.15412
G0 F10500 X138.439 Y102.542
G1 F1950 X122.542 Y118.439 E115.35051
G0 F10500 X123.107 Y118.439
G1 F1950 X138.439 Y103.108 E116.50435
G0 F10500 X138.439 Y103.673
G1 F1950 X123.673 Y118.439 E117.61563
G0 F10500 X124.239 Y118.439
G1 F1950 X138.439 Y104.239 E118.6843
G0 F10500 X138.439 Y104.805
G1 F1950 X124.805 Y118.439 E119.71039
G0 F10500 X125.37 Y118.439
G1 F1950 X138.439 Y105.37 E120.69395
G0 F10500 X138.439 Y105.936
G1 F1950 X125.936 Y118.439 E121.63491
G0 F10500 X126.502 Y118.439
G1 F1950 X138.439 Y106.502 E122.53328
G0 F10500 X138.439 Y107.067
G1 F1950 X127.067 Y118.439 E123.38913
G0 F10500 X127.633 Y118.439
G1 F1950 X138.439 Y107.633 E124.20238
G0 F10500 X138.439 Y108.199
G1 F1950 X128.199 Y118.439 E124.97303
G0 F10500 X128.764 Y118.439
G1 F1950 X138.439 Y108.765 E125.70112
G0 F10500 X138.439 Y109.33
G1 F1950 X129.33 Y118.439 E126.38666
G0 F10500 X129.896 Y118.439
G1 F1950 X138.439 Y109.896 E127.0296
G0 F10500 X138.439 Y110.462
G1 F1950 X130.461 Y118.439 E127.62998
G0 F10500 X131.027 Y118.439
G1 F1950 X138.439 Y111.027 E128.1878
G0 F10500 X138.439 Y111.593
G1 F1950 X131.593 Y118.439 E128.70302
G0 F10500 X132.158 Y118.439
G1 F1950 X138.439 Y112.159 E129.17569
G0 F10500 X138.439 Y112.724
G1 F1950 X132.724 Y118.439 E129.60579
G0 F10500 X133.29 Y118.439
G1 F1950 X138.439 Y113.29 E129.9933
G0 F10500 X138.439 Y113.856
G1 F1950 X133.856 Y118.439 E130.33821
G0 F10500 X134.421 Y118.439
G1 F1950 X138.439 Y114.421 E130.6406
G0 F10500 X138.439 Y114.987
G1 F1950 X134.987 Y118.439 E130.9004
G0 F10500 X135.553 Y118.439
G1 F1950 X138.439 Y115.553 E131.1176
G0 F10500 X138.439 Y116.118
G1 F1950 X136.118 Y118.439 E131.29227
G0 F10500 X136.684 Y118.439
G1 F1950 X138.439 Y116.684 E131.42435
G0 F10500 X138.439 Y117.25
G1 F1950 X137.25 Y118.439 E131.51384
G0 F10500 X137.815 Y118.439
G1 F1950 X138.439 Y117.816 E131.56076
G0 F10500 X138.439 Y118.381
G1 F1950 X138.381 Y118.439 E131.56512
G1 F1800 E131.06512
;MESH:NONMESH
EXCLUDE_OBJECT_END NAME=CalibrationCube
G0 F300 X138.381 Y118.439 Z0.96
G0 F10500 X120.414 Y100.414
G0 X118.391 Y98.446
;TIME_ELAPSED:125.870444
;LAYER:2
;TYPE:SKIRT
G1 F1800 E131.56512
G1 F900 X118.712 Y98.17 E131.58765
G1 X119.08 Y97.96 E131.6102
G1 X119.481 Y97.822 E131.63277
G1 X119.946 Y97.76 E131.65773
G1 X120.33 Y97.75 E131.67818
G1 X139.325 Y97.75 E132.68902
G1 X140.023 Y97.76 E132.72617
G1 X140.445 Y97.806 E132.74876
G1 X140.85 Y97.93 E132.7713
G1 X141.224 Y98.128 E132.79382
G1 X141.555 Y98.393 E132.81638
G1 X141.831 Y98.715 E132.83895
G1 X142.041 Y99.083 E132.8615
G1 X142.179 Y99.484 E132.88407
G1 X142.24 Y99.947 E132.90892
G1 X142.25 Y100.33 E132.92931
G1 X142.25 Y119.292 E133.93839
G1 X142.241 Y120.019 E133.97708
G1 X142.196 Y120.44 E133.99961
G1 X142.072 Y120.846 E134.02221
G1 X141.875 Y121.221 E134.04475
G1 X141.611 Y121.552 E134.06728
G1 X141.29 Y121.828 E134.08981
G1 X140.922 Y122.039 E134.11238
G1 X140.521 Y122.178 E134.13497
G1 X140.054 Y122.24 E134.16004
G1 X139.67 Y122.25 E134.18048
G1 X120.678 Y122.25 E135.19116
G1 X119.98 Y122.241 E135.22831
G1 X119.559 Y122.195 E135.25085
G1 X119.153 Y122.072 E135.27342
G1 X118.778 Y121.875 E135.29596
G1 X118.447 Y121.61 E135.31853
G1 X118.171 Y121.289 E135.34106
G1 X117.96 Y120.921 E135.36363
G1 X117.822 Y120.52 E135.3862
G1 X117.76 Y120.052 E135.41132
G1 X117.75 Y119.658 E135.4323
G1 X117.75 Y100.644 E136.44415
G1 X117.759 Y99.979 E136.47954
G1 X117.805 Y99.557 E136.50213
